;FLAVOR:Marlin
;TIME:5790
;Filament used: 3.5361m
;Layer height: 0.16
;MINX:22.275
;MINY:27.966
;MINZ:0.2
;MAXX:164.439
;MAXY:170.33
;MAXZ:7.88
;Generated with Cura_SteamEngine 4.13.1
M140 S65
M105
M190 S65
M104 S205
M105
M109 S205
M82 ;absolute extrusion mode
; Ender 3 Custom Start G-code
G92 E0 ; Reset Extruder
G28 ; Home all axes
G1 Z2.0 F3000 ; Move Z Axis up little to prevent scratching of Heat Bed
G1 X0.1 Y20 Z0.3 F5000.0 ; Move to start position
G1 X0.1 Y200.0 Z0.3 F1500.0 E15 ; Draw the first line
G1 X0.4 Y200.0 Z0.3 F5000.0 ; Move to side a little
G1 X0.4 Y20 Z0.3 F1500.0 E30 ; Draw the second line
G92 E0 ; Reset Extruder
G1 Z2.0 F3000 ; Move Z Axis up little to prevent scratching of Heat Bed
G1 X5 Y20 Z0.3 F5000.0 ; Move over to prevent blob squish
G92 E0
G92 E0
G1 F2700 E-5
;LAYER_COUNT:41
;LAYER:0
M107
G0 F6000 X27.866 Y32.593 Z0.2
;TYPE:SKIRT
G1 F2700 E0
G1 F1200 X28.398 Y32.143 E0.02318
G1 X29.1 Y31.586 E0.05298
G1 X29.368 Y31.38 E0.06422
G1 X29.924 Y30.966 E0.08728
G1 X30.699 Y30.439 E0.11845
G1 X31.516 Y29.979 E0.14964
G1 X32.103 Y29.703 E0.17121
G1 X32.96 Y29.33 E0.2023
G1 X33.285 Y29.195 E0.214
G1 X33.891 Y28.954 E0.23569
G1 X34.777 Y28.645 E0.2669
G1 X35.685 Y28.412 E0.29808
G1 X36.335 Y28.295 E0.32005
G1 X37.261 Y28.157 E0.35119
G1 X37.603 Y28.112 E0.36266
G1 X38.252 Y28.036 E0.38439
G1 X39.187 Y27.966 E0.41558
G1 X40.125 Y27.977 E0.44678
G1 X40.785 Y28.033 E0.46881
G1 X41.735 Y28.142 E0.50061
G1 X42.049 Y28.182 E0.51114
G1 X42.674 Y28.272 E0.53214
G1 X43.596 Y28.445 E0.56334
G1 X44.499 Y28.696 E0.59452
G1 X45.153 Y28.931 E0.61763
G1 X46.025 Y29.276 E0.64882
G1 X46.321 Y29.399 E0.65948
G1 X46.94 Y29.665 E0.68189
G1 X48.06 Y30.224 E0.72352
G1 X49.426 Y31.007 E0.77589
G1 X49.497 Y31.049 E0.77864
G1 X51.711 Y32.272 E0.86276
G1 X53.934 Y33.419 E0.94596
G1 X56.233 Y34.524 E1.0308
G1 X58.527 Y35.547 E1.11434
G1 X60.864 Y36.514 E1.19846
G1 X63.204 Y37.4 E1.28168
G1 X65.577 Y38.227 E1.36526
G1 X67.97 Y38.985 E1.44875
G1 X70.396 Y39.677 E1.53266
G1 X72.811 Y40.294 E1.61556
G1 X75.318 Y40.861 E1.70105
G1 X77.769 Y41.339 E1.78411
G1 X80.227 Y41.748 E1.86699
G1 X82.741 Y42.094 E1.95139
G1 X85.253 Y42.369 E2.03544
G1 X87.733 Y42.568 E2.11819
G1 X90.253 Y42.699 E2.20212
G1 X92.778 Y42.759 E2.28612
G1 X95.299 Y42.749 E2.36997
G1 X97.821 Y42.666 E2.4539
G1 X100.317 Y42.513 E2.53707
G1 X102.816 Y42.289 E2.62052
G1 X105.322 Y41.993 E2.70445
G1 X107.815 Y41.626 E2.78827
G1 X110.315 Y41.186 E2.87269
G1 X112.749 Y40.686 E2.95534
G1 X115.205 Y40.11 E3.03924
G1 X117.668 Y39.458 E3.12398
G1 X120.037 Y38.757 E3.20615
G1 X122.465 Y37.964 E3.29111
G1 X124.813 Y37.123 E3.37406
G1 X127.164 Y36.206 E3.45799
G1 X129.498 Y35.217 E3.5423
G1 X131.786 Y34.171 E3.62598
G1 X134.031 Y33.067 E3.70919
G1 X136.282 Y31.88 E3.79383
G1 X138.5 Y30.629 E3.87852
G1 X138.73 Y30.495 E3.88738
G1 X139.882 Y29.912 E3.93032
G1 X140.773 Y29.525 E3.96263
G1 X141.09 Y29.393 E3.97405
G1 X141.691 Y29.154 E3.99556
G1 X142.577 Y28.844 E4.02678
G1 X143.485 Y28.612 E4.05795
G1 X144.135 Y28.495 E4.07992
G1 X145.061 Y28.357 E4.11106
G1 X145.403 Y28.312 E4.12253
G1 X146.052 Y28.236 E4.14427
G1 X146.987 Y28.166 E4.17545
G1 X147.925 Y28.177 E4.20665
G1 X148.585 Y28.233 E4.22868
G1 X149.535 Y28.342 E4.26049
G1 X149.849 Y28.382 E4.27101
G1 X150.474 Y28.472 E4.29202
G1 X151.396 Y28.645 E4.32322
G1 X152.299 Y28.896 E4.35439
G1 X152.953 Y29.131 E4.3775
G1 X153.825 Y29.476 E4.40869
G1 X154.121 Y29.599 E4.41935
G1 X154.719 Y29.856 E4.441
G1 X155.564 Y30.262 E4.47218
G1 X156.372 Y30.74 E4.50341
G1 X156.925 Y31.124 E4.5258
G1 X157.678 Y31.682 E4.55697
G1 X157.931 Y31.875 E4.56756
G1 X158.447 Y32.281 E4.58939
G1 X159.159 Y32.892 E4.6206
G1 X159.816 Y33.561 E4.65179
G1 X160.262 Y34.089 E4.67477
G1 X160.819 Y34.791 E4.70458
G1 X161.023 Y35.056 E4.7157
G1 X161.438 Y35.613 E4.73881
G1 X161.966 Y36.388 E4.77
G1 X162.425 Y37.206 E4.80119
G1 X162.706 Y37.801 E4.82308
G1 X163.078 Y38.657 E4.85412
G1 X163.208 Y38.97 E4.86539
G1 X163.449 Y39.575 E4.88705
G1 X163.759 Y40.461 E4.91827
G1 X163.992 Y41.369 E4.94945
G1 X164.11 Y42.026 E4.97166
G1 X164.248 Y42.953 E5.00283
G1 X164.293 Y43.294 E5.01427
G1 X164.369 Y43.943 E5.036
G1 X164.439 Y44.878 E5.06719
G1 X164.428 Y45.816 E5.09839
G1 X164.372 Y46.476 E5.12042
G1 X164.263 Y47.426 E5.15222
G1 X164.222 Y47.742 E5.16282
G1 X164.132 Y48.366 E5.18379
G1 X163.959 Y49.288 E5.21499
G1 X163.708 Y50.192 E5.24619
G1 X163.475 Y50.839 E5.26907
G1 X163.13 Y51.712 E5.30029
G1 X163.011 Y52 E5.31065
G1 X162.748 Y52.614 E5.33287
G1 X162.182 Y53.751 E5.37511
G1 X161.567 Y54.825 E5.41627
G1 X161.523 Y54.911 E5.41949
G1 X160.475 Y56.776 E5.49064
G1 X159.31 Y58.993 E5.57394
G1 X158.203 Y61.255 E5.6577
G1 X157.161 Y63.544 E5.74135
G1 X156.19 Y65.849 E5.82454
G1 X155.261 Y68.238 E5.90979
G1 X154.428 Y70.582 E5.99253
G1 X153.653 Y72.97 E6.07604
G1 X152.944 Y75.384 E6.15972
G1 X152.302 Y77.822 E6.24357
G1 X151.729 Y80.283 E6.32761
G1 X151.219 Y82.781 E6.41241
G1 X150.803 Y85.183 E6.49349
G1 X150.431 Y87.739 E6.5794
G1 X150.144 Y90.206 E6.662
G1 X149.925 Y92.706 E6.74547
G1 X149.774 Y95.238 E6.82984
G1 X149.696 Y97.76 E6.91376
G1 X149.688 Y100.279 E6.99754
G1 X149.753 Y102.775 E7.08059
G1 X149.888 Y105.292 E7.16442
G1 X150.096 Y107.817 E7.24869
G1 X150.372 Y110.312 E7.33218
G1 X150.718 Y112.79 E7.4154
G1 X151.137 Y115.274 E7.49918
G1 X151.629 Y117.765 E7.58364
G1 X152.187 Y120.219 E7.66734
G1 X152.811 Y122.646 E7.75069
G1 X153.501 Y125.045 E7.83371
G1 X154.276 Y127.474 E7.91851
G1 X155.093 Y129.812 E8.00089
G1 X156.005 Y132.198 E8.08585
G1 X156.957 Y134.496 E8.16858
G1 X157.998 Y136.816 E8.25315
G1 X159.083 Y139.064 E8.33617
G1 X160.251 Y141.318 E8.42061
G1 X161.811 Y144.106 E8.52687
G1 X162.107 Y144.614 E8.54642
G1 X162.694 Y145.774 E8.58966
G1 X163.078 Y146.658 E8.62172
G1 X163.208 Y146.97 E8.63296
G1 X163.449 Y147.575 E8.65462
G1 X163.759 Y148.461 E8.68584
G1 X163.992 Y149.369 E8.71702
G1 X164.11 Y150.026 E8.73922
G1 X164.248 Y150.953 E8.77039
G1 X164.293 Y151.294 E8.78183
G1 X164.369 Y151.943 E8.80357
G1 X164.439 Y152.878 E8.83475
G1 X164.428 Y153.816 E8.86595
G1 X164.372 Y154.476 E8.88798
G1 X164.263 Y155.426 E8.91979
G1 X164.222 Y155.742 E8.93039
G1 X164.132 Y156.366 E8.95136
G1 X163.959 Y157.288 E8.98256
G1 X163.708 Y158.192 E9.01376
G1 X163.475 Y158.839 E9.03663
G1 X163.13 Y159.712 E9.06785
G1 X163.006 Y160.012 E9.07865
G1 X162.749 Y160.61 E9.1003
G1 X162.343 Y161.455 E9.13148
G1 X161.865 Y162.263 E9.1627
G1 X161.478 Y162.82 E9.18526
G1 X160.918 Y163.575 E9.21653
G1 X160.731 Y163.82 E9.22678
G1 X160.327 Y164.334 E9.24852
G1 X159.717 Y165.046 E9.27971
G1 X159.048 Y165.703 E9.31089
G1 X158.524 Y166.147 E9.33374
G1 X157.822 Y166.705 E9.36356
G1 X157.536 Y166.924 E9.37555
G1 X156.98 Y167.337 E9.39858
G1 X156.204 Y167.864 E9.42978
G1 X155.386 Y168.323 E9.46098
G1 X154.816 Y168.591 E9.48193
G1 X153.974 Y168.958 E9.51248
G1 X153.644 Y169.095 E9.52436
G1 X153.023 Y169.342 E9.54659
G1 X152.138 Y169.651 E9.57777
G1 X151.229 Y169.884 E9.60898
G1 X150.579 Y170.001 E9.63094
G1 X149.653 Y170.139 E9.66208
G1 X149.311 Y170.184 E9.67356
G1 X148.662 Y170.26 E9.69529
G1 X147.727 Y170.33 E9.72647
G1 X146.789 Y170.319 E9.75768
G1 X146.129 Y170.263 E9.77971
G1 X145.179 Y170.154 E9.81151
G1 X144.865 Y170.114 E9.82204
G1 X144.24 Y170.024 E9.84304
G1 X143.318 Y169.851 E9.87424
G1 X142.415 Y169.6 E9.90541
G1 X141.761 Y169.365 E9.92853
G1 X140.889 Y169.02 E9.95972
G1 X140.589 Y168.896 E9.97051
G1 X139.966 Y168.628 E9.99307
G1 X138.849 Y168.07 E10.0346
G1 X137.696 Y167.409 E10.0788
G1 X137.391 Y167.229 E10.09058
G1 X135.164 Y165.996 E10.17525
G1 X132.95 Y164.85 E10.25817
G1 X130.681 Y163.757 E10.34193
G1 X128.378 Y162.727 E10.42584
G1 X126.025 Y161.752 E10.51056
G1 X123.698 Y160.867 E10.59336
G1 X121.337 Y160.042 E10.67655
G1 X118.947 Y159.283 E10.75995
G1 X116.501 Y158.581 E10.84459
G1 X114.074 Y157.959 E10.92792
G1 X111.58 Y157.393 E11.01298
G1 X109.147 Y156.915 E11.09545
G1 X106.65 Y156.497 E11.17965
G1 X104.19 Y156.155 E11.26226
G1 X101.665 Y155.877 E11.34675
G1 X99.171 Y155.674 E11.42998
G1 X96.64 Y155.54 E11.51427
G1 X94.118 Y155.478 E11.59818
G1 X91.594 Y155.487 E11.68213
G1 X89.096 Y155.566 E11.76526
G1 X86.595 Y155.716 E11.84859
G1 X84.065 Y155.94 E11.93307
G1 X81.569 Y156.233 E12.01665
G1 X79.116 Y156.591 E12.09911
G1 X76.604 Y157.03 E12.18392
G1 X74.106 Y157.54 E12.26872
G1 X71.725 Y158.097 E12.35005
G1 X69.255 Y158.749 E12.43502
G1 X66.835 Y159.461 E12.51892
G1 X64.456 Y160.236 E12.60214
G1 X62.071 Y161.087 E12.68636
G1 X59.732 Y161.998 E12.76985
G1 X57.392 Y162.987 E12.85434
G1 X55.126 Y164.019 E12.93716
G1 X52.868 Y165.127 E13.02081
G1 X50.619 Y166.31 E13.10533
G1 X48.302 Y167.616 E13.1938
G1 X47.999 Y167.793 E13.20547
G1 X46.827 Y168.387 E13.24917
G1 X45.942 Y168.771 E13.28126
G1 X45.629 Y168.901 E13.29253
G1 X45.023 Y169.142 E13.31422
G1 X44.137 Y169.451 E13.34543
G1 X43.229 Y169.684 E13.37661
G1 X42.579 Y169.801 E13.39857
G1 X41.653 Y169.939 E13.42971
G1 X41.311 Y169.984 E13.44119
G1 X40.662 Y170.06 E13.46292
G1 X39.727 Y170.13 E13.4941
G1 X38.789 Y170.119 E13.5253
G1 X38.129 Y170.063 E13.54733
G1 X37.179 Y169.954 E13.57914
G1 X36.865 Y169.914 E13.58967
G1 X36.24 Y169.824 E13.61067
G1 X35.318 Y169.651 E13.64187
G1 X34.415 Y169.4 E13.67304
G1 X33.763 Y169.165 E13.69609
G1 X32.883 Y168.817 E13.72757
G1 X32.578 Y168.691 E13.73854
G1 X31.988 Y168.437 E13.75991
G1 X31.144 Y168.03 E13.79107
G1 X30.336 Y167.553 E13.82228
G1 X29.785 Y167.169 E13.84462
G1 X29.03 Y166.609 E13.87588
G1 X28.785 Y166.422 E13.88614
G1 X28.271 Y166.018 E13.90788
G1 X27.559 Y165.408 E13.93906
G1 X26.902 Y164.739 E13.97025
G1 X26.452 Y164.207 E13.99343
G1 X25.895 Y163.505 E14.02323
G1 X25.691 Y163.24 E14.03435
G1 X25.276 Y162.683 E14.05746
G1 X24.748 Y161.908 E14.08865
G1 X24.289 Y161.09 E14.11984
G1 X24.008 Y160.495 E14.14173
G1 X23.636 Y159.639 E14.17277
G1 X23.504 Y159.32 E14.18426
G1 X23.263 Y158.714 E14.20595
G1 X22.954 Y157.828 E14.23716
G1 X22.721 Y156.92 E14.26833
G1 X22.604 Y156.27 E14.2903
G1 X22.466 Y155.344 E14.32144
G1 X22.421 Y155.002 E14.33291
G1 X22.345 Y154.353 E14.35465
G1 X22.275 Y153.418 E14.38583
G1 X22.286 Y152.48 E14.41703
G1 X22.342 Y151.82 E14.43906
G1 X22.451 Y150.87 E14.47087
G1 X22.492 Y150.554 E14.48147
G1 X22.582 Y149.93 E14.50243
G1 X22.755 Y149.008 E14.53364
G1 X23.006 Y148.104 E14.56484
G1 X23.239 Y147.457 E14.58771
G1 X23.584 Y146.584 E14.61893
G1 X23.71 Y146.278 E14.62994
G1 X23.976 Y145.66 E14.65232
G1 X24.529 Y144.551 E14.69354
G1 X25.113 Y143.529 E14.73269
G1 X25.384 Y143.07 E14.75041
G1 X26.596 Y140.88 E14.83366
G1 X27.761 Y138.628 E14.918
G1 X28.846 Y136.376 E15.00114
G1 X29.871 Y134.084 E15.08465
G1 X30.848 Y131.725 E15.16957
G1 X31.743 Y129.381 E15.25302
G1 X32.574 Y126.994 E15.33709
G1 X33.327 Y124.624 E15.4198
G1 X34.016 Y122.223 E15.50288
G1 X34.652 Y119.737 E15.58822
G1 X35.205 Y117.301 E15.67131
G1 X35.687 Y114.854 E15.75426
G1 X36.103 Y112.371 E15.83799
G1 X36.453 Y109.85 E15.92265
G1 X36.728 Y107.353 E16.0062
G1 X36.931 Y104.862 E16.08933
G1 X37.065 Y102.332 E16.17359
G1 X37.127 Y99.808 E16.25757
G1 X37.118 Y97.284 E16.34151
G1 X37.039 Y94.786 E16.42464
G1 X36.889 Y92.285 E16.50797
G1 X36.665 Y89.755 E16.59245
G1 X36.372 Y87.259 E16.67604
G1 X36.014 Y84.806 E16.75849
G1 X35.568 Y82.256 E16.84459
G1 X35.085 Y79.885 E16.92507
G1 X34.498 Y77.381 E17.01061
G1 X33.851 Y74.929 E17.09496
G1 X33.144 Y72.526 E17.17827
G1 X32.369 Y70.147 E17.26149
G1 X31.518 Y67.762 E17.34571
G1 X30.608 Y65.426 E17.42909
G1 X29.623 Y63.093 E17.51332
G1 X28.58 Y60.805 E17.59695
G1 X27.478 Y58.559 E17.68016
G1 X26.295 Y56.31 E17.76468
G1 X24.983 Y53.982 E17.85356
G1 X24.816 Y53.697 E17.86455
G1 X24.215 Y52.512 E17.90874
G1 X23.832 Y51.628 E17.94078
G1 X23.704 Y51.32 E17.95188
G1 X23.463 Y50.714 E17.97357
G1 X23.154 Y49.828 E18.00478
G1 X22.921 Y48.92 E18.03596
G1 X22.804 Y48.27 E18.05792
G1 X22.666 Y47.344 E18.08906
G1 X22.621 Y47.002 E18.10054
G1 X22.545 Y46.353 E18.12227
G1 X22.475 Y45.418 E18.15345
G1 X22.486 Y44.48 E18.18465
G1 X22.542 Y43.82 E18.20668
G1 X22.652 Y42.861 E18.23879
G1 X22.693 Y42.54 E18.24955
G1 X22.782 Y41.925 E18.27022
G1 X22.956 Y41.003 E18.30143
G1 X23.208 Y40.099 E18.33264
G1 X23.439 Y39.457 E18.35534
G1 X23.784 Y38.584 E18.38656
G1 X23.908 Y38.284 E18.39735
G1 X24.165 Y37.686 E18.419
G1 X24.571 Y36.841 E18.45018
G1 X25.049 Y36.033 E18.48141
G1 X25.436 Y35.476 E18.50397
G1 X25.996 Y34.721 E18.53523
G1 X26.183 Y34.476 E18.54548
G1 X26.587 Y33.962 E18.56723
G1 X27.197 Y33.25 E18.59841
G1 X27.866 Y32.593 E18.6296
G0 F6000 X28.159 Y32.867
G1 F1200 X28.646 Y32.456 E18.65079
G1 X29.348 Y31.899 E18.6806
G1 X29.606 Y31.701 E18.69141
G1 X30.162 Y31.287 E18.71447
G1 X30.924 Y30.77 E18.7451
G1 X31.728 Y30.321 E18.77573
G1 X32.263 Y30.07 E18.79538
G1 X33.12 Y29.697 E18.82647
G1 X33.433 Y29.566 E18.83775
G1 X34.039 Y29.325 E18.85944
G1 X34.908 Y29.023 E18.89004
G1 X35.801 Y28.796 E18.92069
G1 X36.394 Y28.691 E18.94072
G1 X37.32 Y28.553 E18.97186
G1 X37.649 Y28.509 E18.9829
G1 X38.298 Y28.433 E19.00463
G1 X39.216 Y28.366 E19.03525
G1 X40.137 Y28.378 E19.06588
G1 X40.739 Y28.43 E19.08598
G1 X41.689 Y28.539 E19.11778
G1 X41.992 Y28.578 E19.12794
G1 X42.617 Y28.668 E19.14895
G1 X43.522 Y28.839 E19.17958
G1 X44.408 Y29.087 E19.21018
G1 X45.006 Y29.303 E19.23133
G1 X45.878 Y29.648 E19.26252
G1 X46.163 Y29.766 E19.27278
G1 X46.782 Y30.032 E19.29518
G1 X47.862 Y30.571 E19.33533
G1 X49.223 Y31.351 E19.3875
G1 X49.32 Y31.409 E19.39126
G1 X51.526 Y32.627 E19.47508
G1 X53.77 Y33.785 E19.55906
G1 X56.032 Y34.872 E19.64253
G1 X58.39 Y35.924 E19.72841
G1 X60.706 Y36.882 E19.81177
G1 X63.034 Y37.764 E19.89457
G1 X65.473 Y38.613 E19.98047
G1 X67.836 Y39.361 E20.06291
G1 X70.302 Y40.065 E20.1482
G1 X72.729 Y40.685 E20.23152
G1 X75.257 Y41.257 E20.31773
G1 X77.663 Y41.726 E20.39926
G1 X80.178 Y42.145 E20.48406
G1 X82.71 Y42.494 E20.56907
G1 X85.179 Y42.763 E20.65167
G1 X87.716 Y42.968 E20.73633
G1 X90.258 Y43.1 E20.82099
G1 X92.77 Y43.159 E20.90456
G1 X95.315 Y43.149 E20.98921
G1 X97.821 Y43.066 E21.07261
G1 X100.343 Y42.912 E21.15664
G1 X102.863 Y42.686 E21.2408
G1 X105.39 Y42.387 E21.32543
G1 X107.871 Y42.022 E21.40884
G1 X110.399 Y41.577 E21.49421
G1 X112.85 Y41.074 E21.57743
G1 X115.286 Y40.503 E21.66065
G1 X117.746 Y39.851 E21.74529
G1 X120.202 Y39.125 E21.83048
G1 X122.556 Y38.356 E21.91284
G1 X124.976 Y37.489 E21.99834
G1 X127.329 Y36.571 E22.08235
G1 X129.641 Y35.592 E22.16585
G1 X131.963 Y34.53 E22.25078
G1 X134.216 Y33.422 E22.33429
G1 X136.443 Y32.247 E22.41803
G1 X138.691 Y30.98 E22.50386
G1 X138.931 Y30.84 E22.5131
G1 X140.041 Y30.278 E22.55448
G1 X140.932 Y29.891 E22.58679
G1 X141.238 Y29.764 E22.59781
G1 X141.839 Y29.525 E22.61932
G1 X142.709 Y29.223 E22.64995
G1 X143.601 Y28.996 E22.68057
G1 X144.194 Y28.891 E22.7006
G1 X145.12 Y28.753 E22.73174
G1 X145.449 Y28.709 E22.74278
G1 X146.098 Y28.633 E22.76451
G1 X147.016 Y28.566 E22.79512
G1 X147.937 Y28.578 E22.82576
G1 X148.539 Y28.63 E22.84586
G1 X149.489 Y28.739 E22.87766
G1 X149.792 Y28.778 E22.88782
G1 X150.417 Y28.868 E22.90882
G1 X151.322 Y29.039 E22.93946
G1 X152.208 Y29.287 E22.97006
G1 X152.806 Y29.503 E22.9912
G1 X153.678 Y29.848 E23.02239
G1 X153.963 Y29.966 E23.03265
G1 X154.561 Y30.223 E23.0543
G1 X155.391 Y30.623 E23.08495
G1 X156.182 Y31.094 E23.11557
G1 X156.687 Y31.445 E23.13602
G1 X157.44 Y32.003 E23.16719
G1 X157.684 Y32.19 E23.17742
G1 X158.2 Y32.596 E23.19926
G1 X158.898 Y33.196 E23.22987
G1 X159.541 Y33.854 E23.26047
G1 X159.949 Y34.337 E23.2815
G1 X160.506 Y35.039 E23.3113
G1 X160.702 Y35.295 E23.32203
G1 X161.117 Y35.852 E23.34513
G1 X161.635 Y36.613 E23.37575
G1 X162.084 Y37.417 E23.40638
G1 X162.339 Y37.96 E23.42633
G1 X162.711 Y38.816 E23.45737
G1 X162.836 Y39.118 E23.46824
G1 X163.077 Y39.723 E23.4899
G1 X163.381 Y40.593 E23.52056
G1 X163.607 Y41.485 E23.55116
G1 X163.714 Y42.085 E23.57143
G1 X163.852 Y43.012 E23.6026
G1 X163.896 Y43.34 E23.61361
G1 X163.972 Y43.989 E23.63534
G1 X164.039 Y44.907 E23.66596
G1 X164.027 Y45.828 E23.69659
G1 X163.975 Y46.43 E23.71669
G1 X163.866 Y47.38 E23.7485
G1 X163.826 Y47.685 E23.75873
G1 X163.736 Y48.309 E23.7797
