;FLAVOR:Marlin
;TIME:11689
;Filament used: 9.25792m
;Layer height: 0.2
;MINX:21.476
;MINY:33.658
;MINZ:0.2
;MAXX:191.476
;MAXY:139.658
;MAXZ:3
;Generated with Cura_SteamEngine 4.13.1
M140 S65
M105
M190 S65
M104 S205
M105
M109 S205
M82 ;absolute extrusion mode
; Ender 3 Custom Start G-code
G92 E0 ; Reset Extruder
G28 ; Home all axes
G1 Z2.0 F3000 ; Move Z Axis up little to prevent scratching of Heat Bed
G1 X0.1 Y20 Z0.3 F5000.0 ; Move to start position
G1 X0.1 Y200.0 Z0.3 F1500.0 E15 ; Draw the first line
G1 X0.4 Y200.0 Z0.3 F5000.0 ; Move to side a little
G1 X0.4 Y20 Z0.3 F1500.0 E30 ; Draw the second line
G92 E0 ; Reset Extruder
G1 Z2.0 F3000 ; Move Z Axis up little to prevent scratching of Heat Bed
G1 X5 Y20 Z0.3 F5000.0 ; Move over to prevent blob squish
G92 E0
G92 E0
G1 F2700 E-5
;LAYER_COUNT:15
;LAYER:0
M107
G0 F6000 X26.102 Y35.709 Z0.2
;TYPE:SKIRT
G1 F2700 E0
G1 F1200 X26.888 Y35.197 E0.0312
G1 X27.715 Y34.755 E0.06239
G1 X28.577 Y34.385 E0.09359
G1 X29.467 Y34.089 E0.12478
G1 X30.379 Y33.871 E0.15597
G1 X31.306 Y33.73 E0.18716
G1 X32.177 Y33.671 E0.21619
G1 X32.498 Y33.662 E0.22687
G1 X32.806 Y33.658 E0.23712
G1 X179.769 Y33.658 E5.12513
G1 X180.625 Y33.669 E5.1536
G1 X181.561 Y33.723 E5.18479
G1 X182.489 Y33.855 E5.21596
G1 X183.403 Y34.067 E5.24717
G1 X184.295 Y34.356 E5.27835
G1 X185.16 Y34.719 E5.30956
G1 X185.99 Y35.155 E5.34074
G1 X186.781 Y35.66 E5.37195
G1 X187.525 Y36.231 E5.40314
G1 X188.218 Y36.863 E5.43434
G1 X188.855 Y37.551 E5.46552
G1 X189.43 Y38.292 E5.49672
G1 X189.941 Y39.078 E5.5279
G1 X190.383 Y39.906 E5.55912
G1 X190.752 Y40.768 E5.59031
G1 X191.047 Y41.658 E5.62149
G1 X191.265 Y42.57 E5.65268
G1 X191.405 Y43.498 E5.68389
G1 X191.463 Y44.359 E5.7126
G1 X191.472 Y44.679 E5.72324
G1 X191.476 Y44.988 E5.73352
G1 X191.475 Y128.058 E8.49644
G1 X191.466 Y128.785 E8.52062
G1 X191.415 Y129.722 E8.55183
G1 X191.283 Y130.65 E8.58301
G1 X191.074 Y131.564 E8.61419
G1 X190.787 Y132.457 E8.64539
G1 X190.425 Y133.323 E8.67661
G1 X189.991 Y134.154 E8.70779
G1 X189.487 Y134.945 E8.73899
G1 X188.918 Y135.69 E8.77017
G1 X188.287 Y136.385 E8.80139
G1 X187.6 Y137.023 E8.83257
G1 X186.861 Y137.6 E8.86376
G1 X186.075 Y138.112 E8.89495
G1 X185.249 Y138.555 E8.92613
G1 X184.387 Y138.927 E8.95736
G1 X183.498 Y139.223 E8.98852
G1 X182.586 Y139.443 E9.01972
G1 X181.659 Y139.584 E9.05091
G1 X180.775 Y139.645 E9.08038
G1 X180.454 Y139.654 E9.09106
G1 X180.146 Y139.658 E9.10131
G1 X33.041 Y139.657 E13.99404
G1 X32.343 Y139.648 E14.01726
G1 X31.407 Y139.596 E14.04844
G1 X30.478 Y139.464 E14.07965
G1 X29.564 Y139.254 E14.11084
G1 X28.671 Y138.967 E14.14204
G1 X27.806 Y138.604 E14.17324
G1 X26.975 Y138.17 E14.20442
G1 X26.184 Y137.666 E14.23561
G1 X25.439 Y137.096 E14.26681
G1 X24.745 Y136.465 E14.29801
G1 X24.108 Y135.778 E14.32917
G1 X23.531 Y135.038 E14.36038
G1 X23.019 Y134.252 E14.39158
G1 X22.576 Y133.425 E14.42278
G1 X22.205 Y132.564 E14.45397
G1 X21.909 Y131.674 E14.48516
G1 X21.69 Y130.762 E14.51636
G1 X21.549 Y129.835 E14.54754
G1 X21.489 Y128.946 E14.57718
G1 X21.48 Y128.613 E14.58826
G1 X21.476 Y128.316 E14.59814
G1 X21.477 Y45.183 E17.36315
G1 X21.486 Y44.518 E17.38527
G1 X21.539 Y43.582 E17.41645
G1 X21.671 Y42.653 E17.44766
G1 X21.882 Y41.739 E17.47886
G1 X22.17 Y40.847 E17.51004
G1 X22.533 Y39.982 E17.54124
G1 X22.968 Y39.151 E17.57244
G1 X23.472 Y38.361 E17.6036
G1 X24.042 Y37.616 E17.6348
G1 X24.674 Y36.922 E17.66602
G1 X25.362 Y36.285 E17.69721
G1 X26.102 Y35.709 E17.7284
G0 F6000 X26.486 Y35.928
G1 F1200 X27.267 Y35.44 E17.75903
G1 X28.087 Y35.022 E17.78964
G1 X28.941 Y34.677 E17.82027
G1 X29.821 Y34.407 E17.85089
G1 X30.721 Y34.215 E17.8815
G1 X31.635 Y34.101 E17.91213
G1 X32.188 Y34.071 E17.93055
G1 X32.509 Y34.062 E17.94123
G1 X32.806 Y34.058 E17.95111
G1 X179.769 Y34.058 E22.83912
G1 X180.619 Y34.069 E22.8674
G1 X181.538 Y34.122 E22.89801
G1 X182.449 Y34.255 E22.92863
G1 X183.345 Y34.466 E22.95925
G1 X184.219 Y34.754 E22.98986
G1 X185.066 Y35.117 E23.02051
G1 X185.877 Y35.552 E23.05112
G1 X186.647 Y36.056 E23.08172
G1 X187.371 Y36.625 E23.11235
G1 X188.043 Y37.255 E23.14299
G1 X188.658 Y37.94 E23.17361
G1 X189.211 Y38.676 E23.20423
G1 X189.698 Y39.457 E23.23484
G1 X190.115 Y40.278 E23.26547
G1 X190.46 Y41.132 E23.2961
G1 X190.729 Y42.012 E23.32671
G1 X190.921 Y42.913 E23.35735
G1 X191.034 Y43.826 E23.38794
G1 X191.063 Y44.37 E23.40606
G1 X191.072 Y44.69 E23.41671
G1 X191.076 Y44.988 E23.42662
G1 X191.075 Y128.053 E26.18938
G1 X191.066 Y128.78 E26.21356
G1 X191.015 Y129.699 E26.24417
G1 X190.884 Y130.611 E26.27482
G1 X190.674 Y131.507 E26.30542
G1 X190.388 Y132.382 E26.33604
G1 X190.027 Y133.229 E26.36667
G1 X189.593 Y134.041 E26.39729
G1 X189.091 Y134.813 E26.42792
G1 X188.523 Y135.538 E26.45855
G1 X187.895 Y136.211 E26.48917
G1 X187.211 Y136.827 E26.51978
G1 X186.476 Y137.381 E26.55039
G1 X185.696 Y137.87 E26.58101
G1 X184.876 Y138.289 E26.61164
G1 X184.023 Y138.635 E26.64226
G1 X183.143 Y138.906 E26.67288
G1 X182.243 Y139.099 E26.7035
G1 X181.329 Y139.214 E26.73414
G1 X180.764 Y139.245 E26.75296
G1 X180.443 Y139.254 E26.76364
G1 X180.146 Y139.258 E26.77352
G1 X33.046 Y139.257 E31.66608
G1 X32.348 Y139.248 E31.6893
G1 X31.429 Y139.196 E31.71991
G1 X30.518 Y139.065 E31.75053
G1 X29.622 Y138.855 E31.78114
G1 X28.747 Y138.568 E31.81176
G1 X27.9 Y138.206 E31.8424
G1 X27.088 Y137.772 E31.87302
G1 X26.317 Y137.27 E31.90362
G1 X25.592 Y136.702 E31.93426
G1 X24.919 Y136.073 E31.96489
G1 X24.304 Y135.389 E31.99549
G1 X23.75 Y134.654 E32.0261
G1 X23.262 Y133.873 E32.05673
G1 X22.843 Y133.053 E32.08736
G1 X22.497 Y132.2 E32.11797
G1 X22.227 Y131.32 E32.14859
G1 X22.034 Y130.419 E32.17924
G1 X21.92 Y129.506 E32.20984
G1 X21.889 Y128.935 E32.22886
G1 X21.88 Y128.602 E32.23994
G1 X21.876 Y128.316 E32.24945
G1 X21.877 Y45.189 E35.01427
G1 X21.886 Y44.524 E35.03639
G1 X21.938 Y43.604 E35.06703
G1 X22.07 Y42.693 E35.09765
G1 X22.281 Y41.797 E35.12827
G1 X22.568 Y40.922 E35.1589
G1 X22.931 Y40.076 E35.18951
G1 X23.365 Y39.264 E35.22014
G1 X23.868 Y38.493 E35.25076
G1 X24.437 Y37.769 E35.28138
G1 X25.065 Y37.097 E35.31197
G1 X25.75 Y36.481 E35.34261
G1 X26.486 Y35.928 E35.37323
G0 F6000 X26.87 Y36.152
G1 F1200 X27.645 Y35.689 E35.40326
G1 X28.458 Y35.296 E35.43329
G1 X29.303 Y34.976 E35.46335
G1 X30.172 Y34.733 E35.49336
G1 X31.06 Y34.567 E35.52341
G1 X32.199 Y34.471 E35.56142
G1 X32.52 Y34.462 E35.5721
G1 X32.806 Y34.458 E35.58162
G1 X179.769 Y34.458 E40.46963
G1 X180.613 Y34.469 E40.4977
G1 X181.515 Y34.522 E40.52775
G1 X182.408 Y34.654 E40.55778
G1 X183.286 Y34.865 E40.58781
G1 X184.142 Y35.153 E40.61785
G1 X184.969 Y35.515 E40.64788
G1 X185.761 Y35.95 E40.67793
G1 X186.512 Y36.452 E40.70797
G1 X187.215 Y37.019 E40.73801
G1 X187.865 Y37.646 E40.76805
G1 X188.457 Y38.328 E40.79809
G1 X188.987 Y39.059 E40.82812
G1 X189.449 Y39.835 E40.85816
G1 X189.842 Y40.648 E40.88819
G1 X190.16 Y41.493 E40.91822
G1 X190.403 Y42.363 E40.94826
G1 X190.568 Y43.251 E40.9783
G1 X190.663 Y44.381 E41.01602
G1 X190.672 Y44.701 E41.02667
G1 X190.676 Y44.988 E41.03622
G1 X190.675 Y128.048 E43.7988
G1 X190.666 Y128.775 E43.82298
G1 X190.615 Y129.677 E43.85303
G1 X190.484 Y130.571 E43.88308
G1 X190.275 Y131.449 E43.9131
G1 X189.989 Y132.306 E43.94315
G1 X189.628 Y133.134 E43.9732
G1 X189.196 Y133.926 E44.0032
G1 X188.695 Y134.678 E44.03326
G1 X188.129 Y135.382 E44.0633
G1 X187.504 Y136.033 E44.09332
G1 X186.823 Y136.627 E44.12337
G1 X186.092 Y137.158 E44.15342
G1 X185.318 Y137.622 E44.18344
G1 X184.505 Y138.016 E44.21349
G1 X183.661 Y138.336 E44.24351
G1 X182.791 Y138.581 E44.27357
G1 X181.904 Y138.747 E44.30358
G1 X180.753 Y138.845 E44.342
G1 X180.432 Y138.854 E44.35268
G1 X180.146 Y138.858 E44.3622
G1 X33.051 Y138.857 E49.2546
G1 X32.353 Y138.848 E49.27781
G1 X31.452 Y138.797 E49.30783
G1 X30.558 Y138.665 E49.33789
G1 X29.68 Y138.456 E49.36791
G1 X28.823 Y138.169 E49.39797
G1 X27.996 Y137.808 E49.42798
G1 X27.203 Y137.375 E49.45803
G1 X26.452 Y136.874 E49.48806
G1 X25.748 Y136.308 E49.5181
G1 X25.097 Y135.682 E49.54814
G1 X24.504 Y135.001 E49.57817
G1 X23.974 Y134.27 E49.6082
G1 X23.51 Y133.495 E49.63825
G1 X23.116 Y132.682 E49.6683
G1 X22.796 Y131.838 E49.69832
G1 X22.552 Y130.968 E49.72837
G1 X22.386 Y130.08 E49.75842
G1 X22.289 Y128.925 E49.79697
G1 X22.28 Y128.592 E49.80805
G1 X22.276 Y128.316 E49.81723
G1 X22.277 Y45.194 E52.58188
G1 X22.286 Y44.529 E52.604
G1 X22.338 Y43.627 E52.63405
G1 X22.47 Y42.734 E52.66407
G1 X22.68 Y41.856 E52.6941
G1 X22.967 Y40.999 E52.72416
G1 X23.329 Y40.172 E52.75418
G1 X23.762 Y39.38 E52.7842
G1 X24.264 Y38.629 E52.81425
G1 X24.831 Y37.925 E52.84431
G1 X25.457 Y37.275 E52.87433
G1 X26.138 Y36.682 E52.90436
G1 X26.87 Y36.152 E52.93442
G1 F2700 E47.93442
;MESH:tampa da dispercao 2.1 (1).stl
G0 F6000 X33.286 Y43.993
G0 X33.286 Y45.468
G0 X33.258 Y127.876
G0 X179.876 Y128.058
;TYPE:WALL-INNER
G1 F2700 E52.93442
G1 F1200 X33.076 Y128.058 E57.81701
G1 X33.076 Y45.258 E60.57095
G1 X179.876 Y45.258 E65.45354
G1 X179.876 Y128.058 E68.20748
G0 F6000 X180.276 Y128.458
;TYPE:WALL-OUTER
G1 F1200 X32.676 Y128.458 E73.11667
G1 X32.676 Y44.858 E75.89722
G1 X180.276 Y44.858 E80.80641
G1 X180.276 Y128.458 E83.58696
G0 F6000 X180.006 Y128.188
G0 X179.766 Y127.668
G0 X179.486 Y127.668
;TYPE:SKIN
G1 F1200 X33.466 Y127.668 E88.44361
G1 X33.466 Y45.648 E91.1716
G1 X179.486 Y45.648 E96.02825
G1 X179.486 Y127.668 E98.75624
G1 F2700 E93.75624
G0 F6000 X179.766 Y127.668
G0 X179.766 Y46.389
G1 F2700 E98.75624
G0 F6000 X179.325 Y46.389
G1 F1200 X178.743 Y45.807 E98.78362
G0 F6000 X178.178 Y45.807
G1 F1200 X179.325 Y46.954 E98.83757
G0 F6000 X179.325 Y47.52
G1 F1200 X177.612 Y45.807 E98.91815
G0 F6000 X177.046 Y45.807
G1 F1200 X179.325 Y48.086 E99.02534
G0 F6000 X179.325 Y48.651
G1 F1200 X176.481 Y45.807 E99.15912
G0 F6000 X175.915 Y45.807
G1 F1200 X179.325 Y49.217 E99.31951
G0 F6000 X179.325 Y49.783
G1 F1200 X175.349 Y45.807 E99.50653
G0 F6000 X174.784 Y45.807
G1 F1200 X179.325 Y50.348 E99.72012
G0 F6000 X179.325 Y50.914
G1 F1200 X174.218 Y45.807 E99.96034
G0 F6000 X173.652 Y45.807
G1 F1200 X179.325 Y51.48 E100.22718
G0 F6000 X179.325 Y52.045
G1 F1200 X173.087 Y45.807 E100.5206
G0 F6000 X172.521 Y45.807
G1 F1200 X179.325 Y52.611 E100.84064
G0 F6000 X179.325 Y53.177
G1 F1200 X171.955 Y45.807 E101.1873
G0 F6000 X171.389 Y45.807
G1 F1200 X179.325 Y53.742 E101.56056
G0 F6000 X179.325 Y54.308
G1 F1200 X170.824 Y45.807 E101.96042
G0 F6000 X170.258 Y45.807
G1 F1200 X179.325 Y54.874 E102.38691
G0 F6000 X179.325 Y55.44
G1 F1200 X169.692 Y45.807 E102.84001
G0 F6000 X169.127 Y45.807
G1 F1200 X179.325 Y56.005 E103.3197
G0 F6000 X179.325 Y56.571
G1 F1200 X168.561 Y45.807 E103.826
G0 F6000 X167.995 Y45.807
G1 F1200 X179.325 Y57.137 E104.35893
G0 F6000 X179.325 Y57.702
G1 F1200 X167.43 Y45.807 E104.91844
G0 F6000 X166.864 Y45.807
G1 F1200 X179.325 Y58.268 E105.50456
G0 F6000 X179.325 Y58.834
G1 F1200 X166.298 Y45.807 E106.11731
G0 F6000 X165.733 Y45.807
G1 F1200 X179.325 Y59.399 E106.75664
G0 F6000 X179.325 Y59.965
G1 F1200 X165.167 Y45.807 E107.42259
G0 F6000 X164.601 Y45.807
G1 F1200 X179.325 Y60.531 E108.11516
G0 F6000 X179.325 Y61.096
G1 F1200 X164.036 Y45.807 E108.83431
G0 F6000 X163.47 Y45.807
G1 F1200 X179.325 Y61.662 E109.58008
G0 F6000 X179.325 Y62.228
G1 F1200 X162.904 Y45.807 E110.35247
G0 F6000 X162.338 Y45.807
G1 F1200 X179.325 Y62.793 E111.15146
G0 F6000 X179.325 Y63.359
G1 F1200 X161.773 Y45.807 E111.97706
G0 F6000 X161.207 Y45.807
G1 F1200 X179.325 Y63.925 E112.82927
G0 F6000 X179.325 Y64.49
G1 F1200 X160.641 Y45.807 E113.70809
G0 F6000 X160.076 Y45.807
G1 F1200 X179.325 Y65.056 E114.6135
G0 F6000 X179.325 Y65.622
G1 F1200 X159.51 Y45.807 E115.54554
G0 F6000 X158.944 Y45.807
G1 F1200 X179.325 Y66.188 E116.5042
G0 F6000 X179.325 Y66.753
G1 F1200 X158.379 Y45.807 E117.48943
G0 F6000 X157.813 Y45.807
G1 F1200 X179.325 Y67.319 E118.50129
G0 F6000 X179.325 Y67.885
G1 F1200 X157.247 Y45.807 E119.53977
G0 F6000 X156.682 Y45.807
G1 F1200 X179.325 Y68.45 E120.60483
G0 F6000 X179.325 Y69.016
G1 F1200 X156.116 Y45.807 E121.69651
G0 F6000 X155.55 Y45.807
G1 F1200 X179.325 Y69.582 E122.81481
G0 F6000 X179.325 Y70.147
G1 F1200 X154.985 Y45.807 E123.95969
G0 F6000 X154.419 Y45.807
G1 F1200 X179.325 Y70.713 E125.13119
G0 F6000 X179.325 Y71.279
G1 F1200 X153.853 Y45.807 E126.32932
G0 F6000 X153.288 Y45.807
G1 F1200 X179.325 Y71.844 E127.55402
G0 F6000 X179.325 Y72.41
G1 F1200 X152.722 Y45.807 E128.80534
G0 F6000 X152.156 Y45.807
G1 F1200 X179.325 Y72.976 E130.08329
G0 F6000 X179.325 Y73.541
G1 F1200 X151.59 Y45.807 E131.38783
G0 F6000 X151.025 Y45.807
G1 F1200 X179.325 Y74.107 E132.71898
G0 F6000 X179.325 Y74.673
G1 F1200 X150.459 Y45.807 E134.07675
G0 F6000 X149.893 Y45.807
G1 F1200 X179.325 Y75.238 E135.46112
G0 F6000 X179.325 Y75.804
G1 F1200 X149.328 Y45.807 E136.87208
G0 F6000 X148.762 Y45.807
G1 F1200 X179.325 Y76.37 E138.30967
G0 F6000 X179.325 Y76.936
G1 F1200 X148.196 Y45.807 E139.77389
G0 F6000 X147.631 Y45.807
G1 F1200 X179.325 Y77.501 E141.26467
G0 F6000 X179.325 Y78.067
G1 F1200 X147.065 Y45.807 E142.78209
G0 F6000 X146.499 Y45.807
G1 F1200 X179.325 Y78.633 E144.32612
G0 F6000 X179.325 Y79.198
G1 F1200 X145.934 Y45.807 E145.89673
G0 F6000 X145.368 Y45.807
G1 F1200 X179.325 Y79.764 E147.49396
G0 F6000 X179.325 Y80.33
G1 F1200 X144.802 Y45.807 E149.11782
G0 F6000 X144.237 Y45.807
G1 F1200 X179.325 Y80.895 E150.76825
G0 F6000 X179.325 Y81.461
G1 F1200 X143.671 Y45.807 E152.44531
G0 F6000 X143.105 Y45.807
G1 F1200 X179.325 Y82.027 E154.14898
G0 F6000 X179.325 Y82.592
G1 F1200 X142.539 Y45.807 E155.87926
G0 F6000 X141.974 Y45.807
G1 F1200 X179.325 Y83.158 E157.63614
G0 F6000 X179.325 Y83.724
G1 F1200 X141.408 Y45.807 E159.41964
G0 F6000 X140.842 Y45.807
G1 F1200 X179.325 Y84.289 E161.22974
G0 F6000 X179.325 Y84.855
G1 F1200 X140.277 Y45.807 E163.06643
G0 F6000 X139.711 Y45.807
G1 F1200 X179.325 Y85.421 E164.92975
G0 F6000 X179.325 Y85.987
G1 F1200 X139.145 Y45.807 E166.8197
G0 F6000 X138.58 Y45.807
G1 F1200 X179.325 Y86.552 E168.73622
G0 F6000 X179.325 Y87.118
G1 F1200 X138.014 Y45.807 E170.67936
G0 F6000 X137.448 Y45.807
G1 F1200 X179.325 Y87.684 E172.64913
G0 F6000 X179.325 Y88.249
G1 F1200 X136.883 Y45.807 E174.64547
G0 F6000 X136.317 Y45.807
G1 F1200 X179.325 Y88.815 E176.66843
G0 F6000 X179.325 Y89.381
G1 F1200 X135.751 Y45.807 E178.71802
G0 F6000 X135.186 Y45.807
G1 F1200 X179.325 Y89.946 E180.79418
G0 F6000 X179.325 Y90.512
G1 F1200 X134.62 Y45.807 E182.89697
G0 F6000 X134.054 Y45.807
G1 F1200 X179.325 Y91.078 E185.02638
G0 F6000 X179.325 Y91.643
G1 F1200 X133.489 Y45.807 E187.18236
G0 F6000 X132.923 Y45.807
G1 F1200 X179.325 Y92.209 E189.36497
G0 F6000 X179.325 Y92.775
G1 F1200 X132.357 Y45.807 E191.5742
G0 F6000 X131.791 Y45.807
G1 F1200 X179.325 Y93.34 E193.81003
G0 F6000 X179.325 Y93.906
G1 F1200 X131.226 Y45.807 E196.07246
G0 F6000 X130.66 Y45.807
G1 F1200 X179.325 Y94.472 E198.36151
G0 F6000 X179.325 Y95.037
G1 F1200 X130.094 Y45.807 E200.67717
G0 F6000 X129.529 Y45.807
G1 F1200 X179.325 Y95.603 E203.01942
G0 F6000 X179.325 Y96.169
G1 F1200 X128.963 Y45.807 E205.38829
G0 F6000 X128.397 Y45.807
G1 F1200 X179.325 Y96.735 E207.78379
G0 F6000 X179.325 Y97.3
G1 F1200 X127.832 Y45.807 E210.20586
G0 F6000 X127.266 Y45.807
G1 F1200 X179.325 Y97.866 E212.65456
G0 F6000 X179.325 Y98.432
G1 F1200 X126.7 Y45.807 E215.12988
G0 F6000 X126.135 Y45.807
G1 F1200 X179.325 Y98.997 E217.63177
G0 F6000 X179.325 Y99.563
G1 F1200 X125.569 Y45.807 E220.16029
G0 F6000 X125.003 Y45.807
G1 F1200 X179.325 Y100.129 E222.71543
G0 F6000 X179.325 Y100.694
G1 F1200 X124.438 Y45.807 E225.29714
G0 F6000 X123.872 Y45.807
G1 F1200 X179.325 Y101.26 E227.90548
G0 F6000 X179.325 Y101.826
G1 F1200 X123.306 Y45.807 E230.54045
G0 F6000 X122.741 Y45.807
G1 F1200 X179.325 Y102.391 E233.20198
G0 F6000 X179.325 Y102.957
G1 F1200 X122.175 Y45.807 E235.89014
G0 F6000 X121.609 Y45.807
G1 F1200 X179.325 Y103.523 E238.60493
G0 F6000 X179.325 Y104.088
G1 F1200 X121.043 Y45.807 E241.34631
G0 F6000 X120.478 Y45.807
G1 F1200 X179.325 Y104.654 E244.11429
G0 F6000 X179.325 Y105.22
G1 F1200 X119.912 Y45.807 E246.9089
G0 F6000 X119.346 Y45.807
