;FLAVOR:Marlin
;TIME:5633
;Filament used: 3.31131m
;Layer height: 0.2
;MINX:109.5
;MINY:87.5
;MINZ:0.2
;MAXX:199.003
;MAXY:206.006
;MAXZ:9.8
;Generated with Cura_SteamEngine 4.13.1
M140 S50
M105
M190 S50
M104 S200
M105
M109 S200
M82 ;absolute extrusion mode
; Ender 3 Custom Start G-code
G92 E0 ; Reset Extruder
G28 ; Home all axes
G1 Z2.0 F3000 ; Move Z Axis up little to prevent scratching of Heat Bed
G1 X0.1 Y20 Z0.3 F5000.0 ; Move to start position
G1 X0.1 Y200.0 Z0.3 F1500.0 E15 ; Draw the first line
G1 X0.4 Y200.0 Z0.3 F5000.0 ; Move to side a little
G1 X0.4 Y20 Z0.3 F1500.0 E30 ; Draw the second line
G92 E0 ; Reset Extruder
G1 Z2.0 F3000 ; Move Z Axis up little to prevent scratching of Heat Bed
G1 X5 Y20 Z0.3 F5000.0 ; Move over to prevent blob squish
G92 E0
G92 E0
G1 F2700 E-5
;LAYER_COUNT:49
;LAYER:0
M107
G0 F6000 X150.663 Y92.716 Z0.2
;TYPE:SKIRT
G1 F2700 E0
G1 F1200 X151.191 Y91.941 E0.03119
G1 X151.782 Y91.213 E0.06238
G1 X152.434 Y90.539 E0.09357
G1 X153.141 Y89.922 E0.12478
G1 X153.897 Y89.368 E0.15595
G1 X154.698 Y88.88 E0.18715
G1 X155.538 Y88.462 E0.21835
G1 X156.41 Y88.117 E0.24954
G1 X157.308 Y87.848 E0.28072
G1 X158.226 Y87.656 E0.31192
G1 X159.157 Y87.543 E0.34311
G1 X159.679 Y87.515 E0.3605
G1 X160.007 Y87.505 E0.37141
G1 X160.342 Y87.5 E0.38255
G1 X187.288 Y87.5 E1.27878
G1 X188.144 Y87.511 E1.30725
G1 X189.08 Y87.565 E1.33844
G1 X190.008 Y87.697 E1.36961
G1 X190.922 Y87.909 E1.40082
G1 X191.814 Y88.198 E1.43201
G1 X192.679 Y88.561 E1.46321
G1 X193.509 Y88.997 E1.49439
G1 X194.3 Y89.502 E1.5256
G1 X195.044 Y90.073 E1.5568
G1 X195.737 Y90.705 E1.58799
G1 X196.374 Y91.393 E1.61918
G1 X196.949 Y92.134 E1.65037
G1 X197.46 Y92.92 E1.68155
G1 X197.902 Y93.748 E1.71277
G1 X198.271 Y94.61 E1.74396
G1 X198.566 Y95.5 E1.77514
G1 X198.784 Y96.412 E1.80633
G1 X198.924 Y97.34 E1.83755
G1 X198.981 Y98.194 E1.86601
G1 X198.99 Y98.507 E1.87643
G1 X198.995 Y98.823 E1.88694
G1 X198.995 Y111.535 E2.30974
G1 X198.998 Y112.919 E2.35577
G1 X198.982 Y113.534 E2.37624
G1 X198.913 Y114.806 E2.41861
G1 X198.81 Y117.388 E2.50455
G1 X198.78 Y119.916 E2.58864
G1 X198.821 Y122.421 E2.67197
G1 X198.932 Y124.924 E2.7553
G1 X198.974 Y125.651 E2.77952
G1 X198.988 Y125.958 E2.78974
G1 X198.998 Y126.288 E2.80072
G1 X199.003 Y126.621 E2.8118
G1 X199.002 Y135.949 E3.12205
G1 X198.992 Y136.652 E3.14543
G1 X198.939 Y137.589 E3.17665
G1 X198.806 Y138.517 E3.20783
G1 X198.594 Y139.431 E3.23904
G1 X198.306 Y140.323 E3.27021
G1 X197.942 Y141.188 E3.30143
G1 X197.506 Y142.018 E3.33261
G1 X197.001 Y142.809 E3.36382
G1 X196.431 Y143.553 E3.39499
G1 X195.826 Y144.219 E3.42492
G1 X195.368 Y144.682 E3.44658
G1 X194.244 Y145.791 E3.4991
G1 X192.502 Y147.608 E3.58282
G1 X190.822 Y149.46 E3.66599
G1 X189.151 Y151.414 E3.7515
G1 X187.6 Y153.333 E3.83357
G1 X186.06 Y155.355 E3.9181
G1 X184.602 Y157.383 E4.00118
G1 X183.183 Y159.482 E4.08545
G1 X181.834 Y161.604 E4.16908
G1 X180.536 Y163.779 E4.25332
G1 X179.317 Y165.957 E4.33634
G1 X178.154 Y168.184 E4.4199
G1 X177.056 Y170.438 E4.50329
G1 X176.007 Y172.758 E4.58797
G1 X175.026 Y175.094 E4.67224
G1 X174.125 Y177.434 E4.75564
G1 X173.295 Y179.781 E4.83844
G1 X172.519 Y182.188 E4.92256
G1 X171.822 Y184.579 E5.00539
G1 X171.172 Y187.073 E5.09111
G1 X170.605 Y189.518 E5.17459
G1 X170.123 Y191.925 E5.25624
G1 X169.686 Y194.464 E5.34193
G1 X169.461 Y196.038 E5.39481
G1 X169.358 Y196.694 E5.4169
G1 X169.173 Y197.614 E5.44811
G1 X168.911 Y198.514 E5.47929
G1 X168.572 Y199.389 E5.5105
G1 X168.161 Y200.232 E5.54169
G1 X167.679 Y201.036 E5.57287
G1 X167.13 Y201.797 E5.60408
G1 X166.519 Y202.508 E5.63526
G1 X165.849 Y203.165 E5.66647
G1 X165.126 Y203.762 E5.69765
G1 X164.354 Y204.295 E5.72886
G1 X163.54 Y204.761 E5.76005
G1 X162.689 Y205.155 E5.79124
G1 X161.808 Y205.476 E5.82243
G1 X160.903 Y205.72 E5.85361
G1 X159.98 Y205.887 E5.8848
G1 X158.799 Y205.984 E5.92422
G1 X158.478 Y205.993 E5.9349
G1 X158.17 Y205.997 E5.94514
G1 X148.843 Y205.996 E6.25536
G1 X148.138 Y205.986 E6.27881
G1 X147.818 Y205.977 E6.28946
G1 X147.167 Y205.948 E6.31113
G1 X145.473 Y205.852 E6.36756
G1 X142.951 Y205.782 E6.45148
G1 X140.427 Y205.782 E6.53543
G1 X137.909 Y205.854 E6.61921
G1 X136.6 Y205.92 E6.6628
G1 X135.596 Y205.978 E6.69625
G1 X135.281 Y205.991 E6.70674
G1 X134.936 Y206.001 E6.71822
G1 X134.616 Y206.006 E6.72886
G1 X121.06 Y206.004 E7.17974
G1 X120.367 Y205.995 E7.20279
G1 X119.431 Y205.943 E7.23397
G1 X118.502 Y205.811 E7.26518
G1 X117.588 Y205.601 E7.29637
G1 X116.695 Y205.313 E7.32757
G1 X115.83 Y204.951 E7.35876
G1 X114.999 Y204.516 E7.38996
G1 X114.209 Y204.012 E7.42113
G1 X113.463 Y203.443 E7.45233
G1 X112.769 Y202.812 E7.48353
G1 X112.132 Y202.124 E7.51471
G1 X111.555 Y201.384 E7.54593
G1 X111.044 Y200.598 E7.57711
G1 X110.601 Y199.772 E7.60828
G1 X110.23 Y198.91 E7.63949
G1 X109.934 Y198.02 E7.67069
G1 X109.715 Y197.108 E7.70189
G1 X109.574 Y196.181 E7.73307
G1 X109.515 Y195.317 E7.76188
G1 X109.505 Y194.974 E7.77329
G1 X109.5 Y194.653 E7.78397
G1 X109.501 Y167.565 E8.68492
G1 X109.511 Y166.863 E8.70827
G1 X109.564 Y165.927 E8.73945
G1 X109.697 Y164.999 E8.77063
G1 X109.909 Y164.085 E8.80184
G1 X110.197 Y163.192 E8.83304
G1 X110.561 Y162.328 E8.86423
G1 X110.997 Y161.497 E8.89544
G1 X111.502 Y160.707 E8.92663
G1 X112.072 Y159.963 E8.9578
G1 X112.704 Y159.27 E8.98899
G1 X113.393 Y158.633 E9.0202
G1 X113.843 Y158.27 E9.03943
G1 X114.635 Y157.667 E9.07254
G1 X116.629 Y156.1 E9.15689
G1 X118.574 Y154.482 E9.24104
G1 X120.446 Y152.833 E9.32401
G1 X122.304 Y151.101 E9.4085
G1 X124.076 Y149.352 E9.49131
G1 X125.835 Y147.515 E9.5759
G1 X127.537 Y145.634 E9.66027
G1 X129.148 Y143.749 E9.74274
G1 X130.73 Y141.789 E9.82652
G1 X132.255 Y139.786 E9.91025
G1 X133.735 Y137.722 E9.99472
G1 X135.124 Y135.665 E10.07728
G1 X136.485 Y133.521 E10.16174
G1 X137.775 Y131.355 E10.24559
G1 X139.01 Y129.146 E10.32977
G1 X140.159 Y126.941 E10.41246
G1 X141.275 Y124.648 E10.49728
G1 X142.294 Y122.39 E10.57968
G1 X143.296 Y120 E10.66587
G1 X144.174 Y117.712 E10.74738
G1 X145.008 Y115.351 E10.83066
G1 X145.797 Y112.898 E10.91637
G1 X146.486 Y110.53 E10.99839
G1 X147.126 Y108.069 E11.08297
G1 X147.697 Y105.599 E11.16729
G1 X148.182 Y103.17 E11.24967
G1 X148.613 Y100.654 E11.33457
G1 X148.968 Y98.159 E11.41839
G1 X149.104 Y97.103 E11.45381
G1 X149.264 Y96.179 E11.485
G1 X149.502 Y95.271 E11.51622
G1 X149.816 Y94.388 E11.54739
G1 X150.204 Y93.534 E11.57859
G1 X150.663 Y92.716 E11.60978
G0 F6000 X151.048 Y92.855
G1 F1200 X151.573 Y92.099 E11.6404
G1 X152.161 Y91.391 E11.67101
G1 X152.808 Y90.736 E11.70163
G1 X153.51 Y90.14 E11.73226
G1 X154.261 Y89.607 E11.76289
G1 X155.055 Y89.142 E11.79349
G1 X155.887 Y88.747 E11.82412
G1 X156.749 Y88.425 E11.85473
G1 X157.637 Y88.18 E11.88537
G1 X158.542 Y88.013 E11.91598
G1 X159.691 Y87.915 E11.95433
G1 X160.019 Y87.905 E11.96524
G1 X160.342 Y87.9 E11.97599
G1 X187.44 Y87.901 E12.87727
G1 X188.138 Y87.911 E12.90049
G1 X189.057 Y87.964 E12.93111
G1 X189.968 Y88.097 E12.96173
G1 X190.864 Y88.308 E12.99234
G1 X191.738 Y88.596 E13.02295
G1 X192.585 Y88.959 E13.0536
G1 X193.396 Y89.394 E13.08421
G1 X194.166 Y89.898 E13.11482
G1 X194.89 Y90.467 E13.14545
G1 X195.562 Y91.097 E13.17608
G1 X196.177 Y91.782 E13.2067
G1 X196.73 Y92.518 E13.23732
G1 X197.217 Y93.299 E13.26793
G1 X197.634 Y94.12 E13.29856
G1 X197.979 Y94.974 E13.32919
G1 X198.248 Y95.854 E13.3598
G1 X198.44 Y96.755 E13.39044
G1 X198.553 Y97.668 E13.42104
G1 X198.582 Y98.205 E13.43893
G1 X198.591 Y98.518 E13.44934
G1 X198.595 Y98.823 E13.45948
G1 X198.595 Y111.535 E13.88229
G1 X198.598 Y112.919 E13.92832
G1 X198.583 Y113.513 E13.94808
G1 X198.515 Y114.768 E13.98989
G1 X198.41 Y117.404 E14.07763
G1 X198.38 Y119.883 E14.16009
G1 X198.423 Y122.446 E14.24534
G1 X198.534 Y124.963 E14.32914
G1 X198.575 Y125.674 E14.35283
G1 X198.588 Y125.97 E14.36268
G1 X198.598 Y126.3 E14.37366
G1 X198.603 Y126.621 E14.38434
G1 X198.602 Y135.944 E14.69443
G1 X198.592 Y136.647 E14.71781
G1 X198.539 Y137.566 E14.74843
G1 X198.406 Y138.477 E14.77905
G1 X198.195 Y139.373 E14.80966
G1 X197.907 Y140.247 E14.84027
G1 X197.544 Y141.094 E14.87092
G1 X197.109 Y141.905 E14.90153
G1 X196.605 Y142.676 E14.93217
G1 X196.037 Y143.4 E14.96277
G1 X195.541 Y143.938 E14.98711
G1 X195.087 Y144.397 E15.00858
G1 X193.957 Y145.512 E15.06138
G1 X192.217 Y147.326 E15.14499
G1 X190.514 Y149.205 E15.22933
G1 X188.851 Y151.149 E15.31442
G1 X187.287 Y153.085 E15.3972
G1 X185.733 Y155.125 E15.48249
G1 X184.262 Y157.171 E15.56631
G1 X182.863 Y159.24 E15.64938
G1 X181.48 Y161.415 E15.7351
G1 X180.202 Y163.558 E15.81809
G1 X178.972 Y165.756 E15.90187
G1 X177.798 Y168.003 E15.98619
G1 X176.676 Y170.306 E16.07139
G1 X175.644 Y172.587 E16.15466
G1 X174.66 Y174.932 E16.23924
G1 X173.751 Y177.293 E16.32339
G1 X172.92 Y179.641 E16.40623
G1 X172.131 Y182.09 E16.49181
G1 X171.437 Y184.471 E16.5743
G1 X170.789 Y186.953 E16.65962
G1 X170.21 Y189.454 E16.745
G1 X169.724 Y191.879 E16.82726
G1 X169.294 Y194.378 E16.9116
G1 X169.066 Y195.976 E16.96529
G1 X168.963 Y196.632 E16.98737
G1 X168.781 Y197.535 E17.01801
G1 X168.521 Y198.418 E17.04863
G1 X168.185 Y199.275 E17.07924
G1 X167.777 Y200.1 E17.10985
G1 X167.298 Y200.887 E17.1405
G1 X166.753 Y201.629 E17.17112
G1 X166.146 Y202.321 E17.20173
G1 X165.481 Y202.957 E17.23234
G1 X164.763 Y203.534 E17.26297
G1 X163.997 Y204.046 E17.29362
G1 X163.191 Y204.489 E17.32421
G1 X162.349 Y204.861 E17.35483
G1 X161.477 Y205.159 E17.38547
G1 X160.584 Y205.379 E17.41606
G1 X159.674 Y205.522 E17.4467
G1 X158.788 Y205.584 E17.47624
G1 X158.467 Y205.593 E17.48692
G1 X158.17 Y205.597 E17.4968
G1 X148.849 Y205.596 E17.80682
G1 X148.144 Y205.586 E17.83027
G1 X147.835 Y205.577 E17.84055
G1 X147.189 Y205.548 E17.86206
G1 X145.506 Y205.453 E17.91813
G1 X142.962 Y205.382 E18.00277
G1 X140.45 Y205.382 E18.08632
G1 X137.878 Y205.456 E18.1719
G1 X136.498 Y205.525 E18.21786
G1 X135.573 Y205.578 E18.24868
G1 X135.269 Y205.592 E18.2588
G1 X134.924 Y205.602 E18.27028
G1 X134.616 Y205.606 E18.28052
G1 X121.065 Y205.604 E18.73123
G1 X120.372 Y205.595 E18.75428
G1 X119.453 Y205.543 E18.7849
G1 X118.542 Y205.412 E18.81551
G1 X117.646 Y205.202 E18.84612
G1 X116.771 Y204.915 E18.87674
G1 X115.924 Y204.553 E18.90738
G1 X115.112 Y204.119 E18.938
G1 X114.341 Y203.616 E18.96862
G1 X113.616 Y203.048 E18.99926
G1 X112.944 Y202.42 E19.02985
G1 X112.328 Y201.735 E19.06049
G1 X111.774 Y201 E19.0911
G1 X111.286 Y200.219 E19.12173
G1 X110.868 Y199.399 E19.15234
G1 X110.522 Y198.546 E19.18296
G1 X110.252 Y197.666 E19.21357
G1 X110.059 Y196.765 E19.24422
G1 X109.945 Y195.852 E19.27482
G1 X109.915 Y195.305 E19.29304
G1 X109.905 Y194.962 E19.30446
G1 X109.9 Y194.653 E19.31474
G1 X109.901 Y167.571 E20.21549
G1 X109.911 Y166.869 E20.23884
G1 X109.964 Y165.95 E20.26945
G1 X110.097 Y165.039 E20.30008
G1 X110.308 Y164.143 E20.33069
G1 X110.596 Y163.268 E20.36133
G1 X110.959 Y162.422 E20.39195
G1 X111.394 Y161.611 E20.42256
G1 X111.898 Y160.84 E20.4532
G1 X112.466 Y160.116 E20.4838
G1 X113.096 Y159.444 E20.51444
G1 X114.086 Y158.589 E20.55795
G1 X114.799 Y158.046 E20.58775
G1 X116.886 Y156.406 E20.67604
G1 X118.831 Y154.788 E20.76018
G1 X120.737 Y153.109 E20.84467
G1 X122.574 Y151.397 E20.92819
G1 X124.363 Y149.631 E21.0118
G1 X126.12 Y147.797 E21.09627
G1 X127.823 Y145.914 E21.18071
G1 X129.462 Y143.997 E21.2646
G1 X131.044 Y142.037 E21.34838
G1 X132.595 Y139.999 E21.43356
G1 X134.064 Y137.95 E21.51741
G1 X135.461 Y135.882 E21.60042
G1 X136.824 Y133.735 E21.685
G1 X138.126 Y131.549 E21.76963
G1 X139.341 Y129.373 E21.85252
G1 X140.53 Y127.094 E21.93802
G1 X141.628 Y124.837 E22.0215
G1 X142.669 Y122.53 E22.10568
G1 X143.658 Y120.172 E22.19072
G1 X144.553 Y117.84 E22.2738
G1 X145.394 Y115.459 E22.35779
G1 X146.173 Y113.037 E22.44241
G1 X146.871 Y110.637 E22.52554
G1 X147.52 Y108.145 E22.61119
G1 X148.085 Y105.695 E22.69482
G1 X148.574 Y103.245 E22.77791
G1 X149.01 Y100.707 E22.86356
G1 X149.366 Y98.198 E22.94785
G1 X149.501 Y97.154 E22.98286
G1 X149.658 Y96.247 E23.01347
G1 X149.894 Y95.357 E23.0441
G1 X150.206 Y94.491 E23.07472
G1 X150.591 Y93.655 E23.10533
G1 X151.048 Y92.855 E23.13597
G0 F6000 X151.433 Y92.996
G1 F1200 X151.954 Y92.259 E23.16599
G1 X152.539 Y91.57 E23.19605
G1 X153.182 Y90.936 E23.22609
G1 X153.878 Y90.362 E23.25609
G1 X154.623 Y89.851 E23.28614
G1 X155.41 Y89.408 E23.31618
G1 X156.233 Y89.037 E23.3462
G1 X157.086 Y88.739 E23.37626
G1 X157.962 Y88.519 E23.4063
G1 X158.854 Y88.376 E23.43634
G1 X159.703 Y88.315 E23.46465
G1 X160.031 Y88.305 E23.47557
G1 X160.342 Y88.3 E23.48591
G1 X187.288 Y88.3 E24.38214
G1 X188.132 Y88.311 E24.41021
G1 X189.034 Y88.364 E24.44027
G1 X189.927 Y88.496 E24.47029
G1 X190.805 Y88.707 E24.50033
G1 X191.661 Y88.995 E24.53036
G1 X192.488 Y89.357 E24.56039
G1 X193.28 Y89.792 E24.59044
G1 X194.031 Y90.294 E24.62049
G1 X194.734 Y90.861 E24.65053
G1 X195.384 Y91.488 E24.68057
G1 X195.976 Y92.17 E24.7106
G1 X196.506 Y92.901 E24.74063
G1 X196.968 Y93.677 E24.77067
G1 X197.361 Y94.49 E24.80071
G1 X197.679 Y95.335 E24.83074
G1 X197.922 Y96.205 E24.86078
G1 X198.087 Y97.093 E24.89082
G1 X198.182 Y98.217 E24.92834
G1 X198.191 Y98.53 E24.93875
G1 X198.195 Y98.823 E24.9485
G1 X198.195 Y111.535 E25.3713
G1 X198.198 Y112.92 E25.41737
G1 X198.183 Y113.491 E25.43636
G1 X198.116 Y114.728 E25.47757
G1 X198.01 Y117.383 E25.56594
G1 X197.98 Y119.885 E25.64917
G1 X198.023 Y122.469 E25.73512
G1 X198.132 Y124.934 E25.81719
G1 X198.176 Y125.697 E25.84261
G1 X198.188 Y125.982 E25.8521
G1 X198.198 Y126.312 E25.86308
G1 X198.203 Y126.621 E25.87336
G1 X198.202 Y135.938 E26.18324
G1 X198.192 Y136.641 E26.20662
G1 X198.139 Y137.543 E26.23668
G1 X198.007 Y138.436 E26.2667
G1 X197.796 Y139.314 E26.29673
G1 X197.508 Y140.17 E26.32677
G1 X197.146 Y140.997 E26.3568
G1 X196.712 Y141.789 E26.38684
G1 X196.21 Y142.54 E26.41688
G1 X195.643 Y143.243 E26.44692
G1 X195.257 Y143.657 E26.46575
G1 X194.806 Y144.112 E26.48706
G1 X193.669 Y145.233 E26.54016
G1 X191.914 Y147.063 E26.62449
G1 X190.229 Y148.922 E26.70794
G1 X188.538 Y150.9 E26.7945
G1 X186.956 Y152.857 E26.87819
G1 X185.44 Y154.848 E26.96143
G1 X183.934 Y156.943 E27.04724
G1 X182.521 Y159.032 E27.13112
G1 X181.158 Y161.177 E27.21565
G1 X179.843 Y163.38 E27.30098
G1 X178.611 Y165.582 E27.38491
G1 X177.441 Y167.821 E27.46893
G1 X176.324 Y170.116 E27.55382
G1 X175.275 Y172.434 E27.63845
G1 X174.277 Y174.811 E27.72419
G1 X173.383 Y177.132 E27.80692
G1 X172.538 Y179.521 E27.8912
G1 X171.752 Y181.961 E27.97646
G1 X171.042 Y184.397 E28.06086
G1 X170.406 Y186.834 E28.14463
G1 X169.823 Y189.351 E28.23056
G1 X169.33 Y191.811 E28.314
G1 X168.897 Y194.325 E28.39885
G1 X168.671 Y195.914 E28.45223
G1 X168.568 Y196.57 E28.47432
G1 X168.388 Y197.455 E28.50436
G1 X168.131 Y198.321 E28.5344
G1 X167.798 Y199.161 E28.56446
G1 X167.393 Y199.968 E28.59449
G1 X166.918 Y200.735 E28.62449
G1 X166.376 Y201.458 E28.65455
G1 X165.773 Y202.13 E28.68458
G1 X165.113 Y202.746 E28.71461
G1 X164.4 Y203.302 E28.74468
G1 X163.642 Y203.792 E28.7747
G1 X162.843 Y204.213 E28.80474
G1 X162.01 Y204.562 E28.83478
G1 X161.149 Y204.836 E28.86483
G1 X160.268 Y205.032 E28.89485
G1 X159.372 Y205.15 E28.9249
G1 X158.777 Y205.184 E28.94473
G1 X158.456 Y205.193 E28.95541
G1 X158.17 Y205.197 E28.96492
G1 X148.854 Y205.196 E29.27477
G1 X148.149 Y205.186 E29.29822
G1 X147.853 Y205.177 E29.30807
G1 X147.212 Y205.149 E29.32941
G1 X145.506 Y205.053 E29.38624
G1 X142.973 Y204.982 E29.47052
G1 X140.439 Y204.982 E29.55481
G1 X137.846 Y205.056 E29.64108
G1 X136.53 Y205.122 E29.68491
G1 X135.55 Y205.179 E29.71756
G1 X135.258 Y205.192 E29.72728
G1 X134.913 Y205.202 E29.73876
G1 X134.616 Y205.206 E29.74864
G1 X121.071 Y205.204 E30.19915
G1 X120.378 Y205.195 E30.2222
G1 X119.476 Y205.143 E30.25225
G1 X118.582 Y205.012 E30.2823
G1 X117.704 Y204.802 E30.31233
G1 X116.848 Y204.516 E30.34235
G1 X116.02 Y204.155 E30.37239
G1 X115.227 Y203.721 E30.40246
G1 X114.476 Y203.22 E30.43248
G1 X113.773 Y202.654 E30.4625
G1 X113.122 Y202.028 E30.49254
G1 X112.528 Y201.347 E30.5226
G1 X111.998 Y200.616 E30.55263
G1 X111.534 Y199.841 E30.58267
G1 X111.141 Y199.028 E30.6127
G1 X110.821 Y198.184 E30.64273
