;FLAVOR:Marlin
;TIME:5753
;Filament used: 3.96386m
;Layer height: 0.2
;MINX:63.5
;MINY:86
;MINZ:0.2
;MAXX:171.5
;MAXY:149
;MAXZ:27
;Generated with Cura_SteamEngine 4.11.0
M140 S55
M105
M190 S55
M104 S200
M105
M109 S200
M82 ;absolute extrusion mode
; Ender 3 Custom Start G-code
G92 E0 ; Reset Extruder
G28 ; Home all axes
G1 Z2.0 F3000 ; Move Z Axis up little to prevent scratching of Heat Bed
G1 X0.1 Y20 Z0.3 F5000.0 ; Move to start position
G1 X0.1 Y200.0 Z0.3 F1500.0 E15 ; Draw the first line
G1 X0.4 Y200.0 Z0.3 F5000.0 ; Move to side a little
G1 X0.4 Y20 Z0.3 F1500.0 E30 ; Draw the second line
G92 E0 ; Reset Extruder
G1 Z2.0 F3000 ; Move Z Axis up little to prevent scratching of Heat Bed
G1 X5 Y20 Z0.3 F5000.0 ; Move over to prevent blob squish
G92 E0
G92 E0
G1 F2700 E-5
;LAYER_COUNT:136
;LAYER:0
M107
G0 F6000 X68.126 Y88.051 Z0.2
;TYPE:SKIRT
G1 F2700 E0
G1 F1200 X68.912 Y87.539 E0.0312
G1 X69.739 Y87.097 E0.06239
G1 X70.601 Y86.727 E0.09359
G1 X71.491 Y86.431 E0.12478
G1 X72.403 Y86.213 E0.15597
G1 X73.33 Y86.072 E0.18716
G1 X74.201 Y86.013 E0.21619
G1 X74.522 Y86.004 E0.22687
G1 X74.83 Y86 E0.23712
G1 X159.793 Y86 E3.063
G1 X160.649 Y86.011 E3.09147
G1 X161.585 Y86.065 E3.12266
G1 X162.513 Y86.197 E3.15383
G1 X163.427 Y86.409 E3.18504
G1 X164.319 Y86.698 E3.21623
G1 X165.184 Y87.061 E3.24743
G1 X166.014 Y87.497 E3.27861
G1 X166.805 Y88.002 E3.30982
G1 X167.549 Y88.573 E3.34102
G1 X168.242 Y89.205 E3.37221
G1 X168.879 Y89.893 E3.4034
G1 X169.454 Y90.634 E3.43459
G1 X169.965 Y91.42 E3.46577
G1 X170.407 Y92.248 E3.49699
G1 X170.776 Y93.11 E3.52818
G1 X171.071 Y94 E3.55936
G1 X171.289 Y94.912 E3.59055
G1 X171.429 Y95.84 E3.62177
G1 X171.487 Y96.701 E3.65047
G1 X171.496 Y97.021 E3.66111
G1 X171.5 Y97.33 E3.67139
G1 X171.499 Y137.4 E5.00413
G1 X171.49 Y138.127 E5.02831
G1 X171.439 Y139.064 E5.05952
G1 X171.307 Y139.992 E5.0907
G1 X171.098 Y140.906 E5.12188
G1 X170.811 Y141.799 E5.15308
G1 X170.449 Y142.665 E5.1843
G1 X170.015 Y143.496 E5.21548
G1 X169.511 Y144.287 E5.24667
G1 X168.942 Y145.032 E5.27785
G1 X168.311 Y145.727 E5.30907
G1 X167.624 Y146.365 E5.34026
G1 X166.885 Y146.942 E5.37144
G1 X166.099 Y147.454 E5.40264
G1 X165.273 Y147.897 E5.43382
G1 X164.411 Y148.269 E5.46504
G1 X163.522 Y148.565 E5.49621
G1 X162.61 Y148.785 E5.52741
G1 X161.683 Y148.926 E5.5586
G1 X160.799 Y148.987 E5.58807
G1 X160.478 Y148.996 E5.59875
G1 X160.17 Y149 E5.60899
G1 X75.065 Y148.999 E8.4396
G1 X74.367 Y148.99 E8.46281
G1 X73.431 Y148.938 E8.49399
G1 X72.502 Y148.806 E8.5252
G1 X71.588 Y148.596 E8.55639
G1 X70.695 Y148.309 E8.58759
G1 X69.83 Y147.946 E8.61879
G1 X68.999 Y147.512 E8.64997
G1 X68.208 Y147.008 E8.68117
G1 X67.463 Y146.438 E8.71237
G1 X66.769 Y145.807 E8.74357
G1 X66.132 Y145.12 E8.77473
G1 X65.555 Y144.38 E8.80594
G1 X65.043 Y143.594 E8.83714
G1 X64.6 Y142.767 E8.86834
G1 X64.229 Y141.906 E8.89952
G1 X63.933 Y141.016 E8.93072
G1 X63.714 Y140.104 E8.96191
G1 X63.573 Y139.177 E8.9931
G1 X63.513 Y138.288 E9.02274
G1 X63.504 Y137.955 E9.03382
G1 X63.5 Y137.658 E9.0437
G1 X63.501 Y97.525 E10.37852
G1 X63.51 Y96.86 E10.40064
G1 X63.563 Y95.924 E10.43183
G1 X63.695 Y94.995 E10.46304
G1 X63.906 Y94.081 E10.49423
G1 X64.194 Y93.189 E10.52541
G1 X64.557 Y92.324 E10.55661
G1 X64.992 Y91.493 E10.58781
G1 X65.496 Y90.703 E10.61898
G1 X66.066 Y89.958 E10.65018
G1 X66.698 Y89.264 E10.68139
G1 X67.386 Y88.627 E10.71258
G1 X68.126 Y88.051 E10.74377
G0 F6000 X68.51 Y88.27
G1 F1200 X69.291 Y87.782 E10.7744
G1 X70.111 Y87.364 E10.80501
G1 X70.965 Y87.019 E10.83565
G1 X71.845 Y86.749 E10.86626
G1 X72.745 Y86.557 E10.89687
G1 X73.659 Y86.443 E10.9275
G1 X74.212 Y86.413 E10.94592
G1 X74.533 Y86.404 E10.95661
G1 X74.83 Y86.4 E10.96648
G1 X159.793 Y86.4 E13.79237
G1 X160.643 Y86.411 E13.82064
G1 X161.562 Y86.464 E13.85126
G1 X162.473 Y86.597 E13.88188
G1 X163.369 Y86.808 E13.91249
G1 X164.243 Y87.096 E13.9431
G1 X165.09 Y87.459 E13.97375
G1 X165.901 Y87.894 E14.00436
G1 X166.671 Y88.398 E14.03497
G1 X167.395 Y88.967 E14.06559
G1 X168.067 Y89.597 E14.09623
G1 X168.682 Y90.282 E14.12685
G1 X169.235 Y91.018 E14.15747
G1 X169.722 Y91.799 E14.18808
G1 X170.139 Y92.62 E14.21871
G1 X170.484 Y93.474 E14.24934
G1 X170.753 Y94.354 E14.27995
G1 X170.945 Y95.255 E14.31059
G1 X171.058 Y96.168 E14.34119
G1 X171.087 Y96.712 E14.35931
G1 X171.096 Y97.032 E14.36995
G1 X171.1 Y97.33 E14.37987
G1 X171.099 Y137.395 E15.71243
G1 X171.09 Y138.122 E15.73662
G1 X171.039 Y139.041 E15.76723
G1 X170.908 Y139.953 E15.79787
G1 X170.698 Y140.849 E15.82848
G1 X170.412 Y141.724 E15.8591
G1 X170.051 Y142.571 E15.88972
G1 X169.617 Y143.383 E15.92035
G1 X169.115 Y144.155 E15.95097
G1 X168.547 Y144.88 E15.98161
G1 X167.919 Y145.553 E16.01222
G1 X167.235 Y146.169 E16.04284
G1 X166.5 Y146.723 E16.07345
G1 X165.72 Y147.212 E16.10407
G1 X164.9 Y147.631 E16.1347
G1 X164.047 Y147.977 E16.16531
G1 X163.167 Y148.248 E16.19594
G1 X162.267 Y148.441 E16.22655
G1 X161.353 Y148.556 E16.25719
G1 X160.788 Y148.587 E16.27601
G1 X160.467 Y148.596 E16.28669
G1 X160.17 Y148.6 E16.29657
G1 X75.07 Y148.599 E19.12701
G1 X74.372 Y148.59 E19.15023
G1 X73.453 Y148.538 E19.18084
G1 X72.542 Y148.407 E19.21146
G1 X71.646 Y148.197 E19.24206
G1 X70.771 Y147.91 E19.27269
G1 X69.924 Y147.548 E19.30333
G1 X69.112 Y147.114 E19.33395
G1 X68.341 Y146.612 E19.36455
G1 X67.616 Y146.044 E19.39518
G1 X66.943 Y145.415 E19.42582
G1 X66.328 Y144.731 E19.45642
G1 X65.774 Y143.996 E19.48703
G1 X65.286 Y143.215 E19.51766
G1 X64.867 Y142.395 E19.54829
G1 X64.521 Y141.542 E19.5789
G1 X64.251 Y140.662 E19.60952
G1 X64.058 Y139.761 E19.64017
G1 X63.944 Y138.848 E19.67077
G1 X63.913 Y138.277 E19.68979
G1 X63.904 Y137.944 E19.70087
G1 X63.9 Y137.658 E19.71038
G1 X63.901 Y97.531 E21.04501
G1 X63.91 Y96.866 E21.06713
G1 X63.962 Y95.946 E21.09778
G1 X64.094 Y95.035 E21.12839
G1 X64.305 Y94.139 E21.15901
G1 X64.592 Y93.264 E21.18964
G1 X64.955 Y92.418 E21.22026
G1 X65.389 Y91.606 E21.25088
G1 X65.892 Y90.835 E21.2815
G1 X66.461 Y90.111 E21.31213
G1 X67.089 Y89.439 E21.34272
G1 X67.774 Y88.823 E21.37336
G1 X68.51 Y88.27 E21.40398
G0 F6000 X68.894 Y88.494
G1 F1200 X69.669 Y88.031 E21.434
G1 X70.482 Y87.638 E21.46404
G1 X71.327 Y87.318 E21.49409
G1 X72.196 Y87.075 E21.5241
G1 X73.084 Y86.909 E21.55415
G1 X74.223 Y86.813 E21.59217
G1 X74.544 Y86.804 E21.60285
G1 X74.83 Y86.8 E21.61236
G1 X159.793 Y86.8 E24.43824
G1 X160.637 Y86.811 E24.46632
G1 X161.539 Y86.864 E24.49637
G1 X162.432 Y86.996 E24.52639
G1 X163.31 Y87.207 E24.55643
G1 X164.166 Y87.495 E24.58646
G1 X164.993 Y87.857 E24.61649
G1 X165.785 Y88.292 E24.64654
G1 X166.536 Y88.794 E24.67659
G1 X167.239 Y89.361 E24.70663
G1 X167.889 Y89.988 E24.73667
G1 X168.481 Y90.67 E24.7667
G1 X169.011 Y91.401 E24.79673
G1 X169.473 Y92.177 E24.82677
G1 X169.866 Y92.99 E24.85681
G1 X170.184 Y93.835 E24.88684
G1 X170.427 Y94.705 E24.91688
G1 X170.592 Y95.593 E24.94692
G1 X170.687 Y96.723 E24.98464
G1 X170.696 Y97.043 E24.99528
G1 X170.7 Y97.33 E25.00483
G1 X170.699 Y137.39 E26.33723
G1 X170.69 Y138.117 E26.36141
G1 X170.639 Y139.019 E26.39146
G1 X170.508 Y139.913 E26.42151
G1 X170.299 Y140.791 E26.45153
G1 X170.013 Y141.648 E26.48158
G1 X169.652 Y142.476 E26.51162
G1 X169.22 Y143.268 E26.54163
G1 X168.719 Y144.02 E26.57168
G1 X168.153 Y144.724 E26.60173
G1 X167.528 Y145.375 E26.63174
G1 X166.847 Y145.969 E26.6618
G1 X166.116 Y146.5 E26.69185
G1 X165.342 Y146.964 E26.72187
G1 X164.529 Y147.358 E26.75191
G1 X163.685 Y147.678 E26.78194
G1 X162.815 Y147.923 E26.812
G1 X161.928 Y148.089 E26.84201
G1 X160.777 Y148.187 E26.88043
G1 X160.456 Y148.196 E26.89111
G1 X160.17 Y148.2 E26.90063
G1 X75.075 Y148.199 E29.7309
G1 X74.377 Y148.19 E29.75412
G1 X73.476 Y148.139 E29.78413
G1 X72.582 Y148.007 E29.81419
G1 X71.704 Y147.798 E29.84421
G1 X70.847 Y147.511 E29.87427
G1 X70.02 Y147.15 E29.90428
G1 X69.227 Y146.717 E29.93433
G1 X68.476 Y146.216 E29.96436
G1 X67.772 Y145.65 E29.9944
G1 X67.121 Y145.024 E30.02444
G1 X66.528 Y144.343 E30.05447
G1 X65.998 Y143.612 E30.0845
G1 X65.534 Y142.837 E30.11455
G1 X65.14 Y142.024 E30.1446
G1 X64.82 Y141.18 E30.17462
G1 X64.576 Y140.31 E30.20467
G1 X64.41 Y139.422 E30.23472
G1 X64.313 Y138.267 E30.27327
G1 X64.304 Y137.934 E30.28435
G1 X64.3 Y137.658 E30.29353
G1 X64.301 Y97.536 E31.62799
G1 X64.31 Y96.871 E31.65011
G1 X64.362 Y95.969 E31.68016
G1 X64.494 Y95.076 E31.71019
G1 X64.704 Y94.198 E31.74021
G1 X64.991 Y93.341 E31.77027
G1 X65.353 Y92.514 E31.8003
G1 X65.786 Y91.722 E31.83032
G1 X66.288 Y90.971 E31.86036
G1 X66.855 Y90.267 E31.89043
G1 X67.481 Y89.617 E31.92044
G1 X68.162 Y89.024 E31.95048
G1 X68.894 Y88.494 E31.98054
G1 F2700 E26.98054
;MESH:digispark_lcd_angle_en8Cpy2qK6.stl
G0 F6000 X82.165 Y126.536
G0 X80.73 Y126.536
G0 X80.9 Y130.6
;TYPE:WALL-INNER
G1 F2700 E31.98054
G1 F1200 X154.1 Y130.6 E34.41518
G1 X154.1 Y104.4 E35.28659
G1 X80.9 Y104.4 E37.72124
G1 X80.9 Y130.6 E38.59265
G0 F6000 X81.3 Y130.2
;TYPE:WALL-OUTER
G1 F1200 X153.7 Y130.2 E41.00068
G1 X153.7 Y104.8 E41.84549
G1 X81.3 Y104.8 E44.25353
G1 X81.3 Y130.2 E45.09833
G1 F2700 E40.09833
G0 F6000 X81 Y130.2
G0 X109.433 Y130.77
G0 X109.433 Y129.335
G0 X161.165 Y130.79
G0 X159.69 Y130.79
G0 X159.9 Y137.4
;TYPE:WALL-INNER
G1 F2700 E45.09833
G1 F1200 X75.1 Y137.4 E47.91879
G1 X75.1 Y97.6 E49.24255
G1 X159.9 Y97.6 E52.06301
G1 X159.9 Y137.4 E53.38676
G0 F6000 X160.3 Y137.8
;TYPE:WALL-OUTER
G1 F1200 X74.7 Y137.8 E56.23383
G1 X74.7 Y97.2 E57.58419
G1 X160.3 Y97.2 E60.43126
G1 X160.3 Y137.8 E61.78162
G0 F6000 X160.03 Y137.53
G0 X159.79 Y137.01
G0 X159.51 Y137.01
;TYPE:SKIN
G1 F1200 X75.49 Y137.01 E64.57613
G1 X75.49 Y97.99 E65.87394
G1 X159.51 Y97.99 E68.66846
G1 X159.51 Y137.01 E69.96627
G1 F2700 E64.96627
G0 F6000 X159.79 Y137.01
G0 X159.69 Y130.74
G0 X161.165 Y130.74
G0 X152.847 Y129.347
G0 X154.29 Y130.74
G1 F2700 E69.96627
G0 F6000 X154.49 Y130.99
G1 F1200 X154.49 Y104.01 E70.86363
G1 X80.51 Y104.01 E73.32421
G1 X80.51 Y130.99 E74.22157
G1 X154.49 Y130.99 E76.68216
G1 F2700 E71.68216
G0 F6000 X154.21 Y130.74
G0 X154.27 Y125.56
G0 X152.835 Y125.56
G0 X161.165 Y104.204
G0 X159.69 Y104.204
G0 X159.79 Y98.255
G1 F2700 E76.68216
G0 F6000 X159.349 Y98.255
G1 F1200 X159.243 Y98.149 E76.68714
G0 F6000 X158.678 Y98.149
G1 F1200 X159.349 Y98.821 E76.71873
G0 F6000 X159.349 Y99.386
G1 F1200 X158.112 Y98.149 E76.77691
G0 F6000 X157.546 Y98.149
G1 F1200 X159.349 Y99.952 E76.86172
G0 F6000 X159.349 Y100.518
G1 F1200 X156.981 Y98.149 E76.97313
G0 F6000 X156.415 Y98.149
G1 F1200 X159.349 Y101.083 E77.11113
G0 F6000 X159.349 Y101.649
G1 F1200 X155.849 Y98.149 E77.27576
G0 F6000 X155.284 Y98.149
G1 F1200 X159.349 Y102.215 E77.46699
G0 F6000 X159.349 Y102.78
G1 F1200 X154.718 Y98.149 E77.68482
G0 F6000 X154.152 Y98.149
G1 F1200 X159.349 Y103.346 E77.92927
G0 F6000 X159.349 Y103.912
G1 F1200 X153.587 Y98.149 E78.20032
G0 F6000 X153.021 Y98.149
G1 F1200 X159.349 Y104.477 E78.49797
G0 F6000 X159.349 Y105.043
G1 F1200 X152.455 Y98.149 E78.82224
G0 F6000 X151.89 Y98.149
G1 F1200 X159.349 Y105.609 E79.17312
G0 F6000 X159.349 Y106.174
G1 F1200 X151.324 Y98.149 E79.55059
G0 F6000 X150.758 Y98.149
G1 F1200 X159.349 Y106.74 E79.95468
G0 F6000 X159.349 Y107.306
G1 F1200 X150.193 Y98.149 E80.38538
G0 F6000 X149.627 Y98.149
G1 F1200 X159.349 Y107.871 E80.84267
G0 F6000 X159.349 Y108.437
G1 F1200 X149.061 Y98.149 E81.32658
G0 F6000 X148.495 Y98.149
G1 F1200 X154.195 Y103.849 E81.59469
G0 F6000 X153.63 Y103.849
G1 F1200 X147.93 Y98.149 E81.86281
G0 F6000 X147.364 Y98.149
G1 F1200 X153.064 Y103.849 E82.13092
G0 F6000 X152.498 Y103.849
G1 F1200 X146.798 Y98.149 E82.39903
G0 F6000 X146.233 Y98.149
G1 F1200 X151.933 Y103.849 E82.66714
G0 F6000 X151.367 Y103.849
G1 F1200 X145.667 Y98.149 E82.93525
G0 F6000 X145.101 Y98.149
G1 F1200 X150.801 Y103.849 E83.20336
G0 F6000 X150.236 Y103.849
G1 F1200 X144.536 Y98.149 E83.47147
G0 F6000 X143.97 Y98.149
G1 F1200 X149.67 Y103.849 E83.73958
G0 F6000 X149.104 Y103.849
G1 F1200 X143.404 Y98.149 E84.00769
G0 F6000 X142.839 Y98.149
G1 F1200 X148.539 Y103.849 E84.2758
G0 F6000 X147.973 Y103.849
G1 F1200 X142.273 Y98.149 E84.54391
G0 F6000 X141.707 Y98.149
G1 F1200 X147.407 Y103.849 E84.81202
G0 F6000 X146.842 Y103.849
G1 F1200 X141.142 Y98.149 E85.08013
G0 F6000 X140.576 Y98.149
G1 F1200 X146.276 Y103.849 E85.34824
G0 F6000 X145.71 Y103.849
G1 F1200 X140.01 Y98.149 E85.61635
G0 F6000 X139.444 Y98.149
G1 F1200 X145.144 Y103.849 E85.88446
G0 F6000 X144.579 Y103.849
G1 F1200 X138.879 Y98.149 E86.15257
G0 F6000 X138.313 Y98.149
G1 F1200 X144.013 Y103.849 E86.42068
G0 F6000 X143.447 Y103.849
G1 F1200 X137.747 Y98.149 E86.68879
G0 F6000 X137.182 Y98.149
G1 F1200 X142.882 Y103.849 E86.95691
G0 F6000 X142.316 Y103.849
G1 F1200 X136.616 Y98.149 E87.22502
G0 F6000 X136.05 Y98.149
G1 F1200 X141.75 Y103.849 E87.49313
G0 F6000 X141.185 Y103.849
G1 F1200 X135.485 Y98.149 E87.76124
G0 F6000 X134.919 Y98.149
G1 F1200 X140.619 Y103.849 E88.02935
G0 F6000 X140.053 Y103.849
G1 F1200 X134.353 Y98.149 E88.29746
G0 F6000 X133.788 Y98.149
G1 F1200 X139.488 Y103.849 E88.56557
G0 F6000 X138.922 Y103.849
G1 F1200 X133.222 Y98.149 E88.83368
G0 F6000 X132.656 Y98.149
G1 F1200 X138.356 Y103.849 E89.10179
G0 F6000 X137.791 Y103.849
G1 F1200 X132.091 Y98.149 E89.3699
G0 F6000 X131.525 Y98.149
G1 F1200 X137.225 Y103.849 E89.63801
G0 F6000 X136.659 Y103.849
G1 F1200 X130.959 Y98.149 E89.90612
G0 F6000 X130.394 Y98.149
G1 F1200 X136.094 Y103.849 E90.17423
G0 F6000 X135.528 Y103.849
G1 F1200 X129.828 Y98.149 E90.44234
G0 F6000 X129.262 Y98.149
G1 F1200 X134.962 Y103.849 E90.71045
G0 F6000 X134.396 Y103.849
G1 F1200 X128.696 Y98.149 E90.97856
G0 F6000 X128.131 Y98.149
G1 F1200 X133.831 Y103.849 E91.24667
G0 F6000 X133.265 Y103.849
G1 F1200 X127.565 Y98.149 E91.51478
G0 F6000 X126.999 Y98.149
G1 F1200 X132.699 Y103.849 E91.78289
G0 F6000 X132.134 Y103.849
G1 F1200 X126.434 Y98.149 E92.05101
G0 F6000 X125.868 Y98.149
G1 F1200 X131.568 Y103.849 E92.31912
G0 F6000 X131.002 Y103.849
G1 F1200 X125.302 Y98.149 E92.58723
G0 F6000 X124.737 Y98.149
G1 F1200 X130.437 Y103.849 E92.85534
G0 F6000 X129.871 Y103.849
G1 F1200 X124.171 Y98.149 E93.12345
G0 F6000 X123.605 Y98.149
G1 F1200 X129.305 Y103.849 E93.39156
G0 F6000 X128.74 Y103.849
G1 F1200 X123.04 Y98.149 E93.65967
G0 F6000 X122.474 Y98.149
G1 F1200 X128.174 Y103.849 E93.92778
G0 F6000 X127.608 Y103.849
G1 F1200 X121.908 Y98.149 E94.19589
G0 F6000 X121.343 Y98.149
G1 F1200 X127.043 Y103.849 E94.464
G0 F6000 X126.477 Y103.849
G1 F1200 X120.777 Y98.149 E94.73211
G0 F6000 X120.211 Y98.149
G1 F1200 X125.911 Y103.849 E95.00022
G0 F6000 X125.345 Y103.849
G1 F1200 X119.646 Y98.149 E95.26831
G0 F6000 X119.08 Y98.149
G1 F1200 X124.78 Y103.849 E95.53642
G0 F6000 X124.214 Y103.849
G1 F1200 X118.514 Y98.149 E95.80453
G0 F6000 X117.948 Y98.149
G1 F1200 X123.648 Y103.849 E96.07264
G0 F6000 X123.083 Y103.849
G1 F1200 X117.383 Y98.149 E96.34075
G0 F6000 X116.817 Y98.149
G1 F1200 X122.517 Y103.849 E96.60886
G0 F6000 X121.951 Y103.849
G1 F1200 X116.251 Y98.149 E96.87697
G0 F6000 X115.686 Y98.149
G1 F1200 X121.386 Y103.849 E97.14508
G0 F6000 X120.82 Y103.849
G1 F1200 X115.12 Y98.149 E97.41319
G0 F6000 X114.554 Y98.149
G1 F1200 X120.254 Y103.849 E97.6813
G0 F6000 X119.689 Y103.849
G1 F1200 X113.989 Y98.149 E97.94941
G0 F6000 X113.423 Y98.149
G1 F1200 X119.123 Y103.849 E98.21752
G0 F6000 X118.557 Y103.849
G1 F1200 X112.857 Y98.149 E98.48563
G0 F6000 X112.292 Y98.149
G1 F1200 X117.992 Y103.849 E98.75374
G0 F6000 X117.426 Y103.849
G1 F1200 X111.726 Y98.149 E99.02186
G0 F6000 X111.16 Y98.149
G1 F1200 X116.86 Y103.849 E99.28997
G0 F6000 X116.295 Y103.849
G1 F1200 X110.595 Y98.149 E99.55808
G0 F6000 X110.029 Y98.149
G1 F1200 X115.729 Y103.849 E99.82619
G0 F6000 X115.163 Y103.849
G1 F1200 X109.463 Y98.149 E100.0943
G0 F6000 X108.897 Y98.149
G1 F1200 X114.597 Y103.849 E100.36241
G0 F6000 X114.032 Y103.849
G1 F1200 X108.332 Y98.149 E100.63052
G0 F6000 X107.766 Y98.149
G1 F1200 X113.466 Y103.849 E100.89863
G0 F6000 X112.9 Y103.849
G1 F1200 X107.2 Y98.149 E101.16674
G0 F6000 X106.635 Y98.149
G1 F1200 X112.335 Y103.849 E101.43485
G0 F6000 X111.769 Y103.849
G1 F1200 X106.069 Y98.149 E101.70296
