;FLAVOR:Marlin
;TIME:9279
;Filament used: 5.3876m
;Layer height: 0.16
;MINX:26.148
;MINY:43.307
;MINZ:0.2
;MAXX:155.716
;MAXY:172.875
;MAXZ:1.84
;Generated with Cura_SteamEngine 4.13.1
M140 S65
M105
M190 S65
M104 S210
M105
M109 S210
M82 ;absolute extrusion mode
; Ender 3 Custom Start G-code
G92 E0 ; Reset Extruder
G28 ; Home all axes
G1 Z2.0 F3000 ; Move Z Axis up little to prevent scratching of Heat Bed
G1 X0.1 Y20 Z0.3 F5000.0 ; Move to start position
G1 X0.1 Y200.0 Z0.3 F1500.0 E15 ; Draw the first line
G1 X0.4 Y200.0 Z0.3 F5000.0 ; Move to side a little
G1 X0.4 Y20 Z0.3 F1500.0 E30 ; Draw the second line
G92 E0 ; Reset Extruder
G1 Z2.0 F3000 ; Move Z Axis up little to prevent scratching of Heat Bed
G1 X5 Y20 Z0.3 F5000.0 ; Move over to prevent blob squish
G92 E0
G92 E0
G1 F2700 E-5
;LAYER_COUNT:11
;LAYER:0
M107
G0 F6000 X48.235 Y48.625 Z0.2
;TYPE:SKIRT
G1 F2700 E0
G1 F1200 X48.756 Y48.12 E0.02413
G1 X48.96 Y47.928 E0.03345
G1 X49.251 Y47.66 E0.04661
G1 X49.532 Y47.41 E0.05912
G1 X49.753 Y47.22 E0.06881
G1 X50.709 Y46.485 E0.10892
G1 X51.15 Y46.183 E0.1267
G1 X51.438 Y45.992 E0.13819
G1 X51.807 Y45.756 E0.15276
G1 X52.618 Y45.285 E0.18395
G1 X53.19 Y45.006 E0.20512
G1 X53.783 Y44.737 E0.22678
G1 X54.037 Y44.625 E0.23601
G1 X54.351 Y44.492 E0.24735
G1 X55.229 Y44.163 E0.27854
G1 X55.836 Y43.985 E0.29958
G1 X56.401 Y43.836 E0.31901
G1 X56.738 Y43.752 E0.33056
G1 X57.142 Y43.659 E0.34435
G1 X58.064 Y43.488 E0.37554
G1 X58.661 Y43.42 E0.39552
G1 X59.204 Y43.373 E0.41365
G1 X59.548 Y43.349 E0.42512
G1 X60.002 Y43.324 E0.44024
G1 X60.94 Y43.312 E0.47145
G1 X61.565 Y43.349 E0.49227
G1 X62.08 Y43.394 E0.50946
G1 X62.371 Y43.423 E0.51919
G1 X62.826 Y43.475 E0.53442
G1 X64.068 Y43.69 E0.57635
G1 X64.481 Y43.786 E0.59045
G1 X64.781 Y43.86 E0.60073
G1 X65.826 Y44.135 E0.63667
G1 X66.899 Y44.431 E0.67369
G1 X68.851 Y44.958 E0.74093
G1 X71.302 Y45.551 E0.82481
G1 X73.758 Y46.069 E0.90829
G1 X76.239 Y46.521 E0.99217
G1 X78.734 Y46.904 E1.07612
G1 X81.23 Y47.215 E1.15978
G1 X83.729 Y47.453 E1.24328
G1 X86.227 Y47.621 E1.32655
G1 X88.782 Y47.721 E1.41159
G1 X91.271 Y47.747 E1.49438
G1 X93.766 Y47.703 E1.57738
G1 X96.309 Y47.587 E1.66205
G1 X98.828 Y47.4 E1.74606
G1 X101.318 Y47.143 E1.82932
G1 X103.817 Y46.814 E1.91315
G1 X106.281 Y46.419 E1.99615
G1 X108.798 Y45.942 E2.08136
G1 X111.224 Y45.41 E2.16396
G1 X113.672 Y44.802 E2.24786
G1 X115.107 Y44.403 E2.2974
G1 X117.32 Y43.805 E2.37364
G1 X117.739 Y43.7 E2.38801
G1 X119.002 Y43.48 E2.43065
G1 X119.55 Y43.417 E2.449
G1 X119.876 Y43.384 E2.45989
G1 X120.324 Y43.346 E2.47485
G1 X121.261 Y43.307 E2.50604
G1 X121.837 Y43.322 E2.5252
G1 X122.308 Y43.347 E2.54089
G1 X122.651 Y43.371 E2.55233
G1 X123.148 Y43.413 E2.56892
G1 X124.079 Y43.532 E2.60013
G1 X124.707 Y43.658 E2.62144
G1 X125.302 Y43.796 E2.64175
G1 X125.627 Y43.877 E2.65289
G1 X126.013 Y43.979 E2.66617
G1 X126.909 Y44.257 E2.69737
G1 X127.464 Y44.473 E2.71718
G1 X127.921 Y44.665 E2.73367
G1 X128.196 Y44.785 E2.74365
G1 X128.629 Y44.981 E2.75946
G1 X129.466 Y45.404 E2.79065
G1 X130.022 Y45.737 E2.8122
G1 X130.483 Y46.032 E2.83041
G1 X130.767 Y46.22 E2.84174
G1 X131.141 Y46.476 E2.85681
G1 X132.112 Y47.223 E2.89756
G1 X132.381 Y47.455 E2.90937
G1 X132.594 Y47.644 E2.91884
G1 X132.791 Y47.823 E2.9277
G1 X133.056 Y48.071 E2.93977
G1 X133.754 Y48.75 E2.97216
G1 X150.323 Y65.317 E3.75146
G1 X150.825 Y65.834 E3.77543
G1 X151.034 Y66.055 E3.78555
G1 X151.423 Y66.479 E3.80469
G1 X151.675 Y66.764 E3.81734
G1 X151.829 Y66.944 E3.82522
G1 X152.57 Y67.914 E3.86582
G1 X152.839 Y68.31 E3.88174
G1 X152.99 Y68.538 E3.89084
G1 X153.259 Y68.956 E3.90737
G1 X153.733 Y69.766 E3.93858
G1 X154.022 Y70.354 E3.96037
G1 X154.244 Y70.842 E3.97821
G1 X154.373 Y71.139 E3.98898
G1 X154.551 Y71.563 E4.00427
G1 X154.877 Y72.443 E4.03548
G1 X155.052 Y73.04 E4.05617
G1 X155.173 Y73.503 E4.07209
G1 X155.242 Y73.785 E4.08175
G1 X155.357 Y74.278 E4.09859
G1 X155.529 Y75.184 E4.12926
G1 X155.61 Y75.864 E4.15203
G1 X155.649 Y76.312 E4.16699
G1 X155.675 Y76.7 E4.17992
G1 X155.701 Y77.205 E4.19674
G1 X155.701 Y78.349 E4.23479
G1 X155.669 Y78.828 E4.25076
G1 X155.641 Y79.147 E4.26141
G1 X155.613 Y79.428 E4.2708
G1 X155.555 Y79.938 E4.28788
G1 X155.333 Y81.211 E4.33085
G1 X155.224 Y81.675 E4.34671
G1 X155.166 Y81.911 E4.35479
G1 X154.897 Y82.952 E4.39055
G1 X154.645 Y83.867 E4.42212
G1 X154.603 Y84.042 E4.4281
G1 X154.108 Y85.849 E4.49042
G1 X153.507 Y88.314 E4.57481
G1 X152.989 Y90.745 E4.65748
G1 X152.526 Y93.256 E4.7424
G1 X152.146 Y95.706 E4.82486
G1 X151.829 Y98.213 E4.90891
G1 X151.584 Y100.722 E4.99276
G1 X151.411 Y103.234 E5.0765
G1 X151.308 Y105.755 E5.16042
G1 X151.276 Y108.248 E5.24335
G1 X151.317 Y110.811 E5.3286
G1 X151.425 Y113.283 E5.4109
G1 X151.61 Y115.818 E5.49544
G1 X151.861 Y118.304 E5.57854
G1 X152.184 Y120.806 E5.66245
G1 X152.578 Y123.284 E5.74591
G1 X153.048 Y125.793 E5.83081
G1 X153.569 Y128.194 E5.91252
G1 X154.178 Y130.663 E5.9971
G1 X155.117 Y134.054 E6.11413
G1 X155.231 Y134.505 E6.12961
G1 X155.334 Y134.951 E6.14483
G1 X155.508 Y135.892 E6.17666
G1 X155.553 Y136.235 E6.18816
G1 X155.6 Y136.642 E6.20179
G1 X155.631 Y136.94 E6.21176
G1 X155.674 Y137.429 E6.22808
G1 X155.716 Y138.366 E6.25928
G1 X155.699 Y139.006 E6.28057
G1 X155.667 Y139.579 E6.29966
G1 X155.645 Y139.888 E6.30996
G1 X155.609 Y140.316 E6.32425
G1 X155.491 Y141.246 E6.35543
G1 X155.363 Y141.882 E6.37701
G1 X155.239 Y142.416 E6.39524
G1 X155.171 Y142.69 E6.40463
G1 X155.068 Y143.087 E6.41827
G1 X154.794 Y143.984 E6.44947
G1 X154.549 Y144.616 E6.47201
G1 X154.19 Y145.459 E6.50249
G1 X154.071 Y145.725 E6.51218
G1 X153.652 Y146.564 E6.54337
G1 X153.314 Y147.133 E6.56538
G1 X152.974 Y147.668 E6.58647
G1 X152.772 Y147.974 E6.59866
G1 X152.554 Y148.293 E6.61151
G1 X151.8 Y149.274 E6.65266
G1 X151.567 Y149.544 E6.66453
G1 X151.393 Y149.741 E6.67327
G1 X151.23 Y149.921 E6.68134
G1 X150.965 Y150.202 E6.69419
G1 X150.238 Y150.949 E6.72886
G1 X133.6 Y167.585 E7.51141
G1 X133.147 Y168.024 E7.5324
G1 X132.944 Y168.217 E7.54171
G1 X132.59 Y168.543 E7.55772
G1 X132.304 Y168.797 E7.57044
G1 X132.106 Y168.967 E7.57912
G1 X131.155 Y169.697 E7.61899
G1 X130.714 Y169.999 E7.63677
G1 X130.426 Y170.19 E7.64827
G1 X130.057 Y170.426 E7.66283
G1 X129.246 Y170.897 E7.69403
G1 X128.683 Y171.172 E7.71487
G1 X128.098 Y171.438 E7.73624
G1 X127.825 Y171.558 E7.74616
G1 X127.503 Y171.694 E7.75779
G1 X126.624 Y172.022 E7.78899
G1 X126.028 Y172.197 E7.80965
G1 X125.463 Y172.346 E7.82908
G1 X125.129 Y172.429 E7.84053
G1 X124.73 Y172.521 E7.85415
G1 X123.808 Y172.692 E7.88534
G1 X123.187 Y172.763 E7.90613
G1 X122.632 Y172.81 E7.92465
G1 X122.321 Y172.832 E7.93502
G1 X121.876 Y172.857 E7.94985
G1 X120.938 Y172.869 E7.98105
G1 X120.345 Y172.836 E8.0008
G1 X119.865 Y172.796 E8.01682
G1 X119.569 Y172.767 E8.02671
G1 X119.081 Y172.713 E8.04304
G1 X118.154 Y172.57 E8.07424
G1 X117.825 Y172.49 E8.0855
G1 X117.823 Y172.498 E8.08578
G1 X117.44 Y172.41 E8.09885
G1 X117.107 Y172.328 E8.11025
G1 X116.582 Y172.19 E8.12831
G1 X116.331 Y172.121 E8.13697
G1 X115.951 Y172.012 E8.15012
G1 X115.752 Y171.962 E8.15694
G1 X114.047 Y171.477 E8.2159
G1 X111.554 Y170.843 E8.30145
G1 X109.141 Y170.305 E8.38368
G1 X106.689 Y169.829 E8.46676
G1 X104.191 Y169.417 E8.55096
G1 X101.68 Y169.075 E8.63525
G1 X99.198 Y168.809 E8.71828
G1 X96.667 Y168.608 E8.80272
G1 X94.161 Y168.482 E8.88618
G1 X91.666 Y168.427 E8.96918
G1 X89.14 Y168.443 E9.0532
G1 X86.582 Y168.531 E9.13833
G1 X84.135 Y168.684 E9.21988
G1 X81.595 Y168.916 E9.30471
G1 X79.072 Y169.219 E9.38923
G1 X76.612 Y169.585 E9.47195
G1 X74.142 Y170.024 E9.55539
G1 X71.667 Y170.535 E9.63944
G1 X69.269 Y171.103 E9.72141
G1 X67.082 Y171.697 E9.79678
G1 X66.951 Y171.727 E9.80125
G1 X64.548 Y172.376 E9.88404
G1 X64.134 Y172.48 E9.89824
G1 X62.862 Y172.702 E9.94118
G1 X62.314 Y172.765 E9.95953
G1 X61.973 Y172.799 E9.97093
G1 X61.518 Y172.837 E9.98611
G1 X60.581 Y172.875 E10.0173
G1 X59.977 Y172.857 E10.0374
G1 X59.486 Y172.829 E10.05376
G1 X59.182 Y172.808 E10.06389
G1 X58.699 Y172.767 E10.08002
G1 X57.768 Y172.647 E10.11124
G1 X57.141 Y172.521 E10.13251
G1 X56.607 Y172.397 E10.15074
G1 X56.333 Y172.33 E10.16012
G1 X55.909 Y172.22 E10.17469
G1 X55.012 Y171.946 E10.20589
G1 X54.403 Y171.71 E10.22761
G1 X53.916 Y171.505 E10.24519
G1 X53.647 Y171.388 E10.25494
G1 X53.234 Y171.201 E10.27002
G1 X52.397 Y170.778 E10.30121
G1 X51.842 Y170.445 E10.32274
G1 X51.381 Y170.15 E10.34094
G1 X51.097 Y169.962 E10.35227
G1 X50.723 Y169.706 E10.36735
G1 X49.752 Y168.959 E10.40809
G1 X49.483 Y168.727 E10.41991
G1 X49.266 Y168.534 E10.42957
G1 X49.067 Y168.353 E10.43851
G1 X48.804 Y168.107 E10.45049
G1 X48.133 Y167.453 E10.48166
G1 X35.877 Y155.197 E11.05814
G1 X31.45 Y150.772 E11.26633
G1 X31.031 Y150.341 E11.28632
G1 X30.798 Y150.094 E11.29761
G1 X30.437 Y149.699 E11.31541
G1 X30.214 Y149.447 E11.3266
G1 X30.049 Y149.255 E11.33502
G1 X29.288 Y148.26 E11.37669
G1 X29.012 Y147.853 E11.39304
G1 X28.86 Y147.623 E11.40221
G1 X28.598 Y147.215 E11.41834
G1 X28.125 Y146.405 E11.44954
G1 X27.836 Y145.814 E11.47142
G1 X27.612 Y145.32 E11.48946
G1 X27.501 Y145.068 E11.49862
G1 X27.329 Y144.662 E11.51328
G1 X27.001 Y143.784 E11.54446
G1 X26.818 Y143.161 E11.56605
G1 X26.689 Y142.669 E11.58297
G1 X26.609 Y142.344 E11.5941
G1 X26.497 Y141.857 E11.61072
G1 X26.324 Y140.92 E11.64241
G1 X26.254 Y140.318 E11.66257
G1 X26.215 Y139.87 E11.67753
G1 X26.189 Y139.482 E11.69046
G1 X26.163 Y138.977 E11.70728
G1 X26.163 Y137.833 E11.74533
G1 X26.195 Y137.356 E11.76123
G1 X26.224 Y137.025 E11.77228
G1 X26.253 Y136.734 E11.78201
G1 X26.31 Y136.236 E11.79868
G1 X26.532 Y134.967 E11.84153
G1 X26.677 Y134.351 E11.86258
G1 X26.779 Y133.944 E11.87653
G1 X26.854 Y133.666 E11.88611
G1 X27.152 Y132.618 E11.92235
G1 X27.83 Y130.114 E12.00863
G1 X28.424 Y127.649 E12.09296
G1 X28.933 Y125.224 E12.17538
G1 X29.382 Y122.747 E12.2591
G1 X29.768 Y120.208 E12.34452
G1 X30.069 Y117.765 E12.42639
G1 X30.31 Y115.232 E12.51102
G1 X30.476 Y112.719 E12.59478
G1 X30.572 Y110.198 E12.67869
G1 X30.595 Y107.708 E12.76152
G1 X30.548 Y105.186 E12.84541
G1 X30.429 Y102.654 E12.92972
G1 X30.241 Y100.157 E13.01301
G1 X29.98 Y97.645 E13.097
G1 X29.648 Y95.141 E13.18102
G1 X29.249 Y92.671 E13.26423
G1 X28.781 Y90.218 E13.34729
G1 X28.24 Y87.76 E13.431
G1 X27.484 Y84.768 E13.53364
G1 X27.16 Y83.616 E13.57345
G1 X26.753 Y82.15 E13.62405
G1 X26.633 Y81.679 E13.64022
G1 X26.529 Y81.228 E13.65561
G1 X26.363 Y80.339 E13.68569
G1 X26.31 Y79.941 E13.69904
G1 X26.261 Y79.509 E13.7135
G1 X26.231 Y79.21 E13.7235
G1 X26.188 Y78.709 E13.74022
G1 X26.148 Y77.772 E13.77142
G1 X26.165 Y77.159 E13.79181
G1 X26.193 Y76.654 E13.80864
G1 X26.214 Y76.351 E13.81874
G1 X26.253 Y75.882 E13.83439
G1 X26.37 Y74.952 E13.86557
G1 X26.5 Y74.307 E13.88745
G1 X26.63 Y73.747 E13.90657
G1 X26.699 Y73.467 E13.91616
G1 X26.797 Y73.09 E13.92912
G1 X27.071 Y72.193 E13.96031
G1 X27.314 Y71.566 E13.98268
G1 X27.594 Y70.905 E14.00656
G1 X27.801 Y70.44 E14.02348
G1 X28.221 Y69.602 E14.05466
G1 X28.554 Y69.042 E14.07633
G1 X28.899 Y68.5 E14.0977
G1 X29.098 Y68.199 E14.1097
G1 X29.312 Y67.886 E14.12231
G1 X30.063 Y66.91 E14.16327
G1 X30.295 Y66.641 E14.17509
G1 X30.477 Y66.436 E14.18421
G1 X30.662 Y66.232 E14.19336
G1 X30.927 Y65.949 E14.20626
G1 X31.615 Y65.244 E14.23902
G1 X39.259 Y57.602 E14.59853
G1 X48.235 Y48.625 E15.02075
G0 F6000 X48.513 Y48.913
G1 F1200 X49.034 Y48.408 E15.04489
G1 X49.231 Y48.222 E15.0539
G1 X49.522 Y47.954 E15.06706
G1 X49.793 Y47.713 E15.07912
G1 X50.014 Y47.523 E15.08881
G1 X50.935 Y46.815 E15.12745
G1 X51.376 Y46.513 E15.14523
G1 X51.654 Y46.329 E15.15631
G1 X52.023 Y46.093 E15.17088
G1 X52.819 Y45.631 E15.20149
G1 X53.355 Y45.37 E15.22132
G1 X53.948 Y45.101 E15.24298
G1 X54.193 Y44.993 E15.25189
G1 X54.507 Y44.86 E15.26323
G1 X55.369 Y44.539 E15.29382
G1 X55.938 Y44.371 E15.31355
G1 X56.503 Y44.222 E15.33299
G1 X56.828 Y44.142 E15.34412
G1 X57.232 Y44.049 E15.35791
G1 X58.137 Y43.882 E15.38852
G1 X58.696 Y43.818 E15.40723
G1 X59.239 Y43.771 E15.42536
G1 X59.57 Y43.748 E15.4364
G1 X60.024 Y43.723 E15.45152
G1 X60.945 Y43.712 E15.48215
G1 X61.53 Y43.747 E15.50165
G1 X62.045 Y43.792 E15.51884
G1 X62.326 Y43.821 E15.52824
G1 X62.781 Y43.873 E15.54347
G1 X63.977 Y44.079 E15.58383
G1 X64.39 Y44.175 E15.59793
G1 X64.68 Y44.247 E15.60787
G1 X65.72 Y44.521 E15.64364
G1 X66.735 Y44.801 E15.67866
G1 X68.732 Y45.34 E15.74746
G1 X71.262 Y45.952 E15.83404
G1 X73.674 Y46.461 E15.91603
G1 X76.173 Y46.916 E16.00051
G1 X78.661 Y47.298 E16.08423
G1 X81.179 Y47.611 E16.16862
G1 X83.701 Y47.852 E16.25289
G1 X86.22 Y48.022 E16.33686
G1 X88.762 Y48.121 E16.42147
G1 X91.273 Y48.147 E16.50499
G1 X93.791 Y48.103 E16.58876
G1 X96.324 Y47.987 E16.67309
G1 X98.863 Y47.798 E16.75777
G1 X101.375 Y47.539 E16.84177
G1 X103.861 Y47.212 E16.92516
G1 X106.353 Y46.812 E17.00911
G1 X108.887 Y46.332 E17.09489
G1 X111.292 Y45.805 E17.17678
G1 X113.77 Y45.189 E17.2617
G1 X115.212 Y44.789 E17.31147
G1 X117.425 Y44.191 E17.38772
G1 X117.83 Y44.09 E17.4016
G1 X119.047 Y43.877 E17.4427
G1 X119.595 Y43.814 E17.46104
G1 X119.91 Y43.783 E17.47157
G1 X120.358 Y43.745 E17.48652
G1 X121.278 Y43.707 E17.51715
G1 X121.816 Y43.722 E17.53505
G1 X122.287 Y43.747 E17.55074
G1 X122.618 Y43.77 E17.56177
G1 X123.115 Y43.812 E17.57836
G1 X124.028 Y43.929 E17.60898
G1 X124.617 Y44.048 E17.62896
G1 X125.212 Y44.186 E17.64928
G1 X125.525 Y44.264 E17.66001
G1 X125.911 Y44.366 E17.67329
G1 X126.79 Y44.639 E17.7039
G1 X127.309 Y44.841 E17.72242
G1 X127.766 Y45.033 E17.73891
G1 X128.031 Y45.149 E17.74853
G1 X128.464 Y45.345 E17.76434
G1 X129.286 Y45.761 E17.79498
G1 X129.806 Y46.074 E17.81517
G1 X130.267 Y46.369 E17.83337
G1 X130.541 Y46.55 E17.84429
G1 X130.915 Y46.806 E17.85937
G1 X131.851 Y47.526 E17.89864
G1 X132.12 Y47.758 E17.91046
G1 X132.325 Y47.94 E17.91958
G1 X132.522 Y48.119 E17.92843
G1 X132.777 Y48.358 E17.94005
G1 X133.471 Y49.033 E17.97225
G1 X150.04 Y65.6 E18.75156
G1 X150.538 Y66.112 E18.77532
G1 X150.739 Y66.325 E18.78506
G1 X151.128 Y66.749 E18.8042
G1 X151.371 Y67.024 E18.8164
G1 X151.525 Y67.204 E18.82428
G1 X152.239 Y68.139 E18.86341
G1 X152.508 Y68.535 E18.87933
G1 X152.654 Y68.755 E18.88811
G1 X152.923 Y69.173 E18.90465
G1 X153.387 Y69.968 E18.93526
G1 X153.658 Y70.52 E18.95572
G1 X153.88 Y71.008 E18.97355
G1 X154.005 Y71.294 E18.98393
G1 X154.183 Y71.718 E18.99922
G1 X154.502 Y72.581 E19.02983
G1 X154.665 Y73.141 E19.04922
G1 X154.786 Y73.604 E19.06514
G1 X154.853 Y73.876 E19.07446
G1 X154.968 Y74.369 E19.09129
G1 X155.133 Y75.242 E19.12085
G1 X155.211 Y75.899 E19.14285
G1 X155.25 Y76.347 E19.15781
G1 X155.276 Y76.721 E19.17028
G1 X155.302 Y77.226 E19.1871
G1 X155.301 Y78.328 E19.22375
G1 X155.27 Y78.793 E19.23925
G1 X155.242 Y79.112 E19.2499
G1 X155.215 Y79.383 E19.25896
G1 X155.157 Y79.893 E19.27603
G1 X154.944 Y81.119 E19.31742
G1 X154.835 Y81.583 E19.33327
G1 X154.779 Y81.811 E19.34108
G1 X154.461 Y83.035 E19.38314
G1 X154.235 Y83.849 E19.41124
G1 X154.217 Y83.936 E19.41419
G1 X153.719 Y85.754 E19.47689
G1 X153.114 Y88.233 E19.56176
G1 X152.596 Y90.668 E19.64456
G1 X152.137 Y93.154 E19.72864
G1 X151.747 Y95.671 E19.81336
G1 X151.433 Y98.156 E19.89667
G1 X151.186 Y100.689 E19.98131
G1 X151.01 Y103.227 E20.06593
G1 X150.908 Y105.734 E20.14938
G1 X150.876 Y108.249 E20.23304
G1 X150.917 Y110.8 E20.3179
G1 X151.028 Y113.328 E20.40206
G1 X151.211 Y115.851 E20.48619
G1 X151.464 Y118.358 E20.57
G1 X151.787 Y120.854 E20.65371
G1 X152.183 Y123.349 E20.73773
G1 X152.651 Y125.846 E20.82223
G1 X153.183 Y128.295 E20.90558
G1 X153.792 Y130.768 E20.99029
G1 X154.303 Y132.609 E21.05384
G1 X154.731 Y134.16 E21.10735
G1 X154.841 Y134.595 E21.12228
G1 X154.944 Y135.041 E21.1375
G1 X155.112 Y135.948 E21.16818
G1 X155.156 Y136.281 E21.17935
G1 X155.203 Y136.688 E21.19298
G1 X155.232 Y136.975 E21.20258
G1 X155.275 Y137.464 E21.2189
G1 X155.316 Y138.384 E21.24953
G1 X155.3 Y138.984 E21.2695
G1 X155.268 Y139.557 E21.28858
G1 X155.247 Y139.854 E21.29849
G1 X155.211 Y140.282 E21.31277
G1 X155.094 Y141.196 E21.34342
G1 X154.973 Y141.792 E21.36365
G1 X154.849 Y142.326 E21.38188
G1 X154.784 Y142.59 E21.39092
