;FLAVOR:Marlin
;TIME:10166
;Filament used: 5.84977m
;Layer height: 0.16
;MINX:52.716
;MINY:52.716
;MINZ:0.2
;MAXX:182.284
;MAXY:182.284
;MAXZ:2
;Generated with Cura_SteamEngine 4.13.1
M140 S65
M105
M190 S65
M104 S210
M105
M109 S210
M82 ;absolute extrusion mode
; Ender 3 Custom Start G-code
G92 E0 ; Reset Extruder
G28 ; Home all axes
G1 Z2.0 F3000 ; Move Z Axis up little to prevent scratching of Heat Bed
G1 X0.1 Y20 Z0.3 F5000.0 ; Move to start position
G1 X0.1 Y200.0 Z0.3 F1500.0 E15 ; Draw the first line
G1 X0.4 Y200.0 Z0.3 F5000.0 ; Move to side a little
G1 X0.4 Y20 Z0.3 F1500.0 E30 ; Draw the second line
G92 E0 ; Reset Extruder
G1 Z2.0 F3000 ; Move Z Axis up little to prevent scratching of Heat Bed
G1 X5 Y20 Z0.3 F5000.0 ; Move over to prevent blob squish
G92 E0
G92 E0
G1 F2700 E-5
;LAYER_COUNT:12
;LAYER:0
M107
G0 F6000 X65.827 Y67.011 Z0.2
;TYPE:SKIRT
G1 F2700 E0
G1 F1200 X74.803 Y58.034 E0.42223
G1 X75.324 Y57.529 E0.44636
G1 X75.528 Y57.337 E0.45568
G1 X75.819 Y57.069 E0.46884
G1 X76.1 Y56.819 E0.48135
G1 X76.321 Y56.629 E0.49104
G1 X77.277 Y55.894 E0.53115
G1 X77.718 Y55.592 E0.54892
G1 X78.006 Y55.401 E0.56042
G1 X78.375 Y55.165 E0.57499
G1 X79.186 Y54.694 E0.60618
G1 X79.758 Y54.415 E0.62735
G1 X80.351 Y54.146 E0.649
G1 X80.605 Y54.034 E0.65824
G1 X80.919 Y53.901 E0.66958
G1 X81.797 Y53.572 E0.70076
G1 X82.404 Y53.394 E0.7218
G1 X82.969 Y53.245 E0.74124
G1 X83.306 Y53.161 E0.75279
G1 X83.71 Y53.068 E0.76658
G1 X84.632 Y52.897 E0.79777
G1 X85.229 Y52.829 E0.81775
G1 X85.772 Y52.782 E0.83588
G1 X86.116 Y52.758 E0.84735
G1 X86.57 Y52.733 E0.86247
G1 X87.508 Y52.721 E0.89367
G1 X88.133 Y52.758 E0.9145
G1 X88.648 Y52.803 E0.93169
G1 X88.939 Y52.832 E0.94142
G1 X89.394 Y52.884 E0.95665
G1 X90.636 Y53.099 E0.99857
G1 X91.049 Y53.195 E1.01267
G1 X91.349 Y53.269 E1.02295
G1 X92.394 Y53.544 E1.05889
G1 X93.467 Y53.84 E1.09591
G1 X95.419 Y54.367 E1.16316
G1 X97.87 Y54.96 E1.24703
G1 X100.326 Y55.478 E1.33052
G1 X102.807 Y55.93 E1.41439
G1 X105.302 Y56.313 E1.49835
G1 X107.798 Y56.624 E1.58201
G1 X110.297 Y56.862 E1.6655
G1 X112.795 Y57.03 E1.74877
G1 X115.35 Y57.13 E1.83382
G1 X117.839 Y57.156 E1.91661
G1 X120.334 Y57.112 E1.99961
G1 X122.877 Y56.996 E2.08427
G1 X125.396 Y56.809 E2.16829
G1 X127.886 Y56.552 E2.25154
G1 X130.385 Y56.223 E2.33538
G1 X132.849 Y55.828 E2.41838
G1 X135.366 Y55.351 E2.50358
G1 X137.792 Y54.819 E2.58619
G1 X140.24 Y54.211 E2.67008
G1 X141.675 Y53.812 E2.71962
G1 X143.888 Y53.214 E2.79587
G1 X144.307 Y53.109 E2.81024
G1 X145.57 Y52.889 E2.85288
G1 X146.118 Y52.826 E2.87122
G1 X146.444 Y52.793 E2.88212
G1 X146.892 Y52.755 E2.89707
G1 X147.829 Y52.716 E2.92827
G1 X148.405 Y52.731 E2.94743
G1 X148.876 Y52.756 E2.96312
G1 X149.219 Y52.78 E2.97455
G1 X149.716 Y52.822 E2.99114
G1 X150.647 Y52.941 E3.02236
G1 X151.275 Y53.067 E3.04366
G1 X151.87 Y53.205 E3.06398
G1 X152.195 Y53.286 E3.07512
G1 X152.581 Y53.388 E3.0884
G1 X153.477 Y53.666 E3.1196
G1 X154.032 Y53.882 E3.13941
G1 X154.489 Y54.074 E3.1559
G1 X154.764 Y54.194 E3.16588
G1 X155.197 Y54.39 E3.18168
G1 X156.034 Y54.813 E3.21288
G1 X156.59 Y55.146 E3.23443
G1 X157.051 Y55.441 E3.25263
G1 X157.335 Y55.629 E3.26396
G1 X157.709 Y55.885 E3.27904
G1 X158.68 Y56.632 E3.31978
G1 X158.949 Y56.864 E3.3316
G1 X159.162 Y57.053 E3.34107
G1 X159.359 Y57.232 E3.34992
G1 X159.624 Y57.48 E3.36199
G1 X160.322 Y58.159 E3.39438
G1 X176.891 Y74.726 E4.17369
G1 X177.393 Y75.243 E4.19766
G1 X177.602 Y75.464 E4.20778
G1 X177.991 Y75.888 E4.22691
G1 X178.243 Y76.173 E4.23957
G1 X178.397 Y76.353 E4.24745
G1 X179.138 Y77.323 E4.28804
G1 X179.407 Y77.719 E4.30397
G1 X179.558 Y77.947 E4.31306
G1 X179.827 Y78.365 E4.3296
G1 X180.301 Y79.175 E4.36081
G1 X180.59 Y79.763 E4.3826
G1 X180.812 Y80.251 E4.40043
G1 X180.941 Y80.548 E4.4112
G1 X181.119 Y80.972 E4.4265
G1 X181.445 Y81.852 E4.45771
G1 X181.62 Y82.449 E4.4784
G1 X181.741 Y82.912 E4.49432
G1 X181.81 Y83.194 E4.50397
G1 X181.925 Y83.687 E4.52081
G1 X182.097 Y84.593 E4.55148
G1 X182.178 Y85.273 E4.57426
G1 X182.217 Y85.721 E4.58922
G1 X182.243 Y86.109 E4.60215
G1 X182.269 Y86.614 E4.61897
G1 X182.269 Y87.758 E4.65702
G1 X182.237 Y88.237 E4.67299
G1 X182.209 Y88.556 E4.68364
G1 X182.181 Y88.837 E4.69303
G1 X182.123 Y89.347 E4.7101
G1 X181.901 Y90.62 E4.75308
G1 X181.792 Y91.084 E4.76893
G1 X181.734 Y91.32 E4.77702
G1 X181.465 Y92.361 E4.81278
G1 X181.213 Y93.276 E4.84434
G1 X181.171 Y93.451 E4.85033
G1 X180.676 Y95.258 E4.91265
G1 X180.075 Y97.723 E4.99703
G1 X179.557 Y100.154 E5.0797
G1 X179.094 Y102.665 E5.16463
G1 X178.714 Y105.115 E5.24709
G1 X178.397 Y107.622 E5.33114
G1 X178.152 Y110.131 E5.41498
G1 X177.979 Y112.643 E5.49873
G1 X177.876 Y115.164 E5.58265
G1 X177.844 Y117.657 E5.66557
G1 X177.885 Y120.22 E5.75083
G1 X177.993 Y122.692 E5.83313
G1 X178.178 Y125.227 E5.91767
G1 X178.429 Y127.713 E6.00077
G1 X178.752 Y130.215 E6.08468
G1 X179.146 Y132.693 E6.16813
G1 X179.616 Y135.202 E6.25303
G1 X180.137 Y137.603 E6.33475
G1 X180.746 Y140.072 E6.41933
G1 X181.685 Y143.463 E6.53636
G1 X181.799 Y143.914 E6.55183
G1 X181.902 Y144.36 E6.56706
G1 X182.076 Y145.301 E6.59888
G1 X182.121 Y145.644 E6.61039
G1 X182.168 Y146.051 E6.62402
G1 X182.199 Y146.349 E6.63398
G1 X182.242 Y146.838 E6.65031
G1 X182.284 Y147.775 E6.68151
G1 X182.267 Y148.415 E6.7028
G1 X182.235 Y148.988 E6.72189
G1 X182.213 Y149.297 E6.73219
G1 X182.177 Y149.725 E6.74648
G1 X182.059 Y150.655 E6.77766
G1 X181.931 Y151.291 E6.79923
G1 X181.807 Y151.825 E6.81747
G1 X181.739 Y152.099 E6.82686
G1 X181.636 Y152.496 E6.8405
G1 X181.362 Y153.393 E6.87169
G1 X181.117 Y154.025 E6.89424
G1 X180.758 Y154.868 E6.92471
G1 X180.639 Y155.134 E6.93441
G1 X180.22 Y155.973 E6.9656
G1 X179.882 Y156.542 E6.98761
G1 X179.542 Y157.077 E7.00869
G1 X179.34 Y157.383 E7.02089
G1 X179.122 Y157.702 E7.03374
G1 X178.368 Y158.683 E7.07489
G1 X178.135 Y158.953 E7.08675
G1 X177.961 Y159.15 E7.09549
G1 X177.798 Y159.33 E7.10357
G1 X177.533 Y159.611 E7.11642
G1 X176.806 Y160.358 E7.15109
G1 X160.168 Y176.994 E7.93364
G1 X159.715 Y177.433 E7.95462
G1 X159.512 Y177.626 E7.96394
G1 X159.158 Y177.952 E7.97994
G1 X158.872 Y178.206 E7.99267
G1 X158.674 Y178.376 E8.00135
G1 X157.723 Y179.106 E8.04122
G1 X157.282 Y179.408 E8.059
G1 X156.994 Y179.599 E8.07049
G1 X156.625 Y179.835 E8.08506
G1 X155.814 Y180.306 E8.11625
G1 X155.251 Y180.581 E8.13709
G1 X154.666 Y180.847 E8.15847
G1 X154.393 Y180.967 E8.16839
G1 X154.071 Y181.103 E8.18001
G1 X153.192 Y181.431 E8.21122
G1 X152.596 Y181.606 E8.23188
G1 X152.031 Y181.755 E8.25131
G1 X151.697 Y181.838 E8.26276
G1 X151.298 Y181.93 E8.27638
G1 X150.376 Y182.101 E8.30757
G1 X149.755 Y182.172 E8.32836
G1 X149.2 Y182.219 E8.34688
G1 X148.889 Y182.241 E8.35725
G1 X148.444 Y182.266 E8.37207
G1 X147.506 Y182.278 E8.40328
G1 X146.913 Y182.245 E8.42303
G1 X146.433 Y182.205 E8.43905
G1 X146.137 Y182.176 E8.44894
G1 X145.649 Y182.122 E8.46527
G1 X144.722 Y181.979 E8.49647
G1 X144.393 Y181.899 E8.50773
G1 X144.391 Y181.907 E8.508
G1 X144.008 Y181.819 E8.52107
G1 X143.675 Y181.737 E8.53248
G1 X143.15 Y181.599 E8.55054
G1 X142.899 Y181.53 E8.55919
G1 X142.519 Y181.421 E8.57234
G1 X142.32 Y181.371 E8.57917
G1 X140.615 Y180.886 E8.63812
G1 X138.122 Y180.252 E8.72368
G1 X135.709 Y179.714 E8.80591
G1 X133.257 Y179.238 E8.88899
G1 X130.759 Y178.826 E8.97319
G1 X128.248 Y178.484 E9.05748
G1 X125.766 Y178.218 E9.1405
G1 X123.235 Y178.017 E9.22495
G1 X120.729 Y177.891 E9.30841
G1 X118.234 Y177.836 E9.39141
G1 X115.708 Y177.852 E9.47543
G1 X113.15 Y177.94 E9.56056
G1 X110.703 Y178.093 E9.6421
G1 X108.163 Y178.325 E9.72693
G1 X105.64 Y178.628 E9.81145
G1 X103.18 Y178.994 E9.89417
G1 X100.71 Y179.433 E9.97761
G1 X98.235 Y179.944 E10.06167
G1 X95.837 Y180.512 E10.14363
G1 X93.65 Y181.106 E10.21901
G1 X93.519 Y181.136 E10.22348
G1 X91.116 Y181.785 E10.30627
G1 X90.702 Y181.889 E10.32046
G1 X89.43 Y182.111 E10.36341
G1 X88.882 Y182.174 E10.38176
G1 X88.541 Y182.208 E10.39315
G1 X88.086 Y182.246 E10.40834
G1 X87.149 Y182.284 E10.43953
G1 X86.545 Y182.266 E10.45963
G1 X86.054 Y182.238 E10.47599
G1 X85.75 Y182.217 E10.48612
G1 X85.267 Y182.176 E10.50224
G1 X84.336 Y182.056 E10.53347
G1 X83.709 Y181.93 E10.55474
G1 X83.175 Y181.806 E10.57297
G1 X82.901 Y181.739 E10.58235
G1 X82.477 Y181.629 E10.59692
G1 X81.58 Y181.355 E10.62812
G1 X80.971 Y181.119 E10.64984
G1 X80.484 Y180.914 E10.66741
G1 X80.215 Y180.797 E10.67717
G1 X79.802 Y180.61 E10.69225
G1 X78.965 Y180.187 E10.72344
G1 X78.41 Y179.854 E10.74497
G1 X77.949 Y179.559 E10.76317
G1 X77.665 Y179.371 E10.7745
G1 X77.291 Y179.115 E10.78957
G1 X76.32 Y178.368 E10.83032
G1 X76.051 Y178.136 E10.84214
G1 X75.834 Y177.943 E10.85179
G1 X75.635 Y177.762 E10.86074
G1 X75.372 Y177.516 E10.87272
G1 X74.701 Y176.862 E10.90388
G1 X62.445 Y164.606 E11.48037
G1 X58.018 Y160.181 E11.68855
G1 X57.599 Y159.75 E11.70855
G1 X57.366 Y159.503 E11.71984
G1 X57.005 Y159.108 E11.73764
G1 X56.782 Y158.856 E11.74883
G1 X56.617 Y158.664 E11.75725
G1 X55.856 Y157.669 E11.79891
G1 X55.58 Y157.262 E11.81527
G1 X55.428 Y157.032 E11.82444
G1 X55.166 Y156.624 E11.84057
G1 X54.693 Y155.814 E11.87176
G1 X54.404 Y155.223 E11.89364
G1 X54.18 Y154.729 E11.91169
G1 X54.069 Y154.477 E11.92084
G1 X53.897 Y154.071 E11.93551
G1 X53.569 Y153.193 E11.96668
G1 X53.386 Y152.57 E11.98828
G1 X53.257 Y152.078 E12.0052
G1 X53.177 Y151.753 E12.01633
G1 X53.065 Y151.266 E12.03295
G1 X52.892 Y150.329 E12.06464
G1 X52.822 Y149.727 E12.0848
G1 X52.783 Y149.279 E12.09976
G1 X52.757 Y148.891 E12.11269
G1 X52.731 Y148.386 E12.12951
G1 X52.731 Y147.242 E12.16756
G1 X52.763 Y146.765 E12.18346
G1 X52.792 Y146.434 E12.19451
G1 X52.821 Y146.143 E12.20424
G1 X52.878 Y145.645 E12.22091
G1 X53.1 Y144.376 E12.26376
G1 X53.245 Y143.76 E12.2848
G1 X53.347 Y143.353 E12.29876
G1 X53.422 Y143.075 E12.30834
G1 X53.72 Y142.027 E12.34457
G1 X54.398 Y139.523 E12.43086
G1 X54.992 Y137.058 E12.51519
G1 X55.501 Y134.633 E12.5976
G1 X55.95 Y132.156 E12.68133
G1 X56.336 Y129.617 E12.76675
G1 X56.637 Y127.174 E12.84862
G1 X56.878 Y124.641 E12.93325
G1 X57.044 Y122.128 E13.01701
G1 X57.14 Y119.607 E13.10092
G1 X57.163 Y117.117 E13.18374
G1 X57.116 Y114.595 E13.26764
G1 X56.997 Y112.063 E13.35195
G1 X56.809 Y109.566 E13.43523
G1 X56.548 Y107.054 E13.51923
G1 X56.216 Y104.55 E13.60324
G1 X55.817 Y102.08 E13.68646
G1 X55.349 Y99.627 E13.76952
G1 X54.808 Y97.169 E13.85323
G1 X54.052 Y94.177 E13.95587
G1 X53.728 Y93.025 E13.99567
G1 X53.321 Y91.559 E14.04628
G1 X53.201 Y91.088 E14.06244
G1 X53.097 Y90.637 E14.07784
G1 X52.931 Y89.748 E14.10792
G1 X52.878 Y89.35 E14.12127
G1 X52.829 Y88.918 E14.13573
G1 X52.799 Y88.619 E14.14573
G1 X52.756 Y88.118 E14.16245
G1 X52.716 Y87.181 E14.19364
G1 X52.733 Y86.568 E14.21404
G1 X52.761 Y86.063 E14.23086
G1 X52.782 Y85.76 E14.24096
G1 X52.821 Y85.291 E14.25662
G1 X52.938 Y84.361 E14.28779
G1 X53.068 Y83.716 E14.30968
G1 X53.198 Y83.156 E14.3288
G1 X53.267 Y82.876 E14.33839
G1 X53.365 Y82.499 E14.35135
G1 X53.639 Y81.602 E14.38254
G1 X53.882 Y80.975 E14.40491
G1 X54.162 Y80.314 E14.42878
G1 X54.369 Y79.849 E14.44571
G1 X54.789 Y79.011 E14.47689
G1 X55.122 Y78.451 E14.49856
G1 X55.467 Y77.909 E14.51993
G1 X55.666 Y77.608 E14.53193
G1 X55.88 Y77.295 E14.54454
G1 X56.631 Y76.319 E14.5855
G1 X56.863 Y76.05 E14.59731
G1 X57.045 Y75.845 E14.60643
G1 X57.23 Y75.641 E14.61559
G1 X57.495 Y75.358 E14.62849
G1 X58.183 Y74.653 E14.66125
G1 X65.827 Y67.011 E15.02075
G0 F6000 X66.11 Y67.294
G1 F1200 X75.081 Y58.322 E15.44275
G1 X75.602 Y57.817 E15.46688
G1 X75.799 Y57.631 E15.47589
G1 X76.09 Y57.363 E15.48905
G1 X76.361 Y57.122 E15.50111
G1 X76.582 Y56.932 E15.5108
G1 X77.503 Y56.224 E15.54944
G1 X77.944 Y55.922 E15.56722
G1 X78.222 Y55.738 E15.57831
G1 X78.591 Y55.502 E15.59288
G1 X79.387 Y55.04 E15.62349
G1 X79.923 Y54.779 E15.64332
G1 X80.516 Y54.51 E15.66497
G1 X80.761 Y54.402 E15.67388
G1 X81.075 Y54.269 E15.68522
G1 X81.937 Y53.948 E15.71581
G1 X82.506 Y53.78 E15.73555
G1 X83.071 Y53.631 E15.75498
G1 X83.396 Y53.551 E15.76611
G1 X83.8 Y53.458 E15.7799
G1 X84.705 Y53.291 E15.81051
G1 X85.264 Y53.227 E15.82922
G1 X85.807 Y53.18 E15.84735
G1 X86.138 Y53.157 E15.85839
G1 X86.592 Y53.132 E15.87351
G1 X87.513 Y53.121 E15.90415
G1 X88.098 Y53.156 E15.92364
G1 X88.613 Y53.201 E15.94083
G1 X88.894 Y53.23 E15.95023
G1 X89.349 Y53.282 E15.96546
G1 X90.545 Y53.488 E16.00582
G1 X90.958 Y53.584 E16.01993
G1 X91.248 Y53.656 E16.02986
G1 X92.288 Y53.93 E16.06564
G1 X93.303 Y54.21 E16.10066
G1 X95.3 Y54.749 E16.16945
G1 X97.83 Y55.361 E16.25603
G1 X100.242 Y55.87 E16.33802
G1 X102.741 Y56.325 E16.4225
G1 X105.229 Y56.707 E16.50622
G1 X107.747 Y57.02 E16.59062
G1 X110.269 Y57.261 E16.67488
G1 X112.788 Y57.431 E16.75885
G1 X115.33 Y57.53 E16.84346
G1 X117.841 Y57.556 E16.92699
G1 X120.359 Y57.512 E17.01075
G1 X122.892 Y57.396 E17.09508
G1 X125.431 Y57.207 E17.17976
G1 X127.943 Y56.948 E17.26376
G1 X130.429 Y56.621 E17.34715
G1 X132.921 Y56.221 E17.4311
G1 X135.455 Y55.741 E17.51688
G1 X137.86 Y55.214 E17.59877
G1 X140.338 Y54.598 E17.68369
G1 X141.78 Y54.198 E17.73347
G1 X143.993 Y53.6 E17.80971
G1 X144.398 Y53.499 E17.82359
G1 X145.615 Y53.286 E17.86469
G1 X146.163 Y53.223 E17.88303
G1 X146.478 Y53.192 E17.89356
G1 X146.926 Y53.154 E17.90852
G1 X147.846 Y53.116 E17.93914
G1 X148.384 Y53.131 E17.95704
G1 X148.855 Y53.156 E17.97273
G1 X149.186 Y53.179 E17.98376
G1 X149.683 Y53.221 E18.00035
G1 X150.596 Y53.338 E18.03097
G1 X151.185 Y53.457 E18.05095
G1 X151.78 Y53.595 E18.07127
G1 X152.093 Y53.673 E18.082
G1 X152.479 Y53.775 E18.09528
G1 X153.358 Y54.048 E18.12589
G1 X153.877 Y54.25 E18.14441
G1 X154.334 Y54.442 E18.1609
G1 X154.599 Y54.558 E18.17052
G1 X155.032 Y54.754 E18.18633
G1 X155.854 Y55.17 E18.21697
G1 X156.374 Y55.483 E18.23716
G1 X156.835 Y55.778 E18.25536
G1 X157.109 Y55.959 E18.26629
G1 X157.483 Y56.215 E18.28136
G1 X158.419 Y56.935 E18.32064
G1 X158.688 Y57.167 E18.33245
G1 X158.893 Y57.349 E18.34157
G1 X159.09 Y57.528 E18.35042
G1 X159.345 Y57.767 E18.36205
G1 X160.039 Y58.442 E18.39425
G1 X176.608 Y75.009 E19.17355
G1 X177.106 Y75.521 E19.19731
G1 X177.307 Y75.734 E19.20705
G1 X177.696 Y76.158 E19.22619
G1 X177.939 Y76.433 E19.23839
G1 X178.093 Y76.613 E19.24627
G1 X178.807 Y77.548 E19.2854
G1 X179.076 Y77.944 E19.30132
G1 X179.222 Y78.164 E19.31011
G1 X179.491 Y78.582 E19.32664
G1 X179.955 Y79.377 E19.35726
G1 X180.226 Y79.929 E19.37771
G1 X180.448 Y80.417 E19.39554
G1 X180.573 Y80.703 E19.40592
G1 X180.751 Y81.127 E19.42122
G1 X181.07 Y81.99 E19.45182
G1 X181.233 Y82.55 E19.47122
G1 X181.354 Y83.013 E19.48713
G1 X181.421 Y83.285 E19.49645
G1 X181.536 Y83.778 E19.51329
G1 X181.701 Y84.651 E19.54284
G1 X181.779 Y85.308 E19.56484
G1 X181.818 Y85.756 E19.5798
G1 X181.844 Y86.13 E19.59227
G1 X181.87 Y86.635 E19.60909
G1 X181.869 Y87.737 E19.64574
G1 X181.838 Y88.202 E19.66124
G1 X181.81 Y88.521 E19.67189
G1 X181.783 Y88.792 E19.68095
G1 X181.725 Y89.302 E19.69802
G1 X181.512 Y90.528 E19.73941
G1 X181.403 Y90.992 E19.75526
G1 X181.347 Y91.22 E19.76307
G1 X181.029 Y92.444 E19.80513
G1 X180.803 Y93.258 E19.83323
G1 X180.785 Y93.345 E19.83619
G1 X180.287 Y95.163 E19.89888
G1 X179.682 Y97.642 E19.98375
G1 X179.164 Y100.077 E20.06655
G1 X178.705 Y102.563 E20.15063
G1 X178.315 Y105.08 E20.23535
G1 X178.001 Y107.565 E20.31866
G1 X177.754 Y110.098 E20.40331
G1 X177.578 Y112.636 E20.48792
G1 X177.476 Y115.143 E20.57137
G1 X177.444 Y117.658 E20.65503
G1 X177.485 Y120.209 E20.73989
G1 X177.596 Y122.737 E20.82405
G1 X177.779 Y125.26 E20.90819
G1 X178.032 Y127.767 E20.99199
G1 X178.355 Y130.263 E21.0757
G1 X178.751 Y132.758 E21.15973
G1 X179.219 Y135.255 E21.24422
G1 X179.751 Y137.704 E21.32758
G1 X180.36 Y140.177 E21.41229
G1 X180.871 Y142.018 E21.47583
G1 X181.299 Y143.569 E21.52935
G1 X181.409 Y144.004 E21.54427
G1 X181.512 Y144.45 E21.55949
G1 X181.68 Y145.357 E21.59017
G1 X181.724 Y145.69 E21.60135
G1 X181.771 Y146.097 E21.61497
G1 X181.8 Y146.384 E21.62457
G1 X181.843 Y146.873 E21.64089
G1 X181.884 Y147.793 E21.67152
G1 X181.868 Y148.393 E21.69149
G1 X181.836 Y148.966 E21.71058
G1 X181.815 Y149.263 E21.72048
G1 X181.779 Y149.691 E21.73476
G1 X181.662 Y150.605 E21.76541
