; generated by PrusaSlicer 2.4.1+win64 on 2022-08-03 at 13:04:37 UTC

; 

; external perimeters extrusion width = 0.45mm
; perimeters extrusion width = 0.45mm
; infill extrusion width = 0.50mm
; solid infill extrusion width = 0.45mm
; top infill extrusion width = 0.55mm
; first layer extrusion width = 0.42mm

M73 P0 R132
M73 Q0 S132
M201 X1000 Y1000 Z80 E10000 ; sets maximum accelerations, mm/sec^2
M203 X300 Y300 Z12 E120 ; sets maximum feedrates, mm / sec
M204 P1250 R1250 T1250 ; sets acceleration (P, T) and retract acceleration (R), mm/sec^2
M205 X8.00 Y8.00 Z0.20 E1.50 ; sets the jerk limits, mm/sec
M205 S0 T0 ; sets the minimum extruding and travel feed rate, mm/sec
M107
;TYPE:Custom
G28

M104 S150 ; set extruder temp
M140 S50 ; set bed temp
M190 S50 ; wait for bed temp
M109 S150 ; wait for extruder temp

G29

M104 S235 ; set extruder temp
M140 S84 ; set bed temp
M190 S84 ; wait for bed temp
M109 S235 ; wait for extruder temp

G1 X-3.0 Y5.0 Z0.3 F1000.0
G92 E0.0
G1 Y30.0 E9.0
G1 Y100.0 E 12.5 F500.0
G92 E0.0
G21 ; set units to millimeters
G90 ; use absolute coordinates
M82 ; use absolute distances for extrusion
G92 E0
M107
;LAYER_CHANGE
;Z:0.2
;HEIGHT:0.2
G1 E-2 F2400
G92 E0
G1 Z.2 F7200
G1 Z.4
G1 X27.265 Y25.926
G1 Z.2
G1 E2 F2400
;TYPE:Skirt/Brim
;WIDTH:0.42
G1 X27.344 Y25.842 E2.0036
G1 X29 Y25.369 E2.0576
G1 X171 Y25.369 E6.50991
G1 X172.52 Y25.762 E6.55914
G1 X173.658 Y26.844 E6.60836
G1 X174.131 Y28.5 E6.66236
G1 X174.131 Y171.5 E11.14603
G1 X173.738 Y173.02 E11.19525
G1 X172.656 Y174.158 E11.24448
G1 X171 Y174.631 E11.29848
G1 X29 Y174.631 E15.75079
G1 X27.48 Y174.238 E15.80001
G1 X26.342 Y173.156 E15.84924
G1 X25.869 Y171.5 E15.90324
G1 X25.869 Y28.5 E20.3869
G1 X26.262 Y26.98 E20.43613
G1 X27.224 Y25.969 E20.47987
G1 X27.502 Y26.262 F7200
G1 F2400
G1 X27.705 Y26.069 E20.48864
G1 X29 Y25.746 E20.5305
G1 X171 Y25.746 E24.98281
G1 X172.417 Y26.139 E25.02893
M73 Q0 S131
G1 X173.431 Y27.205 E25.07504
G1 X173.754 Y28.5 E25.1169
G1 X173.754 Y171.5 E29.60057
G1 X173.361 Y172.917 E29.64668
G1 X172.295 Y173.931 E29.6928
G1 X171 Y174.254 E29.73466
G1 X29 Y174.254 E34.18697
G1 X27.583 Y173.861 E34.23308
M73 P0 R131
G1 X26.569 Y172.795 E34.2792
G1 X26.246 Y171.5 E34.32106
G1 X26.246 Y28.5 E38.80472
G1 X26.639 Y27.083 E38.85084
G1 X27.459 Y26.303 E38.88631
G1 X27.713 Y26.607 F7200
G1 F2400
G1 X28.06 Y26.317 E38.9005
G1 X29 Y26.123 E38.93059
G1 X171 Y26.123 E43.3829
G1 X172.307 Y26.515 E43.42568
G1 X173.183 Y27.56 E43.46846
G1 X173.377 Y28.5 E43.49854
G1 X173.377 Y171.5 E47.98221
G1 X172.985 Y172.807 E48.02499
G1 X171.94 Y173.683 E48.06777
G1 X171 Y173.877 E48.09785
G1 X29 Y173.877 E52.55016
G1 X27.693 Y173.485 E52.59294
G1 X26.817 Y172.44 E52.63572
G1 X26.623 Y171.5 E52.66581
G1 X26.623 Y28.5 E57.14947
G1 X27.015 Y27.193 E57.19225
G1 X27.667 Y26.646 E57.21896
;WIPE_START
G1 F5760
G1 X28.06 Y26.317 E57.01603
G1 X29 Y26.123 E56.63623
G1 X32.328 Y26.123 E55.31896
;WIPE_END
G1 E55.21896 F2400
G92 E0
G1 Z.4 F7200
G1 X100 Y170.713
G1 Z.2
G1 E2 F2400
;TYPE:Perimeter
G1 X29.787 Y170.713 E4.20148
G1 X29.787 Y29.287 E8.63578
G1 X170.213 Y29.287 E13.03874
G1 X170.213 Y170.713 E17.47305
G1 X100.06 Y170.713 E19.67264
G1 X100 Y171.09 F7200
;TYPE:External perimeter
G1 F2400
G1 X29.41 Y171.09 E21.88594
G1 X29.41 Y28.91 E26.3439
G1 X170.59 Y28.91 E30.7705
G1 X170.59 Y171.09 E35.22845
M73 P1 R131
M73 Q1 S131
G1 X100.06 Y171.09 E37.43987
G1 X99.688 Y170.839 F7200
;WIPE_START
G1 F5760
G1 X95.26 Y171.09 E35.53987
;WIPE_END
G1 E35.43987 F2400
G92 E0
G1 Z.4 F7200
G1 X169.336 Y29.4
G1 Z.2
G1 E2 F2400
;TYPE:Solid infill
;WIDTH:0.420591
G1 X169.93 Y29.994 E2.02637
G1 X169.93 Y30.528 E2.04315
G1 X168.972 Y29.57 E2.0857
G1 X168.438 Y29.57 E2.10248
G1 X169.93 Y31.062 E2.16875
G1 X169.93 Y31.596 E2.18553
G1 X167.904 Y29.57 E2.27553
G1 X167.37 Y29.57 E2.2923
G1 X169.93 Y32.13 E2.40602
G1 X169.93 Y32.665 E2.42279
G1 X166.835 Y29.57 E2.56023
G1 X166.301 Y29.57 E2.577
G1 X169.93 Y33.199 E2.73816
G1 X169.93 Y33.733 E2.75493
G1 X165.767 Y29.57 E2.93981
G1 X165.233 Y29.57 E2.95659
G1 X169.93 Y34.267 E3.16519
G1 X169.93 Y34.801 E3.18196
M73 Q1 S130
G1 X164.699 Y29.57 E3.41428
G1 X164.165 Y29.57 E3.43105
G1 X169.93 Y35.335 E3.68709
G1 X169.93 Y35.869 E3.70387
G1 X163.631 Y29.57 E3.98363
G1 X163.097 Y29.57 E4.0004
G1 X169.93 Y36.403 E4.30388
G1 X169.93 Y36.937 E4.32065
G1 X162.563 Y29.57 E4.64786
G1 X162.028 Y29.57 E4.66463
G1 X169.93 Y37.472 E5.01555
G1 X169.93 Y38.006 E5.03232
G1 X161.494 Y29.57 E5.40697
G1 X160.96 Y29.57 E5.42374
G1 X169.93 Y38.54 E5.8221
G1 X169.93 Y39.074 E5.83888
G1 X160.426 Y29.57 E6.26096
G1 X159.892 Y29.57 E6.27773
G1 X169.93 Y39.608 E6.72353
G1 X169.93 Y40.142 E6.74031
G1 X159.358 Y29.57 E7.20983
G1 X158.824 Y29.57 E7.2266
G1 X169.93 Y40.676 E7.71985
G1 X169.93 Y41.21 E7.73662
G1 X158.29 Y29.57 E8.25359
G1 X157.756 Y29.57 E8.27036
G1 X169.93 Y41.744 E8.81104
G1 X169.93 Y42.279 E8.82782
G1 X157.222 Y29.57 E9.39222
G1 X156.687 Y29.57 E9.409
M73 P1 R130
G1 X169.93 Y42.813 E9.99712
G1 X169.93 Y43.347 E10.01389
G1 X156.153 Y29.57 E10.62574
G1 X155.619 Y29.57 E10.64251
G1 X169.93 Y43.881 E11.27808
G1 X169.93 Y44.415 E11.29485
G1 X155.085 Y29.57 E11.95414
G1 X154.551 Y29.57 E11.97091
G1 X169.93 Y44.949 E12.65392
G1 X169.93 Y45.483 E12.67069
G1 X154.017 Y29.57 E13.37742
G1 X153.483 Y29.57 E13.39419
G1 X169.93 Y46.017 E14.12464
G1 X169.93 Y46.551 E14.14141
G1 X152.949 Y29.57 E14.89558
G1 X152.415 Y29.57 E14.91236
G1 X169.93 Y47.085 E15.69024
G1 X169.93 Y47.62 E15.70702
G1 X151.88 Y29.57 E16.50863
G1 X151.346 Y29.57 E16.5254
G1 X169.93 Y48.154 E17.35073
G1 X169.93 Y48.688 E17.3675
G1 X150.812 Y29.57 E18.21655
G1 X150.278 Y29.57 E18.23332
G1 X169.93 Y49.222 E19.10609
G1 X169.93 Y49.756 E19.12287
G1 X149.744 Y29.57 E20.01936
G1 X149.21 Y29.57 E20.03613
G1 X169.93 Y50.29 E20.95634
G1 X169.93 Y50.824 E20.97311
G1 X148.676 Y29.57 E21.91705
G1 X148.142 Y29.57 E21.93382
G1 X169.93 Y51.358 E22.90147
G1 X169.93 Y51.892 E22.91824
G1 X147.608 Y29.57 E23.90961
G1 X147.073 Y29.57 E23.92639
G1 X169.93 Y52.427 E24.94148
G1 X169.93 Y52.961 E24.95825
G1 X146.539 Y29.57 E25.99706
G1 X146.005 Y29.57 E26.01384
G1 X169.93 Y53.495 E27.07637
G1 X169.93 Y54.029 E27.09314
G1 X145.471 Y29.57 E28.1794
G1 X144.937 Y29.57 E28.19617
G1 X169.93 Y54.563 E29.30614
G1 X169.93 Y55.097 E29.32292
G1 X144.403 Y29.57 E30.45661
G1 X143.869 Y29.57 E30.47338
G1 X169.93 Y55.631 E31.6308
G1 X169.93 Y56.165 E31.64757
G1 X143.335 Y29.57 E32.82871
G1 X142.801 Y29.57 E32.84548
G1 X169.93 Y56.699 E34.05033
G1 X169.93 Y57.234 E34.06711
G1 X142.266 Y29.57 E35.29568
G1 X141.732 Y29.57 E35.31246
G1 X169.93 Y57.768 E36.56475
G1 X169.93 Y58.302 E36.58152
G1 X141.198 Y29.57 E37.85754
G1 X140.664 Y29.57 E37.87431
G1 X169.93 Y58.836 E39.17405
G1 X169.93 Y59.37 E39.19082
G1 X140.13 Y29.57 E40.51428
G1 X139.596 Y29.57 E40.53105
G1 X169.93 Y59.904 E41.87823
G1 X169.93 Y60.438 E41.895
G1 X139.062 Y29.57 E43.2659
G1 X138.528 Y29.57 E43.28267
G1 X169.93 Y60.972 E44.67729
G1 X169.93 Y61.506 E44.69406
G1 X137.994 Y29.57 E46.1124
G1 X137.46 Y29.57 E46.12918
G1 X169.93 Y62.04 E47.57123
G1 X169.93 Y62.575 E47.58801
G1 X136.925 Y29.57 E49.05379
G1 X136.391 Y29.57 E49.07056
G1 X169.93 Y63.109 E50.56006
G1 X169.93 Y63.643 E50.57683
G1 X135.857 Y29.57 E52.09005
G1 X135.323 Y29.57 E52.10682
G1 X169.93 Y64.177 E53.64376
G1 X169.93 Y64.711 E53.66054
G1 X134.789 Y29.57 E55.2212
G1 X134.255 Y29.57 E55.23797
G1 X169.93 Y65.245 E56.82235
G1 X169.93 Y65.779 E56.83913
G1 X133.721 Y29.57 E58.44723
G1 X133.187 Y29.57 E58.464
G1 X169.93 Y66.313 E60.09582
G1 X169.93 Y66.847 E60.11259
G1 X132.653 Y29.57 E61.76814
G1 X132.118 Y29.57 E61.78491
G1 X169.93 Y67.382 E63.46417
G1 X169.93 Y67.916 E63.48094
G1 X131.584 Y29.57 E65.18393
G1 X131.05 Y29.57 E65.2007
G1 X169.93 Y68.45 E66.9274
G1 X169.93 Y68.984 E66.94418
G1 X130.516 Y29.57 E68.6946
G1 X129.982 Y29.57 E68.71137
G1 X169.93 Y69.518 E70.48552
G1 X169.93 Y70.052 E70.50229
G1 X129.448 Y29.57 E72.30015
G1 X128.914 Y29.57 E72.31693
G1 X169.93 Y70.586 E74.13851
G1 X169.93 Y71.12 E74.15528
G1 X128.38 Y29.57 E76.00059
G1 X127.846 Y29.57 E76.01736
M73 Q1 S129
G1 X169.93 Y71.654 E77.88639
G1 X169.93 Y72.189 E77.90316
G1 X127.311 Y29.57 E79.79591
G1 X126.777 Y29.57 E79.81268
G1 X169.93 Y72.723 E81.72914
G1 X169.93 Y73.257 E81.74592
G1 X126.243 Y29.57 E83.6861
G1 X125.709 Y29.57 E83.70288
M73 P1 R129
G1 X169.93 Y73.791 E85.66678
G1 X169.93 Y74.325 E85.68356
G1 X125.175 Y29.57 E87.67118
G1 X124.641 Y29.57 E87.68796
M73 P2 R129
M73 Q2 S129
G1 X169.93 Y74.859 E89.6993
G1 X169.93 Y75.393 E89.71608
G1 X124.107 Y29.57 E91.75114
G1 X123.573 Y29.57 E91.76792
G1 X169.93 Y75.927 E93.82671
G1 X169.93 Y76.461 E93.84348
G1 X123.039 Y29.57 E95.92599
G1 X122.505 Y29.57 E95.94276
G1 X169.93 Y76.995 E98.04899
G1 X169.93 Y77.53 E98.06576
G1 X121.97 Y29.57 E100.19571
G1 X121.436 Y29.57 E100.21248
G1 X169.93 Y78.064 E102.36615
G1 X169.93 Y78.598 E102.38293
G1 X120.902 Y29.57 E104.56032
G1 X120.368 Y29.57 E104.57709
G1 X169.93 Y79.132 E106.7782
G1 X169.93 Y79.666 E106.79497
G1 X119.834 Y29.57 E109.0198
G1 X119.3 Y29.57 E109.03658
G1 X169.93 Y80.2 E111.28513
G1 X169.93 Y80.734 E111.3019
G1 X118.766 Y29.57 E113.57417
G1 X118.232 Y29.57 E113.59094
G1 X169.93 Y81.268 E115.88694
G1 X169.93 Y81.802 E115.90371
G1 X117.698 Y29.57 E118.22342
G1 X117.163 Y29.57 E118.24019
G1 X169.93 Y82.337 E120.58363
G1 X169.93 Y82.871 E120.6004
G1 X116.629 Y29.57 E122.96755
G1 X116.095 Y29.57 E122.98433
G1 X169.93 Y83.405 E125.3752
G1 X169.93 Y83.939 E125.39197
G1 X115.561 Y29.57 E127.80657
G1 X115.027 Y29.57 E127.82334
G1 X169.93 Y84.473 E130.26165
G1 X169.93 Y85.007 E130.27843
G1 X114.493 Y29.57 E132.74046
G1 X113.959 Y29.57 E132.75723
G1 X169.93 Y85.541 E135.24299
G1 X169.93 Y86.075 E135.25976
G1 X113.425 Y29.57 E137.76924
G1 X112.891 Y29.57 E137.78601
G1 X169.93 Y86.609 E140.3192
G1 X169.93 Y87.144 E140.33598
G1 X112.356 Y29.57 E142.89289
G1 X111.822 Y29.57 E142.90967
G1 X169.93 Y87.678 E145.4903
G1 X169.93 Y88.212 E145.50707
G1 X111.288 Y29.57 E148.11143
G1 X110.754 Y29.57 E148.1282
G1 X169.93 Y88.746 E150.75628
G1 X169.93 Y89.28 E150.77305
M73 Q2 S128
G1 X110.22 Y29.57 E153.42485
G1 X109.686 Y29.57 E153.44162
G1 X169.93 Y89.814 E156.11714
G1 X169.93 Y90.348 E156.13391
M73 P2 R128
G1 X109.152 Y29.57 E158.83315
G1 X108.618 Y29.57 E158.84992
G1 X169.93 Y90.882 E161.57288
G1 X169.93 Y91.416 E161.58966
G1 X108.084 Y29.57 E164.33633
G1 X107.55 Y29.57 E164.35311
G1 X169.93 Y91.95 E167.12351
G1 X169.93 Y92.485 E167.14028
G1 X107.015 Y29.57 E169.9344
G1 X106.481 Y29.57 E169.95117
G1 X169.93 Y93.019 E172.76901
G1 X169.93 Y93.553 E172.78578
G1 X105.947 Y29.57 E175.62734
G1 X105.413 Y29.57 E175.64412
G1 X169.93 Y94.087 E178.5094
G1 X169.93 Y94.621 E178.52617
G1 X104.879 Y29.57 E181.41517
G1 X104.345 Y29.57 E181.43194
G1 X169.93 Y95.155 E184.34467
G1 X169.93 Y95.689 E184.36144
G1 X103.811 Y29.57 E187.29788
G1 X103.277 Y29.57 E187.31465
M73 P3 R128
M73 Q3 S128
G1 X169.93 Y96.223 E190.27482
G1 X169.93 Y96.757 E190.29159
G1 X102.743 Y29.57 E193.27547
G1 X102.208 Y29.57 E193.29224
G1 X169.93 Y97.292 E196.29985
G1 X169.93 Y97.826 E196.31662
G1 X101.674 Y29.57 E199.34794
G1 X101.14 Y29.57 E199.36471
G1 X169.93 Y98.36 E202.41976
G1 X169.93 Y98.894 E202.43653
G1 X100.606 Y29.57 E205.5153
G1 X100.072 Y29.57 E205.53207
G1 X169.93 Y99.428 E208.63455
G1 X169.93 Y99.962 E208.65132
G1 X99.538 Y29.57 E211.77753
G1 X99.004 Y29.57 E211.7943
G1 X169.93 Y100.496 E214.94423
G1 X169.93 Y101.03 E214.961
G1 X98.47 Y29.57 E218.13465
G1 X97.936 Y29.57 E218.15142
G1 X169.93 Y101.564 E221.34878
G1 X169.93 Y102.099 E221.36556
G1 X97.401 Y29.57 E224.58664
G1 X96.867 Y29.57 E224.60342
M73 Q3 S127
G1 X169.93 Y102.633 E227.84822
G1 X169.93 Y103.167 E227.86499
G1 X96.333 Y29.57 E231.13352
G1 X95.799 Y29.57 E231.15029
M73 P3 R127
G1 X169.93 Y103.701 E234.44254
G1 X169.93 Y104.235 E234.45931
G1 X95.265 Y29.57 E237.77528
G1 X94.731 Y29.57 E237.79205
G1 X169.93 Y104.769 E241.13174
G1 X169.93 Y105.303 E241.14851
G1 X94.197 Y29.57 E244.51192
G1 X93.663 Y29.57 E244.5287
G1 X169.93 Y105.837 E247.91582
G1 X169.93 Y106.371 E247.9326
G1 X93.129 Y29.57 E251.34345
G1 X92.594 Y29.57 E251.36022
G1 X169.93 Y106.906 E254.79479
G1 X169.93 Y107.44 E254.81156
G1 X92.06 Y29.57 E258.26985
G1 X91.526 Y29.57 E258.28662
G1 X169.93 Y107.974 E261.76863
G1 X169.93 Y108.508 E261.78541
G1 X90.992 Y29.57 E265.29114
G1 X90.458 Y29.57 E265.30791
G1 X169.93 Y109.042 E268.83736
G1 X169.93 Y109.576 E268.85413
G1 X89.924 Y29.57 E272.4073
G1 X89.39 Y29.57 E272.42408
G1 X169.93 Y110.11 E276.00097
G1 X169.93 Y110.644 E276.01774
G1 X88.856 Y29.57 E279.61835
G1 X88.322 Y29.57 E279.63513
G1 X169.93 Y111.178 E283.25946
G1 X169.93 Y111.712 E283.27623
G1 X87.788 Y29.57 E286.92428
G1 X87.253 Y29.57 E286.94106
M73 P4 R127
M73 Q4 S127
G1 X169.93 Y112.247 E290.61283
G1 X169.93 Y112.781 E290.6296
G1 X86.719 Y29.57 E294.32509
G1 X86.185 Y29.57 E294.34187
G1 X169.93 Y113.315 E298.06108
G1 X169.93 Y113.849 E298.07785
M73 Q4 S126
G1 X85.651 Y29.57 E301.82079
G1 X85.117 Y29.57 E301.83756
G1 X169.93 Y114.383 E305.60421
G1 X169.93 Y114.917 E305.62099
M73 P4 R126
G1 X84.583 Y29.57 E309.41136
G1 X84.049 Y29.57 E309.42813
G1 X169.93 Y115.451 E313.24223
G1 X169.93 Y115.985 E313.259
G1 X83.515 Y29.57 E317.09682
G1 X82.981 Y29.57 E317.11359
G1 X169.93 Y116.519 E320.97513
G1 X169.93 Y117.054 E320.9919
G1 X82.446 Y29.57 E324.87716
G1 X81.912 Y29.57 E324.89393
G1 X169.93 Y117.588 E328.8029
G1 X169.93 Y118.122 E328.81968
G1 X81.378 Y29.57 E332.75237
G1 X80.844 Y29.57 E332.76915
G1 X169.93 Y118.656 E336.72556
G1 X169.93 Y119.19 E336.74234
G1 X80.31 Y29.57 E340.72247
G1 X79.776 Y29.57 E340.73925
G1 X169.93 Y119.724 E344.74311
G1 X169.93 Y120.258 E344.75988
G1 X79.242 Y29.57 E348.78746
G1 X78.708 Y29.57 E348.80423
G1 X169.93 Y120.792 E352.85553
G1 X169.93 Y121.326 E352.8723
G1 X78.174 Y29.57 E356.94732
G1 X77.639 Y29.57 E356.96409
G1 X169.93 Y121.861 E361.06283
G1 X169.93 Y122.395 E361.0796
G1 X77.105 Y29.57 E365.20206
G1 X76.571 Y29.57 E365.21884
G1 X169.93 Y122.929 E369.36502
G1 X169.93 Y123.463 E369.38179
G1 X76.037 Y29.57 E373.55169
G1 X75.503 Y29.57 E373.56846
M73 Q4 S125
G1 X169.93 Y123.997 E377.76208
G1 X169.93 Y124.531 E377.77886
G1 X74.969 Y29.57 E381.9962
G1 X74.435 Y29.57 E382.01297
M73 P4 R125
G1 X169.93 Y125.065 E386.25403
G1 X169.93 Y125.599 E386.27081
M73 P5 R125
M73 Q5 S125
G1 X73.901 Y29.57 E390.53559
G1 X73.367 Y29.57 E390.55236
G1 X169.93 Y126.133 E394.84086
G1 X169.93 Y126.667 E394.85764
G1 X72.833 Y29.57 E399.16986
G1 X72.298 Y29.57 E399.18663
G1 X169.93 Y127.202 E403.52257
G1 X169.93 Y127.736 E403.53935
G1 X71.764 Y29.57 E407.89901
G1 X71.23 Y29.57 E407.91578
G1 X169.93 Y128.27 E412.29917
G1 X169.93 Y128.804 E412.31594
G1 X70.696 Y29.57 E416.72304
G1 X70.162 Y29.57 E416.73982
G1 X169.93 Y129.338 E421.17064
G1 X169.93 Y129.872 E421.18741
G1 X69.628 Y29.57 E425.64196
G1 X69.094 Y29.57 E425.65873
G1 X169.93 Y130.406 E430.137
G1 X169.93 Y130.94 E430.15377
G1 X68.56 Y29.57 E434.65575
G1 X68.026 Y29.57 E434.67253
G1 X169.93 Y131.474 E439.19823
G1 X169.93 Y132.009 E439.21501
G1 X67.491 Y29.57 E443.76443
G1 X66.957 Y29.57 E443.7812
G1 X169.93 Y132.543 E448.35435
G1 X169.93 Y133.077 E448.37112
M73 Q5 S124
G1 X66.423 Y29.57 E452.96799
G1 X65.889 Y29.57 E452.98476
G1 X169.93 Y133.611 E457.60535
G1 X169.93 Y134.145 E457.62212
M73 P5 R124
G1 X65.355 Y29.57 E462.26643
G1 X64.821 Y29.57 E462.2832
G1 X169.93 Y134.679 E466.95123
G1 X169.93 Y135.213 E466.968
G1 X64.287 Y29.57 E471.65975
G1 X63.753 Y29.57 E471.67653
G1 X169.93 Y135.747 E476.39199
G1 X169.93 Y136.281 E476.40877
G1 X63.219 Y29.57 E481.14796
G1 X62.684 Y29.57 E481.16473
G1 X169.93 Y136.816 E485.92764
G1 X169.93 Y137.35 E485.94441
M73 P6 R124
M73 Q6 S124
G1 X62.15 Y29.57 E490.73104
G1 X61.616 Y29.57 E490.74781
G1 X169.93 Y137.884 E495.55816
G1 X169.93 Y138.418 E495.57494
G1 X61.082 Y29.57 E500.40901
G1 X60.548 Y29.57 E500.42578
G1 X169.93 Y138.952 E505.28357
G1 X169.93 Y139.486 E505.30034
G1 X60.014 Y29.57 E510.18186
G1 X59.48 Y29.57 E510.19863
G1 X169.93 Y140.02 E515.10386
G1 X169.93 Y140.554 E515.12063
G1 X58.946 Y29.57 E520.04959
