;FLAVOR:Marlin
;TIME:3157
;Filament used: 1.40084m
;Layer height: 0.2
;MINX:98.403
;MINY:102.069
;MINZ:0.2
;MAXX:136.598
;MAXY:135.123
;MAXZ:49.6
;Generated with Cura_SteamEngine 4.13.1
M140 S50
M105
M190 S50
M104 S200
M105
M109 S200
M82 ;absolute extrusion mode
; Ender 3 Custom Start G-code
G92 E0 ; Reset Extruder
G28 ; Home all axes
G1 Z2.0 F3000 ; Move Z Axis up little to prevent scratching of Heat Bed
G1 X0.1 Y20 Z0.3 F5000.0 ; Move to start position
G1 X0.1 Y200.0 Z0.3 F1500.0 E15 ; Draw the first line
G1 X0.4 Y200.0 Z0.3 F5000.0 ; Move to side a little
G1 X0.4 Y20 Z0.3 F1500.0 E30 ; Draw the second line
G92 E0 ; Reset Extruder
G1 Z2.0 F3000 ; Move Z Axis up little to prevent scratching of Heat Bed
G1 X5 Y20 Z0.3 F5000.0 ; Move over to prevent blob squish
G92 E0
G92 E0
G1 F2700 E-5
;LAYER_COUNT:248
;LAYER:0
M107
G0 F6000 X102.015 Y105.701 Z0.2
;TYPE:SKIRT
G1 F2700 E0
G1 F1200 X102.711 Y105.073 E0.03118
G1 X103.459 Y104.506 E0.0624
G1 X104.252 Y104.005 E0.0936
G1 X105.084 Y103.574 E0.12476
G1 X105.951 Y103.215 E0.15597
G1 X106.845 Y102.931 E0.18717
G1 X108.018 Y102.681 E0.22706
G1 X108.21 Y102.651 E0.23352
G1 X110.209 Y102.319 E0.30092
G1 X110.698 Y102.233 E0.31744
G1 X111.367 Y102.137 E0.33992
G1 X112.303 Y102.069 E0.37113
G1 X113.183 Y102.078 E0.4004
G1 X113.639 Y102.101 E0.41558
G1 X116.252 Y102.196 E0.50255
G1 X118.78 Y102.217 E0.58664
G1 X121.786 Y102.15 E0.68664
G1 X122.036 Y102.141 E0.69496
G1 X122.974 Y102.148 E0.72616
G1 X123.872 Y102.23 E0.75615
G1 X124.203 Y102.274 E0.76726
G1 X126.66 Y102.629 E0.84983
G1 X126.974 Y102.678 E0.8604
G1 X127.894 Y102.862 E0.8916
G1 X128.794 Y103.123 E0.92277
G1 X129.669 Y103.461 E0.95397
G1 X130.513 Y103.871 E0.98518
G1 X131.318 Y104.352 E1.01637
G1 X132.079 Y104.9 E1.04756
G1 X132.791 Y105.511 E1.07876
G1 X133.448 Y106.18 E1.10995
G1 X134.045 Y106.903 E1.14113
G1 X134.575 Y107.666 E1.17203
G1 X134.692 Y107.851 E1.17931
G1 X135.159 Y108.665 E1.21053
G1 X135.555 Y109.515 E1.24172
G1 X135.877 Y110.396 E1.27291
G1 X136.123 Y111.301 E1.30411
G1 X136.291 Y112.223 E1.33528
G1 X136.381 Y113.183 E1.36735
G1 X136.509 Y115.729 E1.45213
G1 X136.57 Y116.739 E1.48579
G1 X136.584 Y117.044 E1.49594
G1 X136.593 Y117.319 E1.50509
G1 X136.598 Y117.835 E1.52226
G1 X136.589 Y118.468 E1.54331
G1 X136.536 Y119.405 E1.57453
G1 X136.403 Y120.333 E1.60571
G1 X136.191 Y121.247 E1.63692
G1 X135.903 Y122.139 E1.66809
G1 X135.539 Y123.004 E1.6993
G1 X135.103 Y123.834 E1.73049
G1 X134.613 Y124.604 E1.76084
G1 X133.844 Y125.707 E1.80557
G1 X133.038 Y126.887 E1.85309
G1 X132.816 Y127.203 E1.86594
G1 X132.56 Y127.549 E1.88025
G1 X131.432 Y129.106 E1.9442
G1 X130.725 Y130.064 E1.9838
G1 X130.136 Y130.794 E2.015
G1 X129.566 Y131.396 E2.04257
G1 X129.429 Y131.53 E2.04895
G1 X128.731 Y132.156 E2.08013
G1 X127.982 Y132.721 E2.11134
G1 X127.188 Y133.22 E2.14253
G1 X126.354 Y133.65 E2.17374
G1 X125.487 Y134.007 E2.20492
G1 X124.593 Y134.289 E2.2361
G1 X123.677 Y134.494 E2.26732
G1 X122.489 Y134.64 E2.30713
G1 X121.238 Y134.725 E2.34884
G1 X120.77 Y134.75 E2.36442
G1 X118.666 Y134.92 E2.43463
G1 X117.861 Y134.995 E2.46152
G1 X116.728 Y135.084 E2.49932
G1 X116.239 Y135.112 E2.51561
G1 X116.06 Y135.118 E2.52157
G1 X115.569 Y135.123 E2.5379
G1 X115.119 Y135.118 E2.55287
G1 X114.425 Y135.089 E2.57597
G1 X114.038 Y135.057 E2.58889
G1 X113.785 Y135.032 E2.59734
G1 X112.857 Y134.9 E2.62852
G1 X112.096 Y134.73 E2.65445
G1 X110.88 Y134.342 E2.69691
G1 X110.027 Y134.013 E2.72732
G1 X109.101 Y133.642 E2.76049
G1 X108.246 Y133.256 E2.7917
G1 X107.427 Y132.799 E2.82289
G1 X106.65 Y132.274 E2.85408
G1 X105.92 Y131.685 E2.88528
G1 X105.56 Y131.352 E2.90159
G1 X105.368 Y131.167 E2.91045
G1 X104.721 Y130.488 E2.94165
G1 X104.209 Y129.858 E2.96865
G1 X102.258 Y127.264 E3.07661
G1 X102.092 Y127.038 E3.08593
G1 X101.25 Y125.857 E3.13417
G1 X100.349 Y124.549 E3.187
G1 X99.85 Y123.755 E3.21819
G1 X99.422 Y122.921 E3.24937
G1 X99.065 Y122.053 E3.28059
G1 X98.784 Y121.158 E3.31179
G1 X98.581 Y120.243 E3.34296
G1 X98.456 Y119.313 E3.37417
G1 X98.416 Y118.677 E3.39537
G1 X98.406 Y118.316 E3.40738
G1 X98.403 Y118.102 E3.4145
G1 X98.403 Y117.787 E3.42497
G1 X98.411 Y117.24 E3.44317
G1 X98.428 Y116.777 E3.45858
G1 X98.581 Y114.076 E3.54856
G1 X98.62 Y113.184 E3.57825
G1 X98.701 Y112.25 E3.60943
G1 X98.86 Y111.326 E3.64062
G1 X99.098 Y110.418 E3.67184
G1 X99.412 Y109.535 E3.70301
G1 X99.801 Y108.681 E3.73422
G1 X100.26 Y107.864 E3.76539
G1 X100.788 Y107.088 E3.79661
G1 X101.38 Y106.361 E3.82779
G1 X101.902 Y105.812 E3.85299
G1 X102.015 Y105.701 E3.85826
G0 F6000 X102.295 Y105.986
G1 F1200 X102.979 Y105.37 E3.88887
G1 X103.714 Y104.816 E3.91948
G1 X104.495 Y104.327 E3.95013
G1 X105.314 Y103.908 E3.98073
G1 X106.167 Y103.562 E4.01135
G1 X107.047 Y103.291 E4.04197
G1 X108.08 Y103.076 E4.07706
G1 X108.236 Y103.052 E4.08231
G1 X110.33 Y102.704 E4.15292
G1 X110.767 Y102.627 E4.16768
G1 X111.413 Y102.534 E4.18938
G1 X112.331 Y102.468 E4.21999
G1 X113.163 Y102.478 E4.24767
G1 X113.606 Y102.5 E4.26242
G1 X116.234 Y102.596 E4.34989
G1 X118.786 Y102.617 E4.43477
G1 X121.808 Y102.55 E4.53531
G1 X122.05 Y102.541 E4.54336
G1 X122.971 Y102.548 E4.57399
G1 X123.819 Y102.626 E4.60232
G1 X124.146 Y102.67 E4.61329
G1 X126.598 Y103.024 E4.69569
G1 X126.912 Y103.073 E4.70626
G1 X127.815 Y103.254 E4.73689
G1 X128.698 Y103.513 E4.7675
G1 X129.556 Y103.848 E4.79813
G1 X130.382 Y104.255 E4.82876
G1 X131.168 Y104.733 E4.85936
G1 X131.911 Y105.278 E4.89001
G1 X132.603 Y105.884 E4.9206
G1 X133.241 Y106.549 E4.95125
G1 X133.818 Y107.266 E4.98186
G1 X134.237 Y107.88 E5.00659
G1 X134.354 Y108.065 E5.01387
G1 X134.812 Y108.864 E5.0445
G1 X135.198 Y109.699 E5.07509
G1 X135.511 Y110.565 E5.10572
G1 X135.748 Y111.455 E5.13635
G1 X135.906 Y112.362 E5.16697
G1 X135.982 Y113.203 E5.19506
G1 X136.106 Y115.69 E5.27788
G1 X136.171 Y116.763 E5.31363
G1 X136.184 Y117.057 E5.32342
G1 X136.193 Y117.332 E5.33257
G1 X136.198 Y117.83 E5.34914
G1 X136.189 Y118.463 E5.37019
G1 X136.136 Y119.382 E5.40081
G1 X136.003 Y120.293 E5.43143
G1 X135.792 Y121.189 E5.46205
G1 X135.504 Y122.063 E5.49265
G1 X135.141 Y122.909 E5.52327
G1 X134.706 Y123.721 E5.55391
G1 X134.285 Y124.375 E5.57978
G1 X133.483 Y125.525 E5.62641
G1 X132.707 Y126.662 E5.6722
G1 X132.49 Y126.971 E5.68476
G1 X132.26 Y127.282 E5.69762
G1 X131.11 Y128.868 E5.76278
G1 X130.403 Y129.826 E5.80238
G1 X129.825 Y130.543 E5.83301
G1 X129.286 Y131.11 E5.85903
G1 X129.149 Y131.244 E5.86541
G1 X128.463 Y131.858 E5.89603
G1 X127.727 Y132.411 E5.92665
G1 X126.946 Y132.898 E5.95726
G1 X126.125 Y133.315 E5.98789
G1 X125.271 Y133.659 E6.01851
G1 X124.391 Y133.928 E6.04911
G1 X123.49 Y134.12 E6.07975
G1 X122.461 Y134.241 E6.11421
G1 X121.216 Y134.325 E6.15572
G1 X120.793 Y134.348 E6.16981
G1 X118.514 Y134.532 E6.24585
G1 X117.668 Y134.61 E6.27411
G1 X116.697 Y134.686 E6.30651
G1 X116.225 Y134.712 E6.32223
G1 X116.046 Y134.718 E6.32819
G1 X115.573 Y134.723 E6.34392
G1 X115.123 Y134.718 E6.35889
G1 X114.455 Y134.69 E6.38112
G1 X114.078 Y134.659 E6.3937
G1 X113.825 Y134.634 E6.40216
G1 X112.913 Y134.503 E6.43281
G1 X112.195 Y134.343 E6.45727
G1 X111.024 Y133.969 E6.49816
G1 X110.176 Y133.642 E6.52839
G1 X109.25 Y133.271 E6.56157
G1 X108.411 Y132.891 E6.5922
G1 X107.608 Y132.441 E6.62282
G1 X106.847 Y131.922 E6.65345
G1 X105.837 Y131.064 E6.69753
G1 X105.645 Y130.879 E6.7064
G1 X105.011 Y130.212 E6.73701
G1 X104.529 Y129.617 E6.76247
G1 X102.578 Y127.023 E6.87043
G1 X102.418 Y126.806 E6.8794
G1 X101.475 Y125.481 E6.93349
G1 X100.678 Y124.323 E6.98024
G1 X100.19 Y123.542 E7.01087
G1 X99.771 Y122.723 E7.04147
G1 X99.424 Y121.87 E7.0721
G1 X99.154 Y120.99 E7.10272
G1 X98.96 Y120.09 E7.13334
G1 X98.845 Y119.176 E7.16398
G1 X98.816 Y118.664 E7.18103
G1 X98.806 Y118.311 E7.19278
G1 X98.803 Y118.097 E7.1999
G1 X98.803 Y117.793 E7.21001
G1 X98.811 Y117.246 E7.2282
G1 X98.827 Y116.8 E7.24305
G1 X98.984 Y114.041 E7.33496
G1 X99.02 Y113.202 E7.36289
G1 X99.1 Y112.284 E7.39354
G1 X99.258 Y111.378 E7.42413
G1 X99.495 Y110.488 E7.45476
G1 X99.809 Y109.622 E7.4854
G1 X100.196 Y108.787 E7.51601
G1 X100.654 Y107.988 E7.54664
G1 X101.18 Y107.233 E7.57725
G1 X101.77 Y106.525 E7.6079
G1 X102.182 Y106.097 E7.62766
G1 X102.295 Y105.986 E7.63293
G0 F6000 X102.575 Y106.271
G1 F1200 X103.247 Y105.668 E7.66296
G1 X103.969 Y105.126 E7.69298
G1 X104.737 Y104.65 E7.72304
G1 X105.543 Y104.244 E7.75305
G1 X106.383 Y103.91 E7.78312
G1 X107.248 Y103.653 E7.81313
G1 X108.142 Y103.471 E7.84348
G1 X108.346 Y103.439 E7.85034
G1 X110.364 Y103.104 E7.91838
G1 X110.836 Y103.021 E7.93432
G1 X111.459 Y102.931 E7.95526
G1 X112.36 Y102.868 E7.9853
G1 X113.143 Y102.877 E8.01134
G1 X113.644 Y102.902 E8.02803
G1 X116.215 Y102.996 E8.11359
G1 X118.792 Y103.017 E8.19931
G1 X121.754 Y102.951 E8.29785
G1 X122.064 Y102.94 E8.30817
G1 X122.968 Y102.948 E8.33824
G1 X123.767 Y103.023 E8.36493
G1 X124.089 Y103.066 E8.37573
G1 X126.537 Y103.419 E8.45799
G1 X126.851 Y103.468 E8.46857
G1 X127.736 Y103.647 E8.4986
G1 X128.602 Y103.903 E8.52863
G1 X129.442 Y104.235 E8.55867
G1 X130.249 Y104.639 E8.58869
G1 X131.018 Y105.114 E8.61875
G1 X131.741 Y105.655 E8.64879
G1 X132.414 Y106.257 E8.67882
G1 X133.03 Y106.917 E8.70885
G1 X133.586 Y107.629 E8.73889
G1 X133.899 Y108.094 E8.75754
G1 X134.016 Y108.279 E8.76482
G1 X134.464 Y109.063 E8.79485
G1 X134.841 Y109.883 E8.82487
G1 X135.145 Y110.734 E8.85492
G1 X135.372 Y111.608 E8.88496
G1 X135.52 Y112.499 E8.915
G1 X135.582 Y113.223 E8.93917
G1 X135.712 Y115.813 E9.02542
G1 X135.771 Y116.787 E9.05787
G1 X135.785 Y117.07 E9.0673
G1 X135.794 Y117.345 E9.07645
G1 X135.798 Y117.824 E9.09238
G1 X135.789 Y118.457 E9.11344
G1 X135.736 Y119.359 E9.14349
G1 X135.604 Y120.252 E9.17351
G1 X135.393 Y121.13 E9.20355
G1 X135.105 Y121.986 E9.23359
G1 X134.743 Y122.813 E9.26361
G1 X134.309 Y123.605 E9.29365
G1 X133.956 Y124.147 E9.31516
G1 X133.185 Y125.253 E9.36
G1 X132.377 Y126.436 E9.40765
G1 X132.164 Y126.739 E9.41997
G1 X131.925 Y127.062 E9.43334
G1 X130.788 Y128.631 E9.49778
G1 X130.081 Y129.589 E9.53738
G1 X129.513 Y130.291 E9.56742
G1 X129.006 Y130.824 E9.59188
G1 X128.869 Y130.958 E9.59826
G1 X128.196 Y131.56 E9.62829
G1 X127.473 Y132.101 E9.65833
G1 X126.704 Y132.575 E9.68837
G1 X125.897 Y132.979 E9.71839
G1 X125.057 Y133.311 E9.74843
G1 X124.19 Y133.567 E9.7785
G1 X123.305 Y133.745 E9.80852
G1 X122.434 Y133.842 E9.83767
G1 X121.194 Y133.926 E9.87901
G1 X120.741 Y133.951 E9.8941
G1 X118.525 Y134.129 E9.96804
G1 X117.637 Y134.211 E9.9977
G1 X116.666 Y134.287 E10.03009
G1 X116.212 Y134.312 E10.04522
G1 X116.033 Y134.318 E10.05117
G1 X115.578 Y134.323 E10.06631
G1 X115.128 Y134.318 E10.08128
G1 X114.484 Y134.291 E10.10271
G1 X114.117 Y134.261 E10.11496
G1 X113.864 Y134.236 E10.12342
G1 X112.97 Y134.107 E10.15346
G1 X112.295 Y133.955 E10.17647
G1 X111.167 Y133.595 E10.21585
G1 X110.325 Y133.27 E10.24587
G1 X109.399 Y132.899 E10.27905
G1 X108.576 Y132.527 E10.30909
G1 X107.789 Y132.083 E10.33914
G1 X107.045 Y131.571 E10.36918
G1 X106.115 Y130.776 E10.40988
G1 X105.923 Y130.591 E10.41875
G1 X105.301 Y129.936 E10.44879
G1 X104.848 Y129.377 E10.47272
G1 X102.897 Y126.783 E10.58068
G1 X102.744 Y126.573 E10.58932
G1 X101.805 Y125.254 E10.64317
G1 X101.008 Y124.096 E10.68992
G1 X100.529 Y123.33 E10.71997
G1 X100.12 Y122.525 E10.75
G1 X99.784 Y121.687 E10.78003
G1 X99.523 Y120.822 E10.81008
G1 X99.34 Y119.938 E10.84011
G1 X99.216 Y118.651 E10.88311
G1 X99.206 Y118.305 E10.89463
G1 X99.203 Y118.091 E10.90175
G1 X99.203 Y117.799 E10.91146
G1 X99.211 Y117.252 E10.92965
G1 X99.226 Y116.822 E10.94396
G1 X99.386 Y114.006 E11.03777
G1 X99.42 Y113.219 E11.06397
G1 X99.498 Y112.319 E11.09402
G1 X99.657 Y111.43 E11.12406
G1 X99.893 Y110.558 E11.1541
G1 X100.205 Y109.711 E11.18413
G1 X100.591 Y108.895 E11.21415
G1 X101.048 Y108.115 E11.24422
G1 X101.572 Y107.38 E11.27424
G1 X102.462 Y106.382 E11.31872
G1 X102.575 Y106.271 E11.32398
G0 F6000 X112.6 Y116.501
G1 F1200 X112.782 Y116.531 E11.33012
G1 X113.067 Y116.545 E11.33961
G1 X122.02 Y116.546 E11.63739
G1 X122.4 Y116.515 E11.65007
G1 X122.4 Y117.06 E11.6682
G1 X122.422 Y117.323 E11.67697
G1 X122.333 Y117.461 E11.68244
G1 X122.133 Y117.277 E11.69147
G1 X121.724 Y117.008 E11.70776
G1 X121.276 Y116.81 E11.72405
G1 X120.803 Y116.687 E11.7403
G1 X120.284 Y116.643 E11.75763
G1 X119.162 Y116.646 E11.79494
G1 X118.24 Y116.638 E11.82561
G1 X117.752 Y116.674 E11.84189
G1 X117.493 Y116.736 E11.85074
G1 X117.303 Y116.687 E11.85727
G1 X116.783 Y116.643 E11.87463
G1 X114.711 Y116.644 E11.94354
G1 X114.223 Y116.684 E11.95983
G1 X113.748 Y116.803 E11.97611
G1 X113.299 Y116.997 E11.99238
G1 X112.887 Y117.262 E12.00868
G1 X112.658 Y117.469 E12.01894
G1 X112.572 Y117.344 E12.02399
G1 X112.6 Y117.061 E12.03345
G1 X112.6 Y116.501 E12.05207
G0 F6000 X112.605 Y116.098
G1 F1200 X112.624 Y116.093 E12.05273
G1 X113.067 Y116.145 E12.06756
G1 X122.02 Y116.146 E12.36534
G1 X122.474 Y116.106 E12.3805
G1 X122.51 Y116.107 E12.3817
G1 X122.8 Y116.129 E12.39137
G1 X122.8 Y117.06 E12.42234
G1 X122.834 Y117.445 E12.43519
G1 X122.632 Y117.735 E12.44694
G1 X122.403 Y118.137 E12.46233
G1 X122.156 Y117.834 E12.47533
G1 X121.812 Y117.536 E12.49047
G1 X121.42 Y117.302 E12.50566
G1 X120.994 Y117.141 E12.5208
G1 X120.547 Y117.056 E12.53594
G1 X120.284 Y117.043 E12.5447
G1 X119.162 Y117.046 E12.58201
G1 X118.237 Y117.038 E12.61278
G1 X117.783 Y117.074 E12.62793
G1 X117.507 Y117.146 E12.63741
G1 X117.494 Y117.141 E12.63788
G1 X117.047 Y117.056 E12.65301
G1 X116.784 Y117.043 E12.66177
G1 X114.711 Y117.044 E12.73072
G1 X114.257 Y117.084 E12.74588
G1 X113.817 Y117.202 E12.76103
G1 X113.405 Y117.396 E12.77617
G1 X113.032 Y117.659 E12.79135
G1 X112.711 Y117.982 E12.8065
G1 X112.594 Y118.152 E12.81336
G1 X112.329 Y117.693 E12.83099
G1 X112.164 Y117.479 E12.83998
G1 X112.2 Y117.061 E12.85393
G1 X112.2 Y116.134 E12.88477
G1 X112.605 Y116.098 E12.89829
G0 F6000 X112.622 Y115.7
G1 F1200 X113.067 Y115.745 E12.91317
G1 X122.02 Y115.746 E13.21094
G1 X122.437 Y115.706 E13.22488
G1 X122.638 Y115.721 E13.23158
G1 X122.91 Y115.738 E13.24065
G1 X123.2 Y115.738 E13.25029
G1 X123.2 Y117.06 E13.29426
G1 X123.24 Y117.477 E13.30819
G1 X123.265 Y117.561 E13.31111
G1 X122.98 Y117.933 E13.3267
G1 X122.394 Y118.961 E13.36605
G1 X122.299 Y118.749 E13.37378
G1 X122.093 Y118.384 E13.38772
G1 X121.821 Y118.064 E13.40169
G1 X121.494 Y117.803 E13.4156
G1 X121.123 Y117.607 E13.42956
G1 X120.722 Y117.486 E13.44349
G1 X120.285 Y117.443 E13.45809
G1 X119.163 Y117.446 E13.49541
G1 X118.233 Y117.438 E13.52635
G1 X117.816 Y117.474 E13.54027
G1 X117.49 Y117.567 E13.55154
G1 X117.222 Y117.486 E13.56085
G1 X116.785 Y117.443 E13.57546
G1 X114.711 Y117.444 E13.64444
G1 X114.294 Y117.484 E13.65837
G1 X113.892 Y117.602 E13.67231
G1 X113.52 Y117.795 E13.68625
G1 X113.191 Y118.054 E13.70017
G1 X112.917 Y118.371 E13.71411
G1 X112.702 Y118.748 E13.72854
G1 X112.644 Y118.878 E13.73328
G1 X112.512 Y118.811 E13.7382
G1 X111.982 Y117.892 E13.77349
G1 X111.731 Y117.565 E13.7872
G1 X111.778 Y117.371 E13.79384
G1 X111.8 Y117.061 E13.80417
G1 X111.8 Y115.738 E13.84818
G1 X112.151 Y115.738 E13.85985
G1 X112.568 Y115.698 E13.87378
G1 X112.622 Y115.7 E13.87558
G0 F6000 X112.774 Y115.321
G1 F1200 X113.067 Y115.345 E13.88536
G1 X122.02 Y115.346 E14.18314
G1 X122.397 Y115.306 E14.19575
G1 X122.489 Y115.276 E14.19897
G1 X122.91 Y115.338 E14.21312
G1 X123.6 Y115.338 E14.23607
G1 X123.6 Y117.06 E14.29334
G1 X123.64 Y117.437 E14.30595
G1 X123.721 Y117.647 E14.31344
G1 X123.62 Y117.748 E14.31819
G1 X123.327 Y118.131 E14.33423
G1 X122.649 Y119.319 E14.37972
G1 X122.496 Y119.378 E14.38518
G1 X122.222 Y119.557 E14.39606
G1 X121.934 Y118.911 E14.41959
G1 X121.744 Y118.583 E14.43219
G1 X121.49 Y118.302 E14.44479
G1 X121.182 Y118.08 E14.45742
G1 X120.835 Y117.928 E14.47002
G1 X120.286 Y117.843 E14.4885
G1 X119.165 Y117.846 E14.52578
G1 X118.23 Y117.838 E14.55688
G1 X117.853 Y117.875 E14.56948
G1 X117.492 Y117.99 E14.58208
G1 X117.335 Y117.928 E14.5877
G1 X116.786 Y117.843 E14.60617
G1 X114.711 Y117.844 E14.67519
G1 X114.334 Y117.884 E14.6878
G1 X113.974 Y118.002 E14.7004
G1 X113.647 Y118.192 E14.71298
G1 X113.366 Y118.447 E14.7256
