;FLAVOR:Marlin
;TIME:757
;Filament used: 0.533116m
;Layer height: 0.16
;MINX:41.713
;MINY:115.381
;MINZ:0.2
;MAXX:109.682
;MAXY:183.15
;MAXZ:7
;Generated with Cura_SteamEngine 4.13.1
M140 S65
M105
M190 S65
M104 S210
M105
M109 S210
M82 ;absolute extrusion mode
; Ender 3 Custom Start G-code
G92 E0 ; Reset Extruder
G28 ; Home all axes
G1 Z2.0 F3000 ; Move Z Axis up little to prevent scratching of Heat Bed
G1 X0.1 Y20 Z0.3 F5000.0 ; Move to start position
G1 X0.1 Y200.0 Z0.3 F1500.0 E15 ; Draw the first line
G1 X0.4 Y200.0 Z0.3 F5000.0 ; Move to side a little
G1 X0.4 Y20 Z0.3 F1500.0 E30 ; Draw the second line
G92 E0 ; Reset Extruder
G1 Z2.0 F3000 ; Move Z Axis up little to prevent scratching of Heat Bed
G1 X5 Y20 Z0.3 F5000.0 ; Move over to prevent blob squish
G92 E0
G92 E0
G1 F2700 E-5
;LAYER_COUNT:36
;LAYER:0
M107
G0 F6000 X88.27 Y117.871 Z0.2
;TYPE:SKIRT
G1 F2700 E0
G1 F1200 X89.021 Y117.308 E0.03122
G1 X89.816 Y116.811 E0.0624
G1 X90.651 Y116.384 E0.09359
G1 X91.519 Y116.029 E0.12479
G1 X92.415 Y115.75 E0.156
G1 X93.33 Y115.548 E0.18716
G1 X94.26 Y115.425 E0.21836
G1 X95.197 Y115.381 E0.24956
G1 X96.134 Y115.417 E0.28075
G1 X97.065 Y115.533 E0.31196
G1 X97.982 Y115.728 E0.34314
G1 X98.88 Y116.001 E0.37436
G1 X99.751 Y116.348 E0.40554
G1 X100.589 Y116.769 E0.43673
G1 X101.388 Y117.26 E0.46792
G1 X102.143 Y117.817 E0.49913
G1 X102.805 Y118.396 E0.52838
G1 X103.033 Y118.612 E0.53883
G1 X103.246 Y118.819 E0.5487
G1 X106.09 Y121.664 E0.6825
G1 X106.558 Y122.144 E0.7048
G1 X107.184 Y122.843 E0.73601
G1 X107.747 Y123.592 E0.76717
G1 X108.245 Y124.387 E0.79837
G1 X108.673 Y125.221 E0.82955
G1 X109.029 Y126.089 E0.86076
G1 X109.309 Y126.984 E0.89195
G1 X109.513 Y127.9 E0.92316
G1 X109.637 Y128.829 E0.95433
G1 X109.682 Y129.766 E0.98553
G1 X109.647 Y130.703 E1.01672
G1 X109.532 Y131.634 E1.04792
G1 X109.338 Y132.552 E1.07913
G1 X109.067 Y133.45 E1.11032
G1 X108.72 Y134.321 E1.14151
G1 X108.301 Y135.16 E1.1727
G1 X107.811 Y135.96 E1.2039
G1 X107.255 Y136.715 E1.23509
G1 X106.668 Y137.387 E1.26477
G1 X106.435 Y137.633 E1.27604
G1 X106.227 Y137.847 E1.28596
G1 X87.607 Y156.468 E2.16181
G1 X85.787 Y158.341 E2.24867
G1 X84.08 Y160.199 E2.33259
G1 X82.417 Y162.117 E2.41703
G1 X80.832 Y164.05 E2.50017
G1 X79.279 Y166.059 E2.58462
G1 X77.815 Y168.069 E2.66733
G1 X76.375 Y170.167 E2.75197
G1 X75.038 Y172.236 E2.8339
G1 X74.191 Y173.649 E2.88869
G1 X73.487 Y174.797 E2.93348
G1 X72.949 Y175.595 E2.96549
G1 X72.36 Y176.39 E2.9984
G1 X72.169 Y176.64 E3.00886
G1 X71.765 Y177.154 E3.03061
G1 X71.155 Y177.866 E3.06179
G1 X70.486 Y178.523 E3.09298
G1 X69.954 Y178.973 E3.11616
G1 X69.252 Y179.53 E3.14596
G1 X68.984 Y179.736 E3.1572
G1 X68.428 Y180.15 E3.18026
G1 X67.653 Y180.677 E3.21143
G1 X66.836 Y181.137 E3.24262
G1 X66.254 Y181.411 E3.26401
G1 X65.412 Y181.778 E3.29456
G1 X65.082 Y181.915 E3.30644
G1 X64.461 Y182.162 E3.32867
G1 X63.576 Y182.471 E3.35985
G1 X62.667 Y182.704 E3.39106
G1 X62.017 Y182.821 E3.41303
G1 X61.091 Y182.959 E3.44417
G1 X60.749 Y183.004 E3.45564
G1 X60.1 Y183.08 E3.47737
G1 X59.165 Y183.15 E3.50856
G1 X58.227 Y183.139 E3.53976
G1 X57.567 Y183.083 E3.56179
G1 X56.617 Y182.974 E3.59359
G1 X56.303 Y182.934 E3.60412
G1 X55.678 Y182.844 E3.62512
G1 X54.756 Y182.671 E3.65633
G1 X53.853 Y182.42 E3.6875
G1 X53.199 Y182.185 E3.71061
G1 X52.327 Y181.84 E3.7418
G1 X52.031 Y181.717 E3.75246
G1 X51.433 Y181.46 E3.77411
G1 X50.588 Y181.054 E3.80529
G1 X49.78 Y180.576 E3.83652
G1 X49.226 Y180.191 E3.85896
G1 X48.457 Y179.621 E3.89079
G1 X48.199 Y179.424 E3.90159
G1 X47.699 Y179.03 E3.92276
G1 X46.988 Y178.419 E3.95394
G1 X46.331 Y177.749 E3.98515
G1 X45.89 Y177.227 E4.00788
G1 X45.333 Y176.525 E4.03769
G1 X45.129 Y176.26 E4.04881
G1 X44.714 Y175.703 E4.07191
G1 X44.186 Y174.928 E4.1031
G1 X43.727 Y174.11 E4.1343
G1 X43.446 Y173.515 E4.15619
G1 X43.074 Y172.659 E4.18723
G1 X42.942 Y172.34 E4.19871
G1 X42.701 Y171.734 E4.2204
G1 X42.392 Y170.848 E4.25161
G1 X42.159 Y169.94 E4.28279
G1 X42.042 Y169.29 E4.30476
G1 X41.904 Y168.364 E4.3359
G1 X41.859 Y168.022 E4.34737
G1 X41.783 Y167.373 E4.3691
G1 X41.713 Y166.438 E4.40029
G1 X41.724 Y165.5 E4.43149
G1 X41.78 Y164.84 E4.45352
G1 X41.889 Y163.89 E4.48532
G1 X41.93 Y163.574 E4.49592
G1 X42.02 Y162.95 E4.51689
G1 X42.193 Y162.028 E4.54809
G1 X42.444 Y161.124 E4.57929
G1 X42.677 Y160.477 E4.60217
G1 X43.022 Y159.604 E4.63339
G1 X43.146 Y159.304 E4.64419
G1 X43.403 Y158.706 E4.66583
G1 X43.809 Y157.861 E4.69701
G1 X44.287 Y157.053 E4.72824
G1 X44.674 Y156.496 E4.7508
G1 X45.234 Y155.741 E4.78206
G1 X45.421 Y155.496 E4.79231
G1 X45.825 Y154.982 E4.81406
G1 X46.435 Y154.27 E4.84524
G1 X47.104 Y153.613 E4.87643
G1 X47.636 Y153.163 E4.8996
G1 X48.338 Y152.606 E4.92941
G1 X48.59 Y152.412 E4.93999
G1 X49.164 Y151.983 E4.96382
G1 X50.209 Y151.291 E5.00551
G1 X51.105 Y150.769 E5.04
G1 X53.275 Y149.463 E5.12424
G1 X55.445 Y148.072 E5.20997
G1 X57.514 Y146.662 E5.29324
G1 X59.535 Y145.199 E5.37622
G1 X61.544 Y143.655 E5.4605
G1 X63.496 Y142.067 E5.54419
G1 X65.386 Y140.436 E5.62722
G1 X67.264 Y138.724 E5.71175
G1 X69.338 Y136.715 E5.80778
G1 X87.097 Y118.956 E6.64311
G1 X87.571 Y118.495 E6.6651
G1 X88.27 Y117.871 E6.69627
G0 F6000 X88.537 Y118.17
G1 F1200 X89.275 Y117.619 E6.7269
G1 X90.057 Y117.134 E6.75751
G1 X90.879 Y116.719 E6.78813
G1 X91.734 Y116.378 E6.81875
G1 X92.615 Y116.111 E6.84937
G1 X93.516 Y115.922 E6.87999
G1 X94.43 Y115.812 E6.91061
G1 X95.351 Y115.782 E6.94126
G1 X96.27 Y115.831 E6.97186
G1 X97.181 Y115.96 E7.00247
G1 X98.078 Y116.168 E7.03309
G1 X98.954 Y116.453 E7.06373
G1 X99.801 Y116.813 E7.09434
G1 X100.614 Y117.244 E7.12495
G1 X101.387 Y117.745 E7.15559
G1 X102.113 Y118.311 E7.1862
G1 X102.53 Y118.686 E7.20486
G1 X102.758 Y118.902 E7.2153
G1 X102.963 Y119.102 E7.22483
G1 X105.804 Y121.943 E7.35846
G1 X106.272 Y122.423 E7.38076
G1 X106.885 Y123.11 E7.41138
G1 X107.437 Y123.847 E7.44201
G1 X107.922 Y124.629 E7.47261
G1 X108.338 Y125.45 E7.50322
G1 X108.681 Y126.305 E7.53386
G1 X108.949 Y127.186 E7.56449
G1 X109.139 Y128.086 E7.59509
G1 X109.25 Y129 E7.62571
G1 X109.282 Y129.92 E7.65633
G1 X109.233 Y130.84 E7.68697
G1 X109.105 Y131.752 E7.7176
G1 X108.898 Y132.649 E7.74822
G1 X108.615 Y133.525 E7.77884
G1 X108.256 Y134.372 E7.80944
G1 X107.825 Y135.186 E7.84007
G1 X107.325 Y135.959 E7.87069
G1 X106.76 Y136.686 E7.90131
G1 X106.378 Y137.112 E7.92034
G1 X106.145 Y137.358 E7.93161
G1 X105.945 Y137.564 E7.94116
G1 X87.285 Y156.225 E8.8189
G1 X85.488 Y158.074 E8.90465
G1 X83.782 Y159.932 E8.98855
G1 X82.125 Y161.843 E9.07268
G1 X80.505 Y163.819 E9.15766
G1 X78.972 Y165.802 E9.24103
G1 X77.489 Y167.836 E9.32475
G1 X76.042 Y169.945 E9.40982
G1 X74.697 Y172.028 E9.49229
G1 X73.85 Y173.44 E9.54705
G1 X73.146 Y174.588 E9.59184
G1 X72.627 Y175.357 E9.6227
G1 X72.038 Y176.152 E9.65561
G1 X71.855 Y176.392 E9.66565
G1 X71.451 Y176.906 E9.68739
G1 X70.851 Y177.605 E9.71803
G1 X70.193 Y178.249 E9.74865
G1 X69.706 Y178.66 E9.76985
G1 X69.004 Y179.217 E9.79965
G1 X68.746 Y179.415 E9.81047
G1 X68.19 Y179.829 E9.83353
G1 X67.428 Y180.346 E9.86415
G1 X66.624 Y180.795 E9.89478
G1 X66.094 Y181.044 E9.91426
G1 X65.252 Y181.411 E9.94481
G1 X64.935 Y181.543 E9.95623
G1 X64.314 Y181.79 E9.97846
G1 X63.444 Y182.093 E10.0091
G1 X62.552 Y182.319 E10.0397
G1 X61.958 Y182.425 E10.05977
G1 X61.032 Y182.563 E10.09091
G1 X60.703 Y182.607 E10.10195
G1 X60.054 Y182.683 E10.12368
G1 X59.136 Y182.75 E10.1543
G1 X58.215 Y182.738 E10.18493
G1 X57.613 Y182.686 E10.20503
G1 X56.663 Y182.577 E10.23683
G1 X56.36 Y182.538 E10.247
G1 X55.735 Y182.448 E10.268
G1 X54.83 Y182.277 E10.29863
G1 X53.944 Y182.029 E10.32923
G1 X53.346 Y181.813 E10.35038
G1 X52.474 Y181.468 E10.38157
G1 X52.189 Y181.35 E10.39183
G1 X51.591 Y181.093 E10.41348
G1 X50.761 Y180.693 E10.44412
G1 X49.97 Y180.222 E10.47474
G1 X49.464 Y179.87 E10.49524
G1 X48.695 Y179.3 E10.52708
G1 X48.446 Y179.11 E10.5375
G1 X47.946 Y178.716 E10.55867
G1 X47.249 Y178.115 E10.58928
G1 X46.606 Y177.456 E10.6199
G1 X46.203 Y176.979 E10.64067
G1 X45.646 Y176.277 E10.67048
G1 X45.45 Y176.021 E10.6812
G1 X45.035 Y175.464 E10.70431
G1 X44.517 Y174.703 E10.73492
G1 X44.068 Y173.899 E10.76555
G1 X43.813 Y173.356 E10.7855
G1 X43.441 Y172.5 E10.81655
G1 X43.313 Y172.192 E10.82764
G1 X43.072 Y171.586 E10.84933
G1 X42.77 Y170.717 E10.87993
G1 X42.543 Y169.824 E10.91058
G1 X42.438 Y169.231 E10.93061
G1 X42.3 Y168.305 E10.96175
G1 X42.256 Y167.976 E10.97279
G1 X42.18 Y167.327 E10.99452
G1 X42.113 Y166.409 E11.02513
G1 X42.125 Y165.488 E11.05577
G1 X42.177 Y164.886 E11.07587
G1 X42.286 Y163.936 E11.10767
G1 X42.326 Y163.631 E11.1179
G1 X42.416 Y163.007 E11.13887
G1 X42.586 Y162.102 E11.1695
G1 X42.835 Y161.216 E11.20011
G1 X43.049 Y160.624 E11.22104
G1 X43.394 Y159.751 E11.25227
G1 X43.513 Y159.462 E11.26266
G1 X43.77 Y158.864 E11.28431
G1 X44.17 Y158.034 E11.31495
G1 X44.641 Y157.243 E11.34557
G1 X44.995 Y156.734 E11.36619
G1 X45.555 Y155.979 E11.39746
G1 X45.735 Y155.744 E11.4073
G1 X46.139 Y155.23 E11.42905
G1 X46.739 Y154.531 E11.45969
G1 X47.397 Y153.887 E11.49031
G1 X47.884 Y153.476 E11.51151
G1 X48.586 Y152.919 E11.54131
G1 X48.829 Y152.732 E11.55151
G1 X49.403 Y152.303 E11.57534
G1 X50.41 Y151.637 E11.6155
G1 X51.306 Y151.114 E11.65001
G1 X53.492 Y149.8 E11.73484
G1 X55.656 Y148.412 E11.82034
G1 X57.735 Y146.995 E11.90403
G1 X59.784 Y145.512 E11.98815
G1 X61.795 Y143.966 E12.07252
G1 X63.747 Y142.378 E12.15621
G1 X65.672 Y140.718 E12.24076
G1 X67.512 Y139.04 E12.32358
G1 X69.616 Y137.002 E12.42101
G1 X87.376 Y119.243 E13.25636
G1 X87.85 Y118.782 E13.27835
G1 X88.537 Y118.17 E13.30896
G0 F6000 X88.803 Y118.469
G1 F1200 X89.528 Y117.93 E13.339
G1 X90.298 Y117.458 E13.36904
G1 X91.107 Y117.056 E13.39909
G1 X91.948 Y116.727 E13.42912
G1 X92.815 Y116.474 E13.45916
G1 X93.7 Y116.298 E13.48918
G1 X94.598 Y116.201 E13.51922
G1 X95.501 Y116.184 E13.54926
G1 X96.402 Y116.247 E13.5793
G1 X97.294 Y116.39 E13.60934
G1 X98.17 Y116.611 E13.63939
G1 X99.022 Y116.908 E13.6694
G1 X99.845 Y117.28 E13.69944
G1 X100.632 Y117.723 E13.72948
G1 X101.377 Y118.234 E13.75953
G1 X102.255 Y118.976 E13.79776
G1 X102.483 Y119.192 E13.80821
G1 X102.68 Y119.385 E13.81738
G1 X105.517 Y122.222 E13.95082
G1 X105.985 Y122.702 E13.97312
G1 X106.586 Y123.376 E14.00316
G1 X107.126 Y124.101 E14.03322
G1 X107.599 Y124.87 E14.06325
G1 X108.002 Y125.678 E14.09328
G1 X108.332 Y126.519 E14.12333
G1 X108.586 Y127.385 E14.15335
G1 X108.763 Y128.271 E14.1834
G1 X108.861 Y129.169 E14.21344
G1 X108.879 Y130.072 E14.24348
G1 X108.817 Y130.973 E14.27352
G1 X108.676 Y131.865 E14.30356
G1 X108.456 Y132.741 E14.3336
G1 X108.159 Y133.594 E14.36364
G1 X107.789 Y134.417 E14.39365
G1 X107.347 Y135.205 E14.4237
G1 X106.837 Y135.95 E14.45373
G1 X106.088 Y136.837 E14.49234
G1 X105.855 Y137.083 E14.50361
G1 X105.662 Y137.281 E14.51281
G1 X87.034 Y155.91 E15.38904
G1 X85.19 Y157.807 E15.47703
G1 X83.469 Y159.682 E15.56168
G1 X81.811 Y161.593 E15.64583
G1 X80.225 Y163.528 E15.72904
G1 X78.648 Y165.568 E15.8148
G1 X77.141 Y167.637 E15.89994
G1 X75.72 Y169.707 E15.98345
G1 X74.363 Y171.807 E16.06661
G1 X73.509 Y173.231 E16.12183
G1 X72.805 Y174.379 E16.16662
G1 X72.306 Y175.119 E16.19631
G1 X71.717 Y175.914 E16.22922
G1 X71.54 Y176.145 E16.2389
G1 X71.136 Y176.659 E16.26064
G1 X70.547 Y177.344 E16.29069
G1 X69.9 Y177.974 E16.32072
G1 X69.457 Y178.346 E16.33996
G1 X68.755 Y178.903 E16.36977
G1 X68.507 Y179.094 E16.38018
G1 X67.951 Y179.508 E16.40324
G1 X67.203 Y180.015 E16.43329
G1 X66.414 Y180.454 E16.46332
G1 X65.935 Y180.677 E16.4809
G1 X65.093 Y181.044 E16.51144
G1 X64.787 Y181.172 E16.52248
G1 X64.166 Y181.419 E16.54471
G1 X63.313 Y181.715 E16.57474
G1 X62.437 Y181.935 E16.60478
G1 X61.899 Y182.03 E16.62295
G1 X60.973 Y182.168 E16.65409
G1 X60.656 Y182.21 E16.66472
G1 X60.007 Y182.286 E16.68646
G1 X59.107 Y182.351 E16.71647
G1 X58.204 Y182.336 E16.74651
G1 X57.658 Y182.289 E16.76473
G1 X56.708 Y182.18 E16.79654
G1 X56.417 Y182.142 E16.8063
G1 X55.792 Y182.052 E16.8273
G1 X54.905 Y181.884 E16.85733
G1 X54.036 Y181.638 E16.88736
G1 X53.493 Y181.441 E16.90658
G1 X52.621 Y181.096 E16.93777
G1 X52.347 Y180.982 E16.94764
G1 X51.749 Y180.725 E16.96929
G1 X50.935 Y180.332 E16.99935
G1 X50.16 Y179.869 E17.02938
G1 X49.702 Y179.548 E17.04798
G1 X48.933 Y178.978 E17.07982
G1 X48.694 Y178.796 E17.08981
G1 X48.194 Y178.402 E17.11098
G1 X47.51 Y177.812 E17.14102
G1 X46.881 Y177.164 E17.17106
G1 X46.517 Y176.73 E17.1899
G1 X45.96 Y176.028 E17.21971
G1 X45.771 Y175.782 E17.23002
G1 X45.356 Y175.225 E17.25313
G1 X44.849 Y174.478 E17.28315
G1 X44.41 Y173.688 E17.31321
G1 X44.18 Y173.196 E17.33128
G1 X43.808 Y172.34 E17.36232
G1 X43.685 Y172.044 E17.37298
G1 X43.444 Y171.438 E17.39467
G1 X43.148 Y170.585 E17.4247
G1 X42.928 Y169.709 E17.45474
G1 X42.833 Y169.172 E17.47288
G1 X42.695 Y168.246 E17.50402
G1 X42.653 Y167.929 E17.51466
G1 X42.577 Y167.28 E17.53639
G1 X42.512 Y166.38 E17.5664
G1 X42.527 Y165.477 E17.59644
G1 X42.574 Y164.931 E17.61467
G1 X42.683 Y163.981 E17.64647
G1 X42.721 Y163.688 E17.6563
G1 X42.811 Y163.064 E17.67727
G1 X42.98 Y162.177 E17.7073
G1 X43.226 Y161.308 E17.73734
G1 X43.421 Y160.771 E17.75634
G1 X43.766 Y159.898 E17.78756
G1 X43.881 Y159.62 E17.79757
G1 X44.138 Y159.022 E17.81922
G1 X44.531 Y158.208 E17.84928
G1 X44.994 Y157.433 E17.87931
G1 X45.317 Y156.972 E17.89803
G1 X45.877 Y156.217 E17.92929
G1 X46.05 Y155.991 E17.93876
G1 X46.454 Y155.477 E17.9605
G1 X47.043 Y154.792 E17.99055
G1 X47.69 Y154.162 E18.02059
G1 X48.133 Y153.79 E18.03983
G1 X48.835 Y153.233 E18.06963
G1 X49.069 Y153.053 E18.07945
G1 X49.643 Y152.624 E18.10329
G1 X50.612 Y151.982 E18.14195
G1 X51.477 Y151.478 E18.17525
G1 X53.733 Y150.12 E18.26283
G1 X55.876 Y148.747 E18.34748
G1 X57.965 Y147.322 E18.43158
G1 X60.017 Y145.837 E18.51583
G1 X62.028 Y144.292 E18.60018
G1 X64.014 Y142.676 E18.68534
G1 X65.918 Y141.033 E18.76898
G1 X67.812 Y139.307 E18.85421
G1 X69.903 Y137.281 E18.95105
G1 X87.654 Y119.53 E19.786
G1 X88.128 Y119.069 E19.80799
G1 X88.803 Y118.469 E19.83803
G1 F2700 E14.83803
;MESH:Smooth Curcan-Kup(1).stl
G0 F6000 X94.478 Y126.191
G0 X95.24 Y126.952
G0 X62.39 Y160.916
G0 X64.147 Y162.916
;TYPE:WALL-INNER
G1 F2700 E19.83803
G1 F1200 X97.243 Y129.82 E21.39476
G1 X95.243 Y127.82 E21.48884
G1 X62.147 Y160.916 E23.04557
G1 X64.147 Y162.916 E23.13965
G0 F6000 X64.147 Y162.35
;TYPE:WALL-OUTER
G1 F1200 X96.677 Y129.82 E24.66976
G1 X95.243 Y128.386 E24.73721
G1 X62.713 Y160.916 E26.26732
G1 X64.147 Y162.35 E26.33477
G0 F6000 X64.358 Y162.562
G0 X63.683 Y165.251
G0 X63.814 Y166.068
G0 X63.642 Y167.366
G0 X63.237 Y168.346
G0 X62.458 Y169.731
;TYPE:WALL-INNER
G1 F1200 X63.281 Y168.659 E26.37972
G1 X63.799 Y167.408 E26.42476
G1 X63.975 Y166.068 E26.46971
G1 X63.799 Y164.728 E26.51466
G1 X63.499 Y164.003 E26.54075
G1 X63.281 Y163.478 E26.55966
G1 X62.458 Y162.405 E26.60464
G1 X61.385 Y161.582 E26.64962
G1 X60.135 Y161.064 E26.69462
G1 X58.795 Y160.888 E26.73957
G1 X57.455 Y161.064 E26.78452
G1 X56.204 Y161.582 E26.82956
G1 X55.132 Y162.405 E26.87451
G1 X54.309 Y163.478 E26.91948
G1 X53.791 Y164.728 E26.96449
G1 X53.615 Y166.068 E27.00944
G1 X53.791 Y167.408 E27.05439
G1 X54.309 Y168.659 E27.09942
G1 X55.132 Y169.731 E27.14438
G1 X56.204 Y170.554 E27.18933
G1 X57.455 Y171.072 E27.23436
G1 X58.795 Y171.248 E27.27931
G1 X60.135 Y171.072 E27.32426
G1 X61.385 Y170.554 E27.36927
G1 X62.458 Y169.731 E27.41424
G0 F6000 X62.173 Y169.446
;TYPE:WALL-OUTER
G1 F1200 X62.932 Y168.457 E27.45571
G1 X63.409 Y167.304 E27.49721
G1 X63.572 Y166.068 E27.53867
G1 X63.409 Y164.832 E27.58014
G1 X62.932 Y163.68 E27.62161
G1 X62.173 Y162.69 E27.6631
G1 X61.183 Y161.931 E27.70459
G1 X60.031 Y161.454 E27.74606
G1 X58.795 Y161.291 E27.78753
G1 X57.559 Y161.454 E27.82899
G1 X56.406 Y161.931 E27.8705
G1 X55.417 Y162.69 E27.91196
G1 X54.658 Y163.68 E27.95345
G1 X54.181 Y164.832 E27.99492
G1 X54.018 Y166.068 E28.03639
G1 X54.181 Y167.304 E28.07785
G1 X54.658 Y168.457 E28.11935
G1 X55.417 Y169.446 E28.16082
G1 X56.406 Y170.205 E28.20228
G1 X57.559 Y170.682 E28.24378
G1 X58.795 Y170.845 E28.28525
G1 X60.031 Y170.682 E28.32671
G1 X61.183 Y170.205 E28.36818
