;FLAVOR:Marlin
;TIME:18449
;Filament used: 13.415m
;Layer height: 0.2
;MINX:15.863
;MINY:22.544
;MINZ:0.2
;MAXX:179.863
;MAXY:187.544
;MAXZ:1.6
;Generated with Cura_SteamEngine 4.13.1
M140 S65
M105
M190 S65
M104 S205
M105
M109 S205
M82 ;absolute extrusion mode
; Ender 3 Custom Start G-code
G92 E0 ; Reset Extruder
G28 ; Home all axes
G1 Z2.0 F3000 ; Move Z Axis up little to prevent scratching of Heat Bed
G1 X0.1 Y20 Z0.3 F5000.0 ; Move to start position
G1 X0.1 Y200.0 Z0.3 F1500.0 E15 ; Draw the first line
G1 X0.4 Y200.0 Z0.3 F5000.0 ; Move to side a little
G1 X0.4 Y20 Z0.3 F1500.0 E30 ; Draw the second line
G92 E0 ; Reset Extruder
G1 Z2.0 F3000 ; Move Z Axis up little to prevent scratching of Heat Bed
G1 X5 Y20 Z0.3 F5000.0 ; Move over to prevent blob squish
G92 E0
G92 E0
G1 F2700 E-5
;LAYER_COUNT:8
;LAYER:0
M107
G0 F6000 X19.749 Y25.171 Z0.2
;TYPE:SKIRT
G1 F2700 E0
G1 F1200 X20.489 Y24.595 E0.03119
G1 X21.275 Y24.083 E0.06239
G1 X22.102 Y23.641 E0.09358
G1 X22.964 Y23.271 E0.12478
G1 X23.854 Y22.975 E0.15597
G1 X24.766 Y22.757 E0.18716
G1 X25.693 Y22.616 E0.21835
G1 X26.564 Y22.557 E0.24738
G1 X26.885 Y22.548 E0.25806
G1 X27.193 Y22.544 E0.26831
G1 X168.156 Y22.544 E4.95676
G1 X169.012 Y22.555 E4.98523
G1 X169.948 Y22.609 E5.01641
G1 X170.876 Y22.741 E5.04759
G1 X171.79 Y22.953 E5.0788
G1 X172.682 Y23.242 E5.10998
G1 X173.547 Y23.605 E5.14118
G1 X174.377 Y24.041 E5.17237
G1 X175.168 Y24.546 E5.20358
G1 X175.912 Y25.117 E5.23477
G1 X176.605 Y25.749 E5.26597
G1 X177.242 Y26.437 E5.29715
G1 X177.817 Y27.178 E5.32835
G1 X178.328 Y27.964 E5.35953
G1 X178.77 Y28.792 E5.39075
G1 X179.139 Y29.654 E5.42193
G1 X179.434 Y30.544 E5.45312
G1 X179.652 Y31.456 E5.48431
G1 X179.792 Y32.384 E5.51552
G1 X179.85 Y33.245 E5.54422
G1 X179.859 Y33.565 E5.55487
G1 X179.863 Y33.874 E5.56515
G1 X179.862 Y175.944 E10.29042
G1 X179.853 Y176.671 E10.3146
G1 X179.802 Y177.608 E10.34581
G1 X179.67 Y178.536 E10.37699
G1 X179.461 Y179.45 E10.40817
G1 X179.174 Y180.343 E10.43937
G1 X178.812 Y181.209 E10.47059
G1 X178.378 Y182.04 E10.50177
G1 X177.874 Y182.831 E10.53296
G1 X177.305 Y183.576 E10.56414
G1 X176.674 Y184.271 E10.59536
G1 X175.987 Y184.909 E10.62655
G1 X175.248 Y185.486 E10.65773
G1 X174.462 Y185.998 E10.68893
G1 X173.636 Y186.441 E10.72011
G1 X172.774 Y186.813 E10.75133
G1 X171.885 Y187.109 E10.7825
G1 X170.973 Y187.329 E10.8137
G1 X170.046 Y187.47 E10.84489
G1 X169.162 Y187.531 E10.87436
G1 X168.841 Y187.54 E10.88504
G1 X168.533 Y187.544 E10.89528
G1 X27.428 Y187.543 E15.58846
G1 X26.73 Y187.534 E15.61167
G1 X25.794 Y187.482 E15.64285
G1 X24.865 Y187.35 E15.67406
G1 X23.951 Y187.14 E15.70525
G1 X23.058 Y186.853 E15.73645
G1 X22.193 Y186.49 E15.76765
G1 X21.362 Y186.056 E15.79883
G1 X20.571 Y185.552 E15.83003
G1 X19.826 Y184.982 E15.86123
G1 X19.132 Y184.351 E15.89243
G1 X18.495 Y183.664 E15.92359
G1 X17.918 Y182.924 E15.9548
G1 X17.406 Y182.138 E15.986
G1 X16.963 Y181.311 E16.0172
G1 X16.592 Y180.45 E16.04838
G1 X16.296 Y179.56 E16.07958
G1 X16.077 Y178.648 E16.11077
G1 X15.936 Y177.721 E16.14196
G1 X15.876 Y176.832 E16.1716
G1 X15.867 Y176.499 E16.18268
G1 X15.863 Y176.202 E16.19255
G1 X15.864 Y34.069 E20.91992
G1 X15.873 Y33.404 E20.94204
G1 X15.926 Y32.468 E20.97322
G1 X16.058 Y31.539 E21.00443
G1 X16.269 Y30.625 E21.03563
G1 X16.557 Y29.733 E21.0668
G1 X16.92 Y28.868 E21.098
G1 X17.355 Y28.037 E21.1292
G1 X17.859 Y27.247 E21.16037
G1 X18.429 Y26.502 E21.19157
G1 X19.061 Y25.808 E21.22279
G1 X19.749 Y25.171 E21.25397
G0 F6000 X20.137 Y25.367
G1 F1200 X20.873 Y24.814 E21.28459
G1 X21.654 Y24.326 E21.31522
G1 X22.474 Y23.908 E21.34583
G1 X23.328 Y23.563 E21.37647
G1 X24.208 Y23.293 E21.40708
G1 X25.108 Y23.101 E21.43769
G1 X26.022 Y22.987 E21.46833
G1 X26.575 Y22.957 E21.48675
G1 X26.896 Y22.948 E21.49743
G1 X27.193 Y22.944 E21.50731
G1 X168.156 Y22.944 E26.19576
G1 X169.006 Y22.955 E26.22403
G1 X169.925 Y23.008 E26.25465
G1 X170.836 Y23.141 E26.28527
G1 X171.732 Y23.352 E26.31588
G1 X172.606 Y23.64 E26.34649
G1 X173.453 Y24.003 E26.37714
G1 X174.264 Y24.438 E26.40775
G1 X175.034 Y24.942 E26.43836
G1 X175.758 Y25.511 E26.46898
G1 X176.43 Y26.141 E26.49962
G1 X177.045 Y26.826 E26.53024
G1 X177.598 Y27.562 E26.56086
G1 X178.085 Y28.343 E26.59147
G1 X178.502 Y29.164 E26.6221
G1 X178.847 Y30.018 E26.65273
G1 X179.116 Y30.898 E26.68334
G1 X179.308 Y31.799 E26.71398
G1 X179.421 Y32.712 E26.74458
G1 X179.45 Y33.256 E26.7627
G1 X179.459 Y33.576 E26.77334
G1 X179.463 Y33.874 E26.78326
G1 X179.462 Y175.939 E31.50836
G1 X179.453 Y176.666 E31.53254
G1 X179.402 Y177.585 E31.56315
G1 X179.271 Y178.497 E31.5938
G1 X179.061 Y179.393 E31.62441
G1 X178.775 Y180.268 E31.65502
G1 X178.414 Y181.115 E31.68565
G1 X177.98 Y181.927 E31.71627
G1 X177.478 Y182.699 E31.7469
G1 X176.91 Y183.424 E31.77753
G1 X176.282 Y184.097 E31.80815
G1 X175.598 Y184.713 E31.83876
G1 X174.863 Y185.267 E31.86937
G1 X174.083 Y185.756 E31.89999
G1 X173.263 Y186.175 E31.93062
G1 X172.41 Y186.521 E31.96124
G1 X171.53 Y186.792 E31.99186
G1 X170.63 Y186.985 E32.02248
G1 X169.716 Y187.1 E32.05312
G1 X169.151 Y187.131 E32.07194
G1 X168.83 Y187.14 E32.08262
G1 X168.533 Y187.144 E32.0925
G1 X27.433 Y187.143 E36.7855
G1 X26.735 Y187.134 E36.80872
G1 X25.816 Y187.082 E36.83933
G1 X24.905 Y186.951 E36.86995
G1 X24.009 Y186.741 E36.90055
G1 X23.134 Y186.454 E36.93118
G1 X22.287 Y186.092 E36.96182
G1 X21.475 Y185.658 E36.99244
G1 X20.704 Y185.156 E37.02304
G1 X19.979 Y184.588 E37.05368
G1 X19.306 Y183.959 E37.08431
G1 X18.691 Y183.275 E37.11491
G1 X18.137 Y182.54 E37.14552
G1 X17.649 Y181.759 E37.17615
G1 X17.23 Y180.939 E37.20678
G1 X16.884 Y180.086 E37.23739
G1 X16.614 Y179.206 E37.26801
G1 X16.421 Y178.305 E37.29866
G1 X16.307 Y177.392 E37.32926
G1 X16.276 Y176.821 E37.34828
G1 X16.267 Y176.488 E37.35936
G1 X16.263 Y176.202 E37.36887
G1 X16.264 Y34.075 E42.09603
G1 X16.273 Y33.41 E42.11815
G1 X16.325 Y32.49 E42.1488
G1 X16.457 Y31.579 E42.17942
G1 X16.668 Y30.683 E42.21004
G1 X16.955 Y29.808 E42.24066
G1 X17.318 Y28.962 E42.27128
G1 X17.752 Y28.15 E42.30191
G1 X18.255 Y27.379 E42.33252
G1 X18.824 Y26.655 E42.36315
G1 X19.452 Y25.983 E42.39374
G1 X20.137 Y25.367 E42.42438
G0 F6000 X20.525 Y25.568
G1 F1200 X21.257 Y25.038 E42.45444
G1 X22.032 Y24.575 E42.48447
G1 X22.845 Y24.182 E42.5145
G1 X23.69 Y23.862 E42.54455
G1 X24.559 Y23.619 E42.57457
G1 X25.447 Y23.453 E42.60461
G1 X26.586 Y23.357 E42.64263
G1 X26.907 Y23.348 E42.65331
G1 X27.193 Y23.344 E42.66282
G1 X168.156 Y23.344 E47.35127
G1 X169 Y23.355 E47.37935
G1 X169.902 Y23.408 E47.4094
G1 X170.795 Y23.54 E47.43942
G1 X171.673 Y23.751 E47.46946
G1 X172.529 Y24.039 E47.4995
G1 X173.356 Y24.401 E47.52952
G1 X174.148 Y24.836 E47.55957
G1 X174.899 Y25.338 E47.58962
G1 X175.602 Y25.905 E47.61966
G1 X176.252 Y26.532 E47.6497
G1 X176.844 Y27.214 E47.67973
G1 X177.374 Y27.945 E47.70977
G1 X177.836 Y28.721 E47.7398
G1 X178.229 Y29.534 E47.76984
G1 X178.547 Y30.379 E47.79987
G1 X178.79 Y31.249 E47.82991
G1 X178.955 Y32.137 E47.85995
G1 X179.05 Y33.267 E47.89767
G1 X179.059 Y33.587 E47.90831
G1 X179.063 Y33.874 E47.91786
G1 X179.062 Y175.934 E52.6428
G1 X179.053 Y176.661 E52.66698
G1 X179.002 Y177.563 E52.69703
G1 X178.871 Y178.457 E52.72708
G1 X178.662 Y179.335 E52.7571
G1 X178.376 Y180.192 E52.78715
G1 X178.015 Y181.02 E52.81719
G1 X177.583 Y181.812 E52.8472
G1 X177.082 Y182.564 E52.87725
G1 X176.516 Y183.268 E52.90729
G1 X175.891 Y183.919 E52.93731
G1 X175.21 Y184.513 E52.96737
G1 X174.479 Y185.044 E52.99742
G1 X173.705 Y185.508 E53.02743
G1 X172.892 Y185.902 E53.05748
G1 X172.048 Y186.222 E53.0875
G1 X171.178 Y186.467 E53.11756
G1 X170.291 Y186.633 E53.14758
G1 X169.14 Y186.731 E53.186
G1 X168.819 Y186.74 E53.19668
G1 X168.533 Y186.744 E53.20619
G1 X27.438 Y186.743 E57.89903
G1 X26.74 Y186.734 E57.92225
G1 X25.839 Y186.683 E57.95226
G1 X24.945 Y186.551 E57.98232
G1 X24.067 Y186.342 E58.01234
G1 X23.21 Y186.055 E58.0424
G1 X22.383 Y185.694 E58.07241
G1 X21.59 Y185.261 E58.10246
G1 X20.839 Y184.76 E58.13249
G1 X20.135 Y184.194 E58.16253
G1 X19.484 Y183.568 E58.19257
G1 X18.891 Y182.887 E58.22261
G1 X18.361 Y182.156 E58.25264
G1 X17.897 Y181.381 E58.28268
G1 X17.503 Y180.568 E58.31273
G1 X17.183 Y179.724 E58.34275
G1 X16.939 Y178.854 E58.3728
G1 X16.773 Y177.966 E58.40285
G1 X16.676 Y176.811 E58.4414
G1 X16.667 Y176.478 E58.45248
G1 X16.663 Y176.202 E58.46166
G1 X16.664 Y34.08 E63.18866
G1 X16.673 Y33.415 E63.21078
G1 X16.725 Y32.513 E63.24083
G1 X16.857 Y31.62 E63.27085
G1 X17.067 Y30.742 E63.30088
G1 X17.354 Y29.885 E63.33094
G1 X17.716 Y29.058 E63.36096
G1 X18.149 Y28.266 E63.39099
G1 X18.651 Y27.515 E63.42103
G1 X19.218 Y26.811 E63.4511
G1 X19.844 Y26.161 E63.48111
G1 X20.525 Y25.568 E63.51114
G1 F2700 E58.51114
;MESH:tampa reservatorio 2.1.stl
G0 F6000 X27.673 Y32.879
G0 X27.673 Y34.354
G0 X168.081 Y34.326
G0 X168.263 Y175.944
;TYPE:WALL-INNER
G1 F2700 E63.51114
G1 F1200 X27.463 Y175.944 E68.19417
G1 X27.463 Y34.144 E72.91046
G1 X168.263 Y34.144 E77.59349
G1 X168.263 Y175.944 E82.30977
G0 F6000 X168.663 Y176.344
;TYPE:WALL-OUTER
G1 F1200 X27.063 Y176.344 E87.01941
G1 X27.063 Y33.744 E91.7623
G1 X168.663 Y33.744 E96.47194
G1 X168.663 Y176.344 E101.21483
G0 F6000 X168.393 Y176.074
G0 X168.153 Y175.554
G0 X167.873 Y175.554
;TYPE:SKIN
G1 F1200 X27.853 Y175.554 E105.87192
G1 X27.853 Y34.534 E110.56226
G1 X167.873 Y34.534 E115.21935
G1 X167.873 Y175.554 E119.90969
G1 F2700 E114.90969
G0 F6000 X168.153 Y175.554
G0 X28.315 Y175.834
G1 F2700 E119.90969
G0 F6000 X28.315 Y175.393
G1 F1200 X28.012 Y175.09 E119.92394
G0 F6000 X28.012 Y174.525
G1 F1200 X28.881 Y175.393 E119.96479
G0 F6000 X29.446 Y175.393
G1 F1200 X28.012 Y173.959 E120.03224
G0 F6000 X28.012 Y173.393
G1 F1200 X30.012 Y175.393 E120.12632
G0 F6000 X30.578 Y175.393
G1 F1200 X28.012 Y172.828 E120.24699
G0 F6000 X28.012 Y172.262
G1 F1200 X31.143 Y175.393 E120.39426
G0 F6000 X31.709 Y175.393
G1 F1200 X28.012 Y171.696 E120.56816
G0 F6000 X28.012 Y171.131
G1 F1200 X32.275 Y175.393 E120.76865
G0 F6000 X32.84 Y175.393
G1 F1200 X28.012 Y170.565 E120.99575
G0 F6000 X28.012 Y169.999
G1 F1200 X33.406 Y175.393 E121.24947
G0 F6000 X33.972 Y175.393
G1 F1200 X28.012 Y169.434 E121.52978
G0 F6000 X28.012 Y168.868
G1 F1200 X34.537 Y175.393 E121.8367
G0 F6000 X35.103 Y175.393
G1 F1200 X28.012 Y168.302 E122.17024
G0 F6000 X28.012 Y167.737
G1 F1200 X35.669 Y175.393 E122.53038
G0 F6000 X36.234 Y175.393
G1 F1200 X28.012 Y167.171 E122.91711
G0 F6000 X28.012 Y166.605
G1 F1200 X36.8 Y175.393 E123.33047
G0 F6000 X37.366 Y175.393
G1 F1200 X28.012 Y166.039 E123.77046
G0 F6000 X28.012 Y165.474
G1 F1200 X37.932 Y175.393 E124.23704
G0 F6000 X38.497 Y175.393
G1 F1200 X28.012 Y164.908 E124.73022
G0 F6000 X28.012 Y164.342
G1 F1200 X39.063 Y175.393 E125.25003
G0 F6000 X39.629 Y175.393
G1 F1200 X28.012 Y163.777 E125.79643
G0 F6000 X28.012 Y163.211
G1 F1200 X40.194 Y175.393 E126.36944
G0 F6000 X40.76 Y175.393
G1 F1200 X28.012 Y162.645 E126.96906
G0 F6000 X28.012 Y162.08
G1 F1200 X41.326 Y175.393 E127.59529
G0 F6000 X41.891 Y175.393
G1 F1200 X28.012 Y161.514 E128.24812
G0 F6000 X28.012 Y160.948
G1 F1200 X42.457 Y175.393 E128.92756
G0 F6000 X43.023 Y175.393
G1 F1200 X28.012 Y160.383 E129.63361
G0 F6000 X28.012 Y159.817
G1 F1200 X43.588 Y175.393 E130.36626
G0 F6000 X44.154 Y175.393
G1 F1200 X28.012 Y159.251 E131.12553
G0 F6000 X28.012 Y158.686
G1 F1200 X44.72 Y175.393 E131.9114
G0 F6000 X45.285 Y175.393
G1 F1200 X28.012 Y158.12 E132.72387
G0 F6000 X28.012 Y157.554
G1 F1200 X45.851 Y175.393 E133.56296
G0 F6000 X46.417 Y175.393
G1 F1200 X28.012 Y156.989 E134.42865
G0 F6000 X28.012 Y156.423
G1 F1200 X46.983 Y175.393 E135.32097
G0 F6000 X47.548 Y175.393
G1 F1200 X28.012 Y155.857 E136.23988
G0 F6000 X28.012 Y155.291
G1 F1200 X48.114 Y175.393 E137.18542
G0 F6000 X48.68 Y175.393
G1 F1200 X28.012 Y154.726 E138.15755
G0 F6000 X28.012 Y154.16
G1 F1200 X49.245 Y175.393 E139.15629
G0 F6000 X49.811 Y175.393
G1 F1200 X28.012 Y153.594 E140.18164
G0 F6000 X28.012 Y153.029
G1 F1200 X50.377 Y175.393 E141.2336
G0 F6000 X50.942 Y175.393
G1 F1200 X28.012 Y152.463 E142.31216
G0 F6000 X28.012 Y151.897
G1 F1200 X51.508 Y175.393 E143.41734
G0 F6000 X52.074 Y175.393
G1 F1200 X28.012 Y151.332 E144.54912
G0 F6000 X28.012 Y150.766
G1 F1200 X52.639 Y175.393 E145.7075
G0 F6000 X53.205 Y175.393
G1 F1200 X28.012 Y150.2 E146.8925
G0 F6000 X28.012 Y149.635
G1 F1200 X53.771 Y175.393 E148.1041
G0 F6000 X54.336 Y175.393
G1 F1200 X28.012 Y149.069 E149.3423
G0 F6000 X28.012 Y148.503
G1 F1200 X54.902 Y175.393 E150.60712
G0 F6000 X55.468 Y175.393
G1 F1200 X28.012 Y147.938 E151.89854
G0 F6000 X28.012 Y147.372
G1 F1200 X56.033 Y175.393 E153.21657
G0 F6000 X56.599 Y175.393
G1 F1200 X28.012 Y146.806 E154.56121
G0 F6000 X28.012 Y146.24
G1 F1200 X57.165 Y175.393 E155.93248
G0 F6000 X57.731 Y175.393
G1 F1200 X28.012 Y145.675 E157.33035
G0 F6000 X28.012 Y145.109
G1 F1200 X58.296 Y175.393 E158.75481
G0 F6000 X58.862 Y175.393
G1 F1200 X28.012 Y144.543 E160.2059
G0 F6000 X28.012 Y143.978
G1 F1200 X59.428 Y175.393 E161.68359
G0 F6000 X59.993 Y175.393
G1 F1200 X28.012 Y143.412 E163.18788
G0 F6000 X28.012 Y142.846
G1 F1200 X60.559 Y175.393 E164.71879
G0 F6000 X61.125 Y175.393
G1 F1200 X28.012 Y142.281 E166.2763
G0 F6000 X28.012 Y141.715
G1 F1200 X61.69 Y175.393 E167.86041
G0 F6000 X62.256 Y175.393
G1 F1200 X28.012 Y141.149 E169.47114
G0 F6000 X28.012 Y140.584
G1 F1200 X62.822 Y175.393 E171.10848
G0 F6000 X63.387 Y175.393
G1 F1200 X28.012 Y140.018 E172.77241
G0 F6000 X28.012 Y139.452
G1 F1200 X63.953 Y175.393 E174.46296
G0 F6000 X64.519 Y175.393
G1 F1200 X28.012 Y138.887 E176.18012
G0 F6000 X28.012 Y138.321
G1 F1200 X65.084 Y175.393 E177.92387
G0 F6000 X65.65 Y175.393
G1 F1200 X28.012 Y137.755 E179.69424
G0 F6000 X28.012 Y137.19
G1 F1200 X66.216 Y175.393 E181.49122
G0 F6000 X66.781 Y175.393
G1 F1200 X28.012 Y136.624 E183.31479
G0 F6000 X28.012 Y136.058
G1 F1200 X67.347 Y175.393 E185.16499
G0 F6000 X67.913 Y175.393
G1 F1200 X28.012 Y135.492 E187.04181
G0 F6000 X28.012 Y134.927
G1 F1200 X68.479 Y175.393 E188.94523
G0 F6000 X69.044 Y175.393
G1 F1200 X28.012 Y134.361 E190.87525
G0 F6000 X28.012 Y133.795
G1 F1200 X69.61 Y175.393 E192.8319
G0 F6000 X70.176 Y175.393
G1 F1200 X28.012 Y133.23 E194.81514
G0 F6000 X28.012 Y132.664
G1 F1200 X70.741 Y175.393 E196.82498
G0 F6000 X71.307 Y175.393
G1 F1200 X28.012 Y132.098 E198.86144
G0 F6000 X28.012 Y131.533
G1 F1200 X71.873 Y175.393 E200.92451
G0 F6000 X72.438 Y175.393
G1 F1200 X28.012 Y130.967 E203.01417
G0 F6000 X28.012 Y130.401
G1 F1200 X73.004 Y175.393 E205.13045
G0 F6000 X73.57 Y175.393
G1 F1200 X28.012 Y129.836 E207.27334
G0 F6000 X28.012 Y129.27
G1 F1200 X74.135 Y175.393 E209.44282
G0 F6000 X74.701 Y175.393
G1 F1200 X28.012 Y128.704 E211.63893
G0 F6000 X28.012 Y128.139
G1 F1200 X75.267 Y175.393 E213.86164
G0 F6000 X75.832 Y175.393
G1 F1200 X28.012 Y127.573 E216.11094
G0 F6000 X28.012 Y127.007
G1 F1200 X76.398 Y175.393 E218.38687
G0 F6000 X76.964 Y175.393
G1 F1200 X28.012 Y126.442 E220.6894
G0 F6000 X28.012 Y125.876
G1 F1200 X77.53 Y175.393 E223.01855
G0 F6000 X78.095 Y175.393
G1 F1200 X28.012 Y125.31 E225.3743
G0 F6000 X28.012 Y124.744
G1 F1200 X78.661 Y175.393 E227.75668
G0 F6000 X79.227 Y175.393
G1 F1200 X28.012 Y124.179 E230.16565
G0 F6000 X28.012 Y123.613
G1 F1200 X79.792 Y175.393 E232.60122
G0 F6000 X80.358 Y175.393
G1 F1200 X28.012 Y123.047 E235.06342
G0 F6000 X28.012 Y122.482
G1 F1200 X80.924 Y175.393 E237.55221
G0 F6000 X81.489 Y175.393
G1 F1200 X28.012 Y121.916 E240.06761
G0 F6000 X28.012 Y121.35
G1 F1200 X82.055 Y175.393 E242.60962
G0 F6000 X82.621 Y175.393
G1 F1200 X28.012 Y120.785 E245.17824
G0 F6000 X28.012 Y120.219
G1 F1200 X83.186 Y175.393 E247.77346
G0 F6000 X83.752 Y175.393
G1 F1200 X28.012 Y119.653 E250.3953
G0 F6000 X28.012 Y119.088
G1 F1200 X84.318 Y175.393 E253.04373
G0 F6000 X84.883 Y175.393
G1 F1200 X28.012 Y118.522 E255.71877
G0 F6000 X28.012 Y117.956
G1 F1200 X85.449 Y175.393 E258.42043
G0 F6000 X86.015 Y175.393
G1 F1200 X28.012 Y117.391 E261.14869
G0 F6000 X28.012 Y116.825
G1 F1200 X86.58 Y175.393 E263.90355
G0 F6000 X87.146 Y175.393
G1 F1200 X28.012 Y116.259 E266.68503
G0 F6000 X28.012 Y115.693
